;FLAVOR:Marlin
;TIME:1679
;Filament used: 2.08247m
;Layer height: 0.2
;MINX:166.829
;MINY:166.829
;MINZ:0.2
;MAXX:233.171
;MAXY:233.171
;MAXZ:5
;Generated with Cura_SteamEngine 5.4.0
M140 S60
M105
M190 S60
M104 S210
M105
M109 S210
M82 ;absolute extrusion mode
M107 ;Start with the fan off
G21 ;Set units to millimeters
G91 ;Change to relative positioning mode for retract filament and nozzle lifting
G1 F200 E-3 ;Retract 3mm filament for a clean start
G92 E0 ;Zero the extruded length
G1 F1000 Z5 ;Lift the nozzle 5mm before homing axes
G90 ;Absolute positioning
M82 ;Set extruder to absolute mode too
G28 X0 Y0 ;First move X/Y to min endstops
G28 Z0 ;Then move Z to min endstops
G1 F1000 Z15 ;After homing lift the nozzle 15mm before start printing

G92 E0
G92 E0
G1 F2400 E-6
;LAYER_COUNT:25
;LAYER:0
M106 S255
M204 S3000
M205 X10 Y10
G1 F600 Z0.275
G0 F3000 X176.474 Y176.616 Z0.275
M204 S1800
M205 X8 Y8
;TYPE:SKIRT
G1 F600 Z0.2
G1 F2400 E0
G1 X177.471 Y175.637 E0.06506
G1 X179.498 Y173.914 E0.18894
G1 X180.794 Y172.953 E0.26407
G1 X181.502 Y172.452 E0.30446
G1 X182.441 Y171.869 E0.35592
G1 X183.836 Y171.026 E0.43182
G1 X184.809 Y170.512 E0.48306
G1 X186.11 Y169.867 E0.55067
G1 X188.522 Y168.87 E0.6722
G1 X189.617 Y168.497 E0.72607
G1 X191.007 Y168.061 E0.7939
G1 X193.491 Y167.466 E0.91284
G1 X195.022 Y167.205 E0.98516
G1 X196.107 Y167.05 E1.03619
G1 X198.75 Y166.845 E1.15963
G1 X200.379 Y166.829 E1.23549
G1 X201.257 Y166.842 E1.27638
G1 X202.35 Y166.922 E1.32741
G1 X203.87 Y167.049 E1.39843
G1 X205.066 Y167.22 E1.45469
G1 X206.455 Y167.453 E1.52027
G1 X209.043 Y168.08 E1.64426
G1 X210.127 Y168.414 E1.69708
G1 X211.494 Y168.875 E1.76426
G1 X213.922 Y169.885 E1.88671
G1 X215.356 Y170.597 E1.96126
G1 X216.215 Y171.05 E2.00648
G1 X218.459 Y172.431 E2.12917
G1 X219.785 Y173.375 E2.20496
G1 X220.543 Y173.944 E2.24909
G1 X222.489 Y175.608 E2.36832
G1 X223.37 Y176.46 E2.42539
G1 X224.363 Y177.471 E2.49137
G1 X226.108 Y179.526 E2.61691
G1 X226.968 Y180.686 E2.68415
G1 X227.575 Y181.545 E2.73312
G1 X228.131 Y182.441 E2.78223
G1 X228.974 Y183.836 E2.85812
G1 X229.487 Y184.808 E2.9093
G1 X230.135 Y186.11 E2.97702
G1 X231.117 Y188.487 E3.09678
G1 X231.503 Y189.616 E3.15234
G1 X231.937 Y190.996 E3.2197
G1 X232.533 Y193.481 E3.33869
G1 X232.809 Y195.114 E3.41581
G1 X232.95 Y196.104 E3.46237
G1 X233.155 Y198.748 E3.58586
G1 X233.171 Y200.223 E3.65454
G1 X233.158 Y201.243 E3.70204
G1 X232.945 Y203.922 E3.82718
G1 X232.718 Y205.467 E3.8999
G1 X232.552 Y206.431 E3.94544
G1 X231.938 Y208.975 E4.0673
G1 X231.588 Y210.122 E4.12315
G1 X231.127 Y211.494 E4.19054
G1 X230.134 Y213.883 E4.31101
G1 X229.389 Y215.385 E4.38908
G1 X229.048 Y216.03 E4.42305
G1 X228.402 Y217.118 E4.48197
G1 X227.567 Y218.462 E4.55565
G1 X226.61 Y219.806 E4.63248
G1 X226.057 Y220.542 E4.67534
G1 X224.392 Y222.49 E4.79467
G1 X223.54 Y223.37 E4.8517
G1 X222.529 Y224.363 E4.91769
G1 X220.502 Y226.086 E5.04157
G1 X219.206 Y227.047 E5.11669
G1 X218.498 Y227.548 E5.15708
G1 X217.559 Y228.131 E5.20855
G1 X216.164 Y228.974 E5.28444
G1 X215.191 Y229.488 E5.33568
G1 X213.89 Y230.133 E5.4033
G1 X211.478 Y231.13 E5.52483
G1 X210.383 Y231.503 E5.57869
G1 X208.993 Y231.939 E5.64653
G1 X206.509 Y232.534 E5.76546
G1 X204.978 Y232.795 E5.83778
G1 X203.893 Y232.95 E5.88882
G1 X201.25 Y233.155 E6.01226
G1 X199.621 Y233.171 E6.08811
G1 X198.744 Y233.158 E6.12895
G1 X197.65 Y233.078 E6.18003
G1 X196.13 Y232.951 E6.25106
G1 X194.934 Y232.78 E6.30731
G1 X193.545 Y232.547 E6.37289
G1 X190.957 Y231.92 E6.49689
G1 X189.873 Y231.586 E6.54971
G1 X188.506 Y231.125 E6.61688
G1 X186.071 Y230.112 E6.73969
G1 X184.607 Y229.385 E6.8158
G1 X183.702 Y228.897 E6.86367
G1 X182.881 Y228.402 E6.90831
G1 X181.545 Y227.572 E6.98155
G1 X180.18 Y226.598 E7.05963
G1 X179.46 Y226.059 E7.10151
G1 X177.509 Y224.391 E7.22104
G1 X176.63 Y223.54 E7.27801
G1 X175.638 Y222.529 E7.34396
G1 X173.924 Y220.514 E7.46714
G1 X173.282 Y219.656 E7.51704
G1 X172.421 Y218.451 E7.586
G1 X171.065 Y216.235 E7.70697
G1 X170.512 Y215.191 E7.76198
G1 X169.867 Y213.89 E7.8296
G1 X168.862 Y211.458 E7.95213
G1 X168.398 Y210.079 E8.01988
G1 X168.058 Y208.984 E8.07327
G1 X167.465 Y206.511 E8.19169
G1 X167.205 Y204.978 E8.26409
G1 X167.05 Y203.893 E8.31512
G1 X166.845 Y201.253 E8.43842
G1 X166.829 Y199.75 E8.50841
G1 X166.843 Y198.863 E8.54972
G1 X166.922 Y197.65 E8.60632
G1 X167.052 Y196.103 E8.67861
G1 X167.199 Y195.058 E8.72775
G1 X167.437 Y193.612 E8.79599
G1 X168.078 Y190.963 E8.9229
G1 X168.414 Y189.873 E8.97601
G1 X168.875 Y188.506 E9.04318
G1 X169.887 Y186.072 E9.16593
G1 X170.604 Y184.626 E9.24108
G1 X171.007 Y183.86 E9.28139
G1 X172.454 Y181.506 E9.41005
G1 X173.388 Y180.198 E9.48489
G1 X173.939 Y179.462 E9.5277
G1 X175.61 Y177.509 E9.64739
G1 X176.474 Y176.616 E9.70524
M204 S3000
M205 X10 Y10
G0 F3000 X176.867 Y177.015
M204 S1800
M205 X8 Y8
G1 F2400 X177.834 Y176.064 E9.7684
G1 X179.832 Y174.364 E9.89055
G1 X181.118 Y173.41 E9.96511
G1 X181.798 Y172.928 E10.00392
G1 X182.731 Y172.348 E10.05508
G1 X184.098 Y171.521 E10.12947
G1 X185.058 Y171.014 E10.18003
G1 X186.324 Y170.385 E10.24585
G1 X188.736 Y169.388 E10.36738
G1 X189.785 Y169.031 E10.41898
G1 X191.137 Y168.606 E10.48497
G1 X193.621 Y168.011 E10.60391
G1 X195.102 Y167.759 E10.67386
G1 X196.151 Y167.608 E10.72321
G1 X198.756 Y167.405 E10.84488
G1 X200.371 Y167.389 E10.92008
G1 X201.216 Y167.401 E10.95943
G1 X202.303 Y167.48 E11.01018
G1 X203.823 Y167.607 E11.08121
G1 X204.974 Y167.772 E11.13535
G1 X206.323 Y167.997 E11.19903
G1 X208.878 Y168.615 E11.32143
G1 X209.949 Y168.945 E11.37362
G1 X211.279 Y169.392 E11.43895
G1 X213.673 Y170.387 E11.55967
G1 X215.095 Y171.092 E11.63358
G1 X215.921 Y171.527 E11.67705
G1 X218.165 Y172.908 E11.79974
G1 X219.449 Y173.823 E11.87315
G1 X220.179 Y174.37 E11.91563
G1 X222.125 Y176.034 E12.03485
G1 X222.971 Y176.853 E12.08968
G1 X223.936 Y177.834 E12.15376
G1 X225.658 Y179.86 E12.27757
G1 X226.511 Y181.009 E12.34421
G1 X227.099 Y181.84 E12.39161
G1 X227.652 Y182.731 E12.44044
G1 X228.479 Y184.098 E12.51483
G1 X228.986 Y185.058 E12.56538
G1 X229.617 Y186.324 E12.63125
G1 X230.599 Y188.701 E12.75101
G1 X230.969 Y189.784 E12.8043
G1 X231.392 Y191.127 E12.86986
G1 X231.988 Y193.612 E12.98886
G1 X232.255 Y195.194 E13.06356
G1 X232.392 Y196.147 E13.10839
G1 X232.595 Y198.754 E13.23016
G1 X232.611 Y200.216 E13.29824
G1 X232.598 Y201.236 E13.34574
G1 X232.391 Y203.841 E13.46742
G1 X232.166 Y205.372 E13.53947
G1 X232 Y206.336 E13.58502
G1 X231.394 Y208.843 E13.70512
G1 X231.057 Y209.944 E13.75874
G1 X230.61 Y211.279 E13.82429
G1 X229.617 Y213.668 E13.94476
G1 X228.894 Y215.123 E14.02041
G1 X228.566 Y215.744 E14.05312
G1 X227.926 Y216.822 E14.11149
G1 X227.091 Y218.166 E14.18517
G1 X226.162 Y219.47 E14.25972
G1 X225.631 Y220.178 E14.30093
G1 X223.966 Y222.126 E14.42026
G1 X223.147 Y222.971 E14.47505
G1 X222.166 Y223.936 E14.53913
G1 X220.168 Y225.636 E14.66128
G1 X218.882 Y226.59 E14.73584
G1 X218.202 Y227.072 E14.77465
G1 X217.269 Y227.652 E14.82581
G1 X215.902 Y228.479 E14.9002
G1 X214.942 Y228.986 E14.95076
G1 X213.676 Y229.615 E15.01658
G1 X211.264 Y230.612 E15.13811
G1 X210.215 Y230.969 E15.18971
G1 X208.863 Y231.394 E15.2557
G1 X206.379 Y231.989 E15.37464
G1 X204.898 Y232.241 E15.44459
G1 X203.849 Y232.392 E15.49394
G1 X201.244 Y232.595 E15.61561
G1 X199.629 Y232.611 E15.69081
G1 X198.785 Y232.599 E15.73012
G1 X197.697 Y232.52 E15.78091
G1 X196.177 Y232.393 E15.85193
G1 X195.026 Y232.228 E15.90608
G1 X193.677 Y232.003 E15.96976
G1 X191.122 Y231.385 E16.09216
G1 X190.051 Y231.055 E16.14435
G1 X188.721 Y230.608 E16.20968
G1 X186.32 Y229.61 E16.33076
G1 X184.873 Y228.892 E16.40597
G1 X183.991 Y228.417 E16.45262
G1 X183.177 Y227.926 E16.49688
G1 X181.841 Y227.096 E16.57012
G1 X180.515 Y226.15 E16.64597
G1 X179.824 Y225.633 E16.68615
G1 X177.873 Y223.965 E16.80568
G1 X177.029 Y223.147 E16.86041
G1 X176.065 Y222.166 E16.92445
G1 X174.351 Y220.151 E17.04763
G1 X173.737 Y219.33 E17.09537
G1 X172.899 Y218.159 E17.16242
G1 X171.543 Y215.943 E17.28339
G1 X171.014 Y214.942 E17.33611
G1 X170.385 Y213.676 E17.40193
G1 X169.38 Y211.244 E17.52447
G1 X168.933 Y209.913 E17.58984
G1 X168.603 Y208.853 E17.64154
G1 X168.01 Y206.38 E17.75996
G1 X167.759 Y204.898 E17.82995
G1 X167.608 Y203.849 E17.8793
G1 X167.405 Y201.247 E18.00082
G1 X167.389 Y199.758 E18.07016
G1 X167.402 Y198.899 E18.11017
G1 X167.48 Y197.697 E18.16625
G1 X167.607 Y196.181 E18.23709
G1 X167.752 Y195.149 E18.28562
G1 X167.99 Y193.703 E18.35386
G1 X168.613 Y191.128 E18.47722
G1 X168.945 Y190.051 E18.5297
G1 X169.392 Y188.721 E18.59503
G1 X170.389 Y186.321 E18.71604
G1 X171.1 Y184.887 E18.79057
G1 X171.503 Y184.121 E18.83088
G1 X172.91 Y181.831 E18.95603
G1 X173.836 Y180.533 E19.03027
G1 X174.365 Y179.826 E19.07139
G1 X176.036 Y177.873 E19.19107
G1 X176.867 Y177.015 E19.24669
M204 S3000
M205 X10 Y10
G0 F3000 X177.26 Y177.414
M204 S1800
M205 X8 Y8
G1 F2400 X178.197 Y176.491 E19.30794
G1 X180.195 Y174.791 E19.43009
G1 X181.442 Y173.867 E19.50236
G1 X182.122 Y173.385 E19.54117
G1 X183.021 Y172.827 E19.59044
G1 X184.36 Y172.016 E19.66333
G1 X185.308 Y171.515 E19.71326
G1 X186.538 Y170.902 E19.77725
G1 X188.916 Y169.918 E19.89709
G1 X189.953 Y169.565 E19.9481
G1 X191.267 Y169.151 E20.01225
G1 X193.751 Y168.556 E20.13119
G1 X195.182 Y168.313 E20.19877
G1 X196.195 Y168.166 E20.24644
G1 X198.762 Y167.965 E20.36633
G1 X200.363 Y167.949 E20.44089
G1 X201.176 Y167.96 E20.47875
G1 X202.256 Y168.038 E20.52917
G1 X203.776 Y168.165 E20.60019
G1 X204.882 Y168.324 E20.65222
G1 X206.192 Y168.541 E20.71405
G1 X208.713 Y169.15 E20.83481
G1 X209.771 Y169.476 E20.88637
G1 X211.064 Y169.909 E20.94986
G1 X213.424 Y170.889 E21.06885
G1 X214.835 Y171.588 E21.14217
G1 X215.628 Y172.004 E21.18387
G1 X217.84 Y173.364 E21.30478
G1 X219.114 Y174.272 E21.37763
G1 X219.815 Y174.796 E21.41838
G1 X221.761 Y176.46 E21.5376
G1 X222.572 Y177.246 E21.59019
G1 X223.509 Y178.197 E21.65236
G1 X225.208 Y180.194 E21.77445
G1 X226.054 Y181.333 E21.84051
G1 X226.623 Y182.136 E21.88634
G1 X227.173 Y183.021 E21.93486
G1 X227.984 Y184.36 E22.00775
G1 X228.485 Y185.308 E22.05768
G1 X229.099 Y186.538 E22.1217
G1 X230.081 Y188.915 E22.24145
G1 X230.435 Y189.952 E22.29248
G1 X230.847 Y191.258 E22.35624
G1 X231.443 Y193.743 E22.47524
G1 X231.701 Y195.274 E22.54753
G1 X231.834 Y196.191 E22.59068
G1 X232.035 Y198.76 E22.71067
G1 X232.051 Y200.209 E22.77814
G1 X232.038 Y201.229 E22.82564
G1 X231.837 Y203.76 E22.94387
G1 X231.614 Y205.278 E23.01531
G1 X231.456 Y206.204 E23.05905
G1 X230.85 Y208.711 E23.17915
G1 X230.526 Y209.767 E23.23058
G1 X230.093 Y211.064 E23.29425
G1 X229.115 Y213.419 E23.41299
G1 X228.399 Y214.861 E23.48796
G1 X228.071 Y215.482 E23.52066
G1 X227.45 Y216.527 E23.57726
G1 X226.635 Y217.841 E23.64926
G1 X225.714 Y219.134 E23.72318
G1 X225.205 Y219.814 E23.76273
G1 X223.54 Y221.762 E23.88206
G1 X222.754 Y222.572 E23.93462
G1 X221.803 Y223.509 E23.99678
G1 X219.805 Y225.209 E24.11894
G1 X218.558 Y226.133 E24.1912
G1 X217.878 Y226.615 E24.23002
G1 X216.979 Y227.173 E24.27929
G1 X215.64 Y227.984 E24.35218
G1 X214.692 Y228.485 E24.40211
G1 X213.462 Y229.098 E24.4661
G1 X211.084 Y230.082 E24.58594
G1 X210.047 Y230.435 E24.63694
G1 X208.733 Y230.849 E24.70109
G1 X206.249 Y231.444 E24.82003
G1 X204.818 Y231.687 E24.88762
G1 X203.805 Y231.834 E24.93528
G1 X201.238 Y232.035 E25.05518
G1 X199.637 Y232.051 E25.12973
G1 X198.825 Y232.04 E25.16754
G1 X197.744 Y231.962 E25.21801
G1 X196.224 Y231.835 E25.28904
G1 X195.118 Y231.676 E25.34107
G1 X193.808 Y231.459 E25.4029
G1 X191.287 Y230.85 E25.52366
G1 X190.229 Y230.524 E25.57521
G1 X188.936 Y230.091 E25.6387
G1 X186.569 Y229.108 E25.75805
G1 X185.139 Y228.399 E25.83237
G1 X184.257 Y227.924 E25.87902
G1 X183.472 Y227.45 E25.92172
G1 X182.166 Y226.64 E25.99328
G1 X180.85 Y225.702 E26.06853
G1 X180.188 Y225.207 E26.10702
G1 X178.237 Y223.539 E26.22654
G1 X177.428 Y222.754 E26.27903
G1 X176.491 Y221.803 E26.3412
G1 X174.799 Y219.815 E26.46275
G1 X174.192 Y219.004 E26.50992
G1 X173.377 Y217.867 E26.57506
G1 X172.021 Y215.651 E26.69604
G1 X171.515 Y214.692 E26.74653
G1 X170.902 Y213.462 E26.81052
G1 X169.911 Y211.066 E26.93125
G1 X169.468 Y209.746 E26.99609
G1 X169.148 Y208.722 E27.04604
G1 X168.555 Y206.249 E27.16446
G1 X168.313 Y204.818 E27.23204
G1 X168.166 Y203.805 E27.2797
G1 X167.965 Y201.241 E27.39946
G1 X167.949 Y199.766 E27.46815
G1 X167.961 Y198.935 E27.50684
G1 X168.038 Y197.744 E27.56242
G1 X168.165 Y196.228 E27.63326
G1 X168.305 Y195.24 E27.67972
G1 X168.543 Y193.794 E27.74796
G1 X169.148 Y191.293 E27.86778
G1 X169.476 Y190.229 E27.91962
G1 X169.909 Y188.936 E27.98311
G1 X170.891 Y186.57 E28.1024
G1 X171.596 Y185.148 E28.1763
G1 X171.999 Y184.382 E28.21661
G1 X173.366 Y182.156 E28.33824
G1 X174.284 Y180.868 E28.41189
G1 X174.791 Y180.19 E28.45131
G1 X176.462 Y178.237 E28.571
G1 X177.26 Y177.414 E28.62438
M204 S3000
M205 X10 Y10
G1 F2400 E22.62438
;MESH:bigpgear.STL
G0 F3000 X185.094 Y176.929
G0 X186.427 Y177.085
G0 X187.469 Y176.806
G0 X191.039 Y178.038
M204 S1800
M205 X8 Y8
;TYPE:WALL-INNER
G1 F2400 E28.62438
G1 F3600 X191.279 Y177.647 E28.64574
G1 X190.026 Y178.158 E28.70875
G1 X189.653 Y178.219 E28.72635
G1 X189.279 Y178.179 E28.74386
G1 X188.944 Y178.049 E28.76059
G1 X188.722 Y177.864 E28.77405
G1 X188.741 Y178.153 E28.78754
G1 X188.649 Y178.501 E28.8043
G1 X188.462 Y178.826 E28.82176
G1 X188.227 Y179.079 E28.83784
G1 X186.848 Y179.924 E28.91314
G1 X186.564 Y180.057 E28.92775
G1 X186.06 Y180.13 E28.95146
G1 X185.694 Y180.066 E28.96876
G1 X185.391 Y179.892 E28.98503
G1 X185.462 Y180.235 E29.00134
G1 X185.411 Y180.603 E29.01864
G1 X185.286 Y180.906 E29.0339
G1 X185.012 Y181.239 E29.05398
G1 X185.444 Y181.255 E29.07411
G1 X185.754 Y181.362 E29.08938
G1 X186.053 Y181.545 E29.10571
G1 X194.518 Y190.505 E29.67967
G1 X190.985 Y178.654 E30.2555
G1 X191.039 Y178.038 E30.2843
M204 S3000
M205 X10 Y10
G0 F3000 X197.848 Y197.937
G0 X197.53 Y198.331
G0 X197.283 Y198.772
G0 X197.115 Y199.249
G0 X197.03 Y199.748
G0 X197.031 Y200.261
G0 X197.116 Y200.751
G0 X197.283 Y201.228
G0 X197.53 Y201.669
G0 X197.848 Y202.063
G0 X197.916 Y202.604
G0 X200.07 Y203.436
G0 X200.073 Y203.378
M204 S1800
M205 X8 Y8
G1 F3600 X199.498 Y203.341 E30.31113
G1 X199.077 Y203.25 E30.33118
G1 X198.545 Y203.049 E30.35766
G1 X197.99 Y202.723 E30.38764
G1 X197.519 Y202.296 E30.41724
G1 X197.168 Y201.842 E30.44396
G1 X196.894 Y201.33 E30.471
G1 X196.713 Y200.783 E30.49783
G1 X196.641 Y200.365 E30.51758
G1 X196.627 Y199.71 E30.54809
G1 X196.749 Y199.079 E30.57801
G1 X196.954 Y198.537 E30.605
G1 X197.239 Y198.054 E30.63111
G1 X197.61 Y197.612 E30.65798
G1 X198.048 Y197.243 E30.68465
G1 X198.545 Y196.951 E30.71149
G1 X199.077 Y196.75 E30.73797
G1 X199.531 Y196.653 E30.75959
G1 X200.111 Y196.622 E30.78663
G1 X200.644 Y196.683 E30.81161
G1 X201.195 Y196.839 E30.83828
G1 X201.725 Y197.093 E30.86565
G1 X202.239 Y197.459 E30.89503
G1 X202.672 Y197.932 E30.92489
G1 X202.941 Y198.334 E30.94741
G1 X203.187 Y198.866 E30.9747
G1 X203.316 Y199.359 E30.99843
G1 X203.376 Y199.917 E31.02456
G1 X203.342 Y200.498 E31.05166
G1 X203.195 Y201.123 E31.08156
G1 X202.947 Y201.659 E31.10906
G1 X202.621 Y202.138 E31.13604
G1 X202.176 Y202.586 E31.16544
G1 X201.734 Y202.901 E31.19072
G1 X201.195 Y203.161 E31.21858
G1 X200.69 Y203.309 E31.24309
G1 X200.073 Y203.378 E31.272
M204 S3000
M205 X10 Y10
G0 F3000 X200.07 Y203.436
G0 X203.26 Y206.05
G0 X203.26 Y206.109
M204 S1800
M205 X8 Y8
G1 F3600 X203.562 Y206.172 E31.28636
G1 X203.661 Y205.877 E31.30085
G1 X206.92 Y200.234 E31.60429
G1 X207.127 Y200 E31.61883
