;FLAVOR:Marlin
;TIME:2012
;Filament used: 1.59987m
;Layer height: 0.2
;MINX:213.227
;MINY:180.909
;MINZ:0.2
;MAXX:251.169
;MAXY:219.091
;MAXZ:12.6
;Generated with Cura_SteamEngine 5.4.0
M140 S60
M105
M190 S60
M104 S200
M105
M109 S200
M82 ;absolute extrusion mode
M107 ;Start with the fan off
G21 ;Set units to millimeters
G91 ;Change to relative positioning mode for retract filament and nozzle lifting
G1 F200 E-3 ;Retract 3mm filament for a clean start
G92 E0 ;Zero the extruded length
G1 F1000 Z5 ;Lift the nozzle 5mm before homing axes
G90 ;Absolute positioning
M82 ;Set extruder to absolute mode too
G28 X0 Y0 ;First move X/Y to min endstops
G28 Z0 ;Then move Z to min endstops
G1 F1000 Z15 ;After homing lift the nozzle 15mm before start printing

G92 E0
G92 E0
G1 F2400 E-6
;LAYER_COUNT:63
;LAYER:0
M106 S255
M204 S3000
M205 X10 Y10
G1 F600 Z0.275
G0 F3000 X217.91 Y187.401 Z0.275
M204 S1800
M205 X8 Y8
;TYPE:SKIRT
G1 F600 Z0.2
G1 F2400 E0
G1 X218.513 Y186.702 E0.04299
G1 X219.072 Y186.145 E0.07973
G1 X220.022 Y185.311 E0.13859
G1 X220.77 Y184.71 E0.18327
G1 X221.928 Y183.91 E0.24881
G1 X223.101 Y183.219 E0.3122
G1 X223.86 Y182.837 E0.35177
G1 X224.726 Y182.486 E0.39528
G1 X228.052 Y181.407 E0.5581
G1 X228.983 Y181.191 E0.6026
G1 X229.97 Y181.046 E0.64906
G1 X230.468 Y180.991 E0.67239
G1 X231.994 Y180.909 E0.74354
G1 X233.306 Y180.941 E0.80465
G1 X234.705 Y181.075 E0.8701
G1 X235.485 Y181.202 E0.90689
G1 X236.431 Y181.431 E0.95222
G1 X239.729 Y182.503 E1.11369
G1 X240.576 Y182.854 E1.15639
G1 X241.284 Y183.218 E1.19346
G1 X242.135 Y183.699 E1.23897
G1 X243.186 Y184.387 E1.29747
G1 X244.188 Y185.151 E1.35614
G1 X244.825 Y185.696 E1.39517
G1 X245.779 Y186.594 E1.45618
G1 X246.371 Y187.237 E1.49688
G1 X248.599 Y190.307 E1.67351
G1 X249.064 Y191.073 E1.71524
G1 X249.521 Y191.988 E1.76286
G1 X249.766 Y192.534 E1.79073
G1 X250.272 Y193.85 E1.85638
G1 X250.509 Y194.611 E1.89349
G1 X250.769 Y195.572 E1.93985
G1 X251.076 Y197.138 E2.01416
G1 X251.169 Y198.351 E2.07081
G1 X251.162 Y198.944 E2.09842
G1 X251.169 Y201.688 E2.22619
G1 X251.088 Y202.718 E2.2743
G1 X250.97 Y203.451 E2.30887
G1 X250.684 Y204.733 E2.37004
G1 X250.43 Y205.667 E2.41511
G1 X249.987 Y206.932 E2.47752
G1 X249.438 Y208.204 E2.54203
G1 X249.067 Y208.93 E2.57999
G1 X248.511 Y209.822 E2.62894
G1 X248.239 Y210.186 E2.65009
G1 X246.552 Y212.518 E2.78412
G1 X245.885 Y213.3 E2.83198
G1 X245.303 Y213.878 E2.87017
G1 X244.423 Y214.651 E2.92471
G1 X243.571 Y215.333 E2.97553
G1 X242.472 Y216.09 E3.03767
G1 X241.299 Y216.781 E3.10106
G1 X240.54 Y217.163 E3.14063
G1 X239.674 Y217.514 E3.18414
G1 X236.348 Y218.593 E3.34695
G1 X235.417 Y218.809 E3.39146
G1 X234.43 Y218.954 E3.43791
G1 X233.932 Y219.009 E3.46124
G1 X232.406 Y219.091 E3.5324
G1 X231.094 Y219.059 E3.59351
G1 X229.689 Y218.924 E3.65923
G1 X228.829 Y218.78 E3.69984
G1 X227.969 Y218.569 E3.74107
G1 X224.671 Y217.497 E3.90255
G1 X223.824 Y217.146 E3.94524
G1 X223.113 Y216.78 E3.98248
G1 X222.264 Y216.298 E4.02793
G1 X221.152 Y215.568 E4.08987
G1 X220.256 Y214.883 E4.14239
G1 X219.56 Y214.289 E4.185
G1 X218.492 Y213.286 E4.25322
G1 X217.816 Y212.474 E4.30242
G1 X217.417 Y211.911 E4.33455
G1 X215.802 Y209.693 E4.46231
G1 X215.342 Y208.942 E4.50332
G1 X214.999 Y208.261 E4.53882
G1 X214.589 Y207.37 E4.58449
G1 X214.122 Y206.13 E4.64619
G1 X213.779 Y205.022 E4.7002
G1 X213.575 Y204.14 E4.74235
G1 X213.35 Y202.994 E4.79674
G1 X213.227 Y201.994 E4.84365
G1 X213.238 Y201.117 E4.88449
G1 X213.232 Y198.297 E5.0158
G1 X213.312 Y197.271 E5.06372
G1 X213.429 Y196.547 E5.09787
G1 X213.711 Y195.286 E5.15804
G1 X213.973 Y194.324 E5.20447
G1 X214.414 Y193.064 E5.26663
G1 X214.959 Y191.804 E5.33055
G1 X215.349 Y191.043 E5.37037
G1 X215.835 Y190.254 E5.41352
G1 X217.91 Y187.401 E5.57779
M204 S3000
M205 X10 Y10
G0 F3000 X218.335 Y187.766
M204 S1800
M205 X8 Y8
G1 F2400 X218.909 Y187.098 E5.6188
G1 X219.442 Y186.566 E5.65386
G1 X220.373 Y185.748 E5.71157
G1 X221.121 Y185.147 E5.75625
G1 X222.213 Y184.392 E5.81807
G1 X223.354 Y183.719 E5.87975
G1 X224.071 Y183.356 E5.91717
G1 X224.899 Y183.019 E5.9588
G1 X228.179 Y181.953 E6.11939
G1 X229.11 Y181.737 E6.1639
G1 X230.031 Y181.603 E6.20723
G1 X230.529 Y181.548 E6.23056
G1 X231.98 Y181.469 E6.29823
G1 X233.292 Y181.501 E6.35934
G1 X234.615 Y181.628 E6.42123
G1 X235.395 Y181.755 E6.45802
G1 X236.258 Y181.964 E6.49937
G1 X239.556 Y183.036 E6.66085
G1 X240.361 Y183.371 E6.70145
G1 X241.009 Y183.706 E6.73542
G1 X241.828 Y184.168 E6.7792
G1 X242.879 Y184.856 E6.83769
G1 X243.824 Y185.577 E6.89304
G1 X244.461 Y186.122 E6.93208
G1 X245.369 Y186.975 E6.99009
G1 X245.918 Y187.566 E7.02765
G1 X248.12 Y190.598 E7.20214
G1 X248.585 Y191.364 E7.24386
G1 X249.01 Y192.218 E7.28828
G1 X249.243 Y192.735 E7.31469
G1 X249.737 Y194.017 E7.37866
G1 X249.974 Y194.778 E7.41577
G1 X250.219 Y195.68 E7.4593
G1 X250.526 Y197.246 E7.5336
G1 X250.609 Y198.344 E7.58488
G1 X250.602 Y198.937 E7.61249
G1 X250.609 Y201.689 E7.74064
G1 X250.535 Y202.629 E7.78454
G1 X250.417 Y203.362 E7.81911
G1 X250.143 Y204.587 E7.87756
G1 X249.901 Y205.482 E7.92074
G1 X249.458 Y206.747 E7.98315
G1 X248.939 Y207.949 E8.04411
G1 X248.568 Y208.675 E8.08208
G1 X248.062 Y209.487 E8.12663
G1 X247.79 Y209.851 E8.14778
G1 X246.098 Y212.19 E8.28221
G1 X245.49 Y212.903 E8.32584
G1 X244.933 Y213.457 E8.36242
G1 X244.053 Y214.23 E8.41696
G1 X243.253 Y214.872 E8.46472
G1 X242.187 Y215.608 E8.52504
G1 X241.046 Y216.281 E8.58673
G1 X240.329 Y216.644 E8.62415
G1 X239.501 Y216.981 E8.66577
G1 X236.221 Y218.047 E8.82637
G1 X235.29 Y218.263 E8.87087
G1 X234.369 Y218.397 E8.91421
G1 X233.871 Y218.452 E8.93754
G1 X232.42 Y218.531 E9.0052
G1 X231.108 Y218.499 E9.06631
G1 X229.781 Y218.372 E9.12839
G1 X228.962 Y218.236 E9.16704
G1 X228.142 Y218.036 E9.20635
G1 X224.844 Y216.964 E9.36782
G1 X224.039 Y216.629 E9.40842
G1 X223.389 Y216.293 E9.4425
G1 X222.571 Y215.83 E9.48626
G1 X221.492 Y215.123 E9.54633
G1 X220.596 Y214.438 E9.59885
G1 X219.942 Y213.88 E9.63888
G1 X218.922 Y212.927 E9.70388
G1 X218.273 Y212.15 E9.75102
G1 X217.874 Y211.587 E9.78315
G1 X216.279 Y209.399 E9.90923
G1 X215.842 Y208.689 E9.94805
G1 X215.507 Y208.026 E9.98264
G1 X215.113 Y207.172 E10.02644
G1 X214.657 Y205.964 E10.08656
G1 X214.325 Y204.896 E10.13864
G1 X214.125 Y204.032 E10.17993
G1 X213.9 Y202.886 E10.23431
G1 X213.787 Y202.001 E10.27586
G1 X213.798 Y201.124 E10.3167
G1 X213.792 Y198.296 E10.44838
G1 X213.865 Y197.36 E10.4921
G1 X213.976 Y196.669 E10.52469
G1 X214.258 Y195.408 E10.58485
G1 X214.502 Y194.509 E10.62823
G1 X214.943 Y193.249 E10.69039
G1 X215.458 Y192.058 E10.75081
G1 X215.826 Y191.336 E10.78855
G1 X216.288 Y190.583 E10.82968
G1 X218.335 Y187.766 E10.99183
M204 S3000
M205 X10 Y10
G0 F3000 X219.305 Y187.494
M204 S1800
M205 X8 Y8
G1 F2400 X219.838 Y186.962 E11.02689
G1 X220.724 Y186.185 E11.08177
G1 X221.472 Y185.584 E11.12645
G1 X222.531 Y184.853 E11.18637
G1 X223.608 Y184.218 E11.24458
G1 X224.282 Y183.875 E11.2798
G1 X225.11 Y183.538 E11.32142
G1 X225.545 Y183.403 E11.34263
G1 X228.307 Y182.498 E11.47797
G1 X229.191 Y182.291 E11.52025
G1 X230.092 Y182.16 E11.56264
G1 X230.59 Y182.105 E11.58597
G1 X231.966 Y182.029 E11.65014
G1 X233.278 Y182.061 E11.71125
G1 X234.525 Y182.181 E11.76959
G1 X235.305 Y182.308 E11.80638
G1 X236.085 Y182.497 E11.84376
G1 X239.342 Y183.554 E12.0032
G1 X240.104 Y183.869 E12.0416
G1 X240.734 Y184.194 E12.07461
G1 X241.521 Y184.637 E12.11666
G1 X242.572 Y185.325 E12.17515
G1 X243.46 Y186.003 E12.22717
G1 X244.097 Y186.548 E12.26621
G1 X244.961 Y187.359 E12.32139
G1 X245.465 Y187.895 E12.35565
G1 X247.641 Y190.889 E12.52799
G1 X248.106 Y191.655 E12.56972
G1 X248.5 Y192.449 E12.61099
G1 X248.721 Y192.937 E12.63594
G1 X249.202 Y194.184 E12.69817
G1 X249.439 Y194.945 E12.73529
G1 X249.669 Y195.788 E12.77597
G1 X249.976 Y197.354 E12.85028
G1 X250.049 Y198.337 E12.89618
G1 X250.042 Y198.93 E12.92379
G1 X250.049 Y201.69 E13.05231
G1 X249.982 Y202.54 E13.09201
G1 X249.864 Y203.273 E13.12659
G1 X249.602 Y204.442 E13.18237
G1 X249.372 Y205.297 E13.2236
G1 X248.929 Y206.562 E13.28601
G1 X248.44 Y207.695 E13.34347
G1 X248.092 Y208.38 E13.37925
G1 X247.613 Y209.152 E13.42155
G1 X247.341 Y209.516 E13.44271
G1 X245.644 Y211.862 E13.57753
G1 X245.095 Y212.506 E13.61694
G1 X244.563 Y213.036 E13.65191
G1 X243.683 Y213.809 E13.70645
G1 X242.935 Y214.411 E13.75115
G1 X241.869 Y215.147 E13.81147
G1 X240.792 Y215.782 E13.86969
G1 X240.118 Y216.125 E13.90491
G1 X239.29 Y216.462 E13.94653
G1 X238.855 Y216.597 E13.96774
G1 X236.093 Y217.502 E14.10308
G1 X235.209 Y217.709 E14.14535
G1 X234.308 Y217.84 E14.18775
G1 X233.81 Y217.895 E14.21108
G1 X232.434 Y217.971 E14.27525
G1 X231.122 Y217.939 E14.33636
G1 X229.871 Y217.819 E14.39488
G1 X229.094 Y217.692 E14.43154
G1 X228.315 Y217.503 E14.46887
G1 X225.058 Y216.446 E14.62831
G1 X224.296 Y216.131 E14.66671
G1 X223.664 Y215.805 E14.69982
G1 X222.877 Y215.361 E14.74189
G1 X221.832 Y214.678 E14.80003
G1 X220.936 Y213.993 E14.85254
G1 X220.323 Y213.47 E14.89006
G1 X219.351 Y212.567 E14.95184
G1 X218.73 Y211.826 E14.99686
G1 X218.331 Y211.263 E15.02899
G1 X216.756 Y209.105 E15.15339
G1 X216.319 Y208.395 E15.19222
G1 X216.015 Y207.791 E15.2237
G1 X215.637 Y206.974 E15.26562
G1 X215.192 Y205.797 E15.32421
G1 X214.871 Y204.769 E15.37436
G1 X214.675 Y203.924 E15.41475
G1 X214.45 Y202.778 E15.46913
G1 X214.347 Y202.008 E15.50531
G1 X214.358 Y201.131 E15.54615
G1 X214.352 Y198.295 E15.6782
G1 X214.418 Y197.449 E15.71771
G1 X214.529 Y196.758 E15.7503
G1 X214.799 Y195.554 E15.80776
G1 X215.031 Y194.694 E15.84924
G1 X215.472 Y193.434 E15.9114
G1 X215.958 Y192.311 E15.96837
G1 X216.304 Y191.628 E16.00403
G1 X216.741 Y190.912 E16.04308
G1 X218.761 Y188.13 E16.20317
G1 X219.305 Y187.494 E16.24214
M204 S3000
M205 X10 Y10
G1 F2400 E10.24214
;MESH:rccarwheel.STL
G0 F3000 X222.779 Y190.537
G0 X223.53 Y191.312
G0 X229.845 Y201.832
G0 X232.523 Y203.932
M204 S1800
M205 X8 Y8
;TYPE:WALL-INNER
G1 F2400 E16.24214
G1 F1500 X231.877 Y203.932 E16.27222
G1 X231.228 Y203.823 E16.30287
G1 X230.616 Y203.613 E16.333
G1 X230.041 Y203.303 E16.36341
G1 X229.526 Y202.903 E16.39378
G1 X229.095 Y202.434 E16.42344
G1 X228.723 Y201.883 E16.45439
G1 X228.456 Y201.248 E16.48647
G1 X228.309 Y200.65 E16.51514
G1 X228.251 Y200 E16.54553
G1 X228.309 Y199.35 E16.57592
G1 X228.469 Y198.699 E16.60713
G1 X228.73 Y198.12 E16.63671
G1 X229.095 Y197.566 E16.6676
G1 X229.526 Y197.097 E16.69726
G1 X230.041 Y196.697 E16.72762
G1 X230.599 Y196.39 E16.75728
G1 X231.228 Y196.176 E16.78822
G1 X231.877 Y196.068 E16.81885
G1 X232.523 Y196.068 E16.84893
G1 X233.172 Y196.176 E16.87957
G1 X233.784 Y196.387 E16.90971
G1 X234.358 Y196.697 E16.94009
G1 X234.872 Y197.096 E16.97039
G1 X235.305 Y197.563 E17.00004
G1 X235.672 Y198.124 E17.03126
G1 X235.942 Y198.73 E17.06215
G1 X236.091 Y199.35 E17.09184
G1 X236.149 Y200 E17.12223
G1 X236.091 Y200.651 E17.15266
G1 X235.919 Y201.319 E17.18478
G1 X235.672 Y201.875 E17.21311
G1 X235.315 Y202.432 E17.24392
G1 X234.872 Y202.904 E17.27406
G1 X234.358 Y203.303 E17.30436
G1 X233.784 Y203.613 E17.33473
G1 X233.192 Y203.822 E17.36397
G1 X232.523 Y203.932 E17.39554
M204 S3000
M205 X10 Y10
G0 F3000 X224.522 Y204.827
G0 X224.546 Y205.153
M204 S1800
M205 X8 Y8
G1 F1500 X224.925 Y205.709 E17.42687
G1 X225 Y206.017 E17.44163
G1 X224.979 Y206.282 E17.45401
G1 X224.024 Y208.603 E17.57088
G1 X224.894 Y209.335 E17.62382
G1 X225.58 Y209.834 E17.66332
G1 X226.545 Y210.434 E17.71623
G1 X228.374 Y208.878 E17.82805
G1 X228.601 Y208.74 E17.84042
G1 X229.017 Y208.684 E17.85996
G1 X229.57 Y208.846 E17.88679
G1 X229.825 Y209.004 E17.90076
G1 X229.975 Y209.184 E17.91167
G1 X230.078 Y209.43 E17.92409
G1 X230.644 Y211.766 E18.03601
G1 X231.777 Y211.848 E18.08891
G1 X232.623 Y211.848 E18.1283
G1 X233.756 Y211.764 E18.1812
G1 X234.347 Y209.327 E18.29797
G1 X234.486 Y209.099 E18.3104
G1 X234.736 Y208.875 E18.32603
G1 X235.317 Y208.694 E18.35437
G1 X235.614 Y208.689 E18.3682
G1 X235.798 Y208.741 E18.3771
G1 X236.026 Y208.879 E18.38951
G1 X237.855 Y210.433 E18.50127
G1 X238.82 Y209.834 E18.55416
G1 X239.506 Y209.335 E18.59366
G1 X240.376 Y208.603 E18.6466
G1 X239.462 Y206.382 E18.75843
G1 X239.401 Y206.123 E18.77082
G1 X239.409 Y205.928 E18.77991
G1 X239.517 Y205.629 E18.79471
G1 X239.916 Y205.123 E18.82472
G1 X240.148 Y204.988 E18.83722
G1 X240.409 Y204.927 E18.8497
G1 X242.907 Y205.117 E18.96635
G1 X243.336 Y204.063 E19.01934
G1 X243.6 Y203.251 E19.0591
G1 X243.869 Y202.151 E19.11183
G1 X241.739 Y200.84 E19.22829
G1 X241.562 Y200.637 E19.24083
G1 X241.448 Y200.369 E19.25439
G1 X241.427 Y199.794 E19.28119
G1 X241.466 Y199.566 E19.29196
G1 X241.562 Y199.363 E19.30241
G1 X241.74 Y199.159 E19.31502
G1 X243.875 Y197.848 E19.43168
G1 X243.599 Y196.745 E19.48462
G1 X243.334 Y195.931 E19.52449
G1 X242.907 Y194.882 E19.57722
G1 X240.409 Y195.073 E19.69388
G1 X240.148 Y195.012 E19.70636
G1 X239.915 Y194.877 E19.7189
G1 X239.517 Y194.371 E19.74888
G1 X239.409 Y194.07 E19.76377
G1 X239.401 Y193.877 E19.77276
G1 X239.462 Y193.618 E19.78515
G1 X240.375 Y191.396 E19.89701
G1 X239.506 Y190.665 E19.94989
G1 X238.82 Y190.166 E19.98939
G1 X237.854 Y189.568 E20.04229
G1 X235.947 Y191.189 E20.15883
G1 X235.547 Y191.319 E20.17842
G1 X235.251 Y191.29 E20.19227
G1 X234.83 Y191.154 E20.21287
G1 X234.575 Y190.996 E20.22684
G1 X234.425 Y190.815 E20.23778
G1 X234.322 Y190.57 E20.25016
G1 X233.756 Y188.234 E20.36208
G1 X232.623 Y188.152 E20.41498
G1 X231.777 Y188.152 E20.45437
G1 X230.644 Y188.236 E20.50727
G1 X230.053 Y190.671 E20.62395
G1 X229.914 Y190.901 E20.63646
G1 X229.714 Y191.08 E20.64896
G1 X229.194 Y191.276 E20.67483
G1 X228.925 Y191.322 E20.68754
G1 X228.601 Y191.259 E20.70291
G1 X228.375 Y191.122 E20.71522
G1 X226.545 Y189.567 E20.82704
G1 X225.58 Y190.166 E20.87993
G1 X224.894 Y190.665 E20.91943
G1 X224.024 Y191.397 E20.97237
G1 X224.978 Y193.716 E21.08913
G1 X224.973 Y194.157 E21.10967
G1 X224.876 Y194.382 E21.12108
G1 X224.484 Y194.878 E21.15051
G1 X224.152 Y195.043 E21.16778
G1 X223.886 Y195.065 E21.18021
G1 X221.493 Y194.883 E21.29196
G1 X221.064 Y195.937 E21.34494
G1 X220.8 Y196.749 E21.3847
G1 X220.532 Y197.848 E21.43738
G1 X222.664 Y199.161 E21.55397
G1 X222.838 Y199.363 E21.56638
G1 X222.935 Y199.566 E21.57686
G1 X222.974 Y200.206 E21.60671
G1 X222.935 Y200.434 E21.61748
G1 X222.839 Y200.637 E21.62794
G1 X222.661 Y200.841 E21.64055
G1 X220.53 Y202.152 E21.75705
G1 X220.8 Y203.251 E21.80975
G1 X221.064 Y204.063 E21.8495
G1 X221.493 Y205.118 E21.90254
G1 X223.887 Y204.935 E22.01434
G1 X224.152 Y204.957 E22.02672
G1 X224.546 Y205.153 E22.04721
M204 S3000
M205 X10 Y10
G0 F3000 X224.522 Y204.827
G0 X232.485 Y203.435
G0 X232.478 Y203.374
M204 S1800
M205 X8 Y8
G1 F1500 X231.922 Y203.374 E22.0731
G1 X231.366 Y203.281 E22.09935
G1 X230.841 Y203.1 E22.12521
G1 X230.347 Y202.834 E22.15133
G1 X229.905 Y202.491 E22.17738
G1 X229.533 Y202.085 E22.20302
G1 X229.191 Y201.55 E22.23259
G1 X228.991 Y201.081 E22.25633
G1 X228.862 Y200.559 E22.28137
G1 X228.819 Y199.932 E22.31063
G1 X228.862 Y199.441 E22.33358
G1 X228.991 Y198.919 E22.35862
G1 X229.222 Y198.387 E22.38563
G1 X229.533 Y197.915 E22.41195
G1 X229.959 Y197.464 E22.44084
G1 X230.347 Y197.166 E22.46362
G1 X230.841 Y196.9 E22.48974
G1 X231.298 Y196.739 E22.5123
G1 X231.923 Y196.626 E22.54188
G1 X232.477 Y196.626 E22.56768
G1 X233.102 Y196.739 E22.59725
G1 X233.559 Y196.9 E22.61981
G1 X234.052 Y197.166 E22.6459
G1 X234.441 Y197.464 E22.66871
G1 X234.838 Y197.878 E22.69542
G1 X235.179 Y198.39 E22.72407
G1 X235.409 Y198.919 E22.75093
G1 X235.539 Y199.441 E22.77598
G1 X235.581 Y200.068 E22.80524
