;FLAVOR:Marlin
;TIME:663
;Filament used: 0.402756m
;Layer height: 0.1
;MINX:154.499
;MINY:191.347
;MINZ:0.1
;MAXX:245.501
;MAXY:208.653
;MAXZ:4.2
;Generated with Cura_SteamEngine 5.4.0
M140 S60
M105
M190 S60
M104 S200
M105
M109 S200
M82 ;absolute extrusion mode
M107 ;Start with the fan off
G21 ;Set units to millimeters
G91 ;Change to relative positioning mode for retract filament and nozzle lifting
G1 F200 E-3 ;Retract 3mm filament for a clean start
G92 E0 ;Zero the extruded length
G1 F1000 Z5 ;Lift the nozzle 5mm before homing axes
G90 ;Absolute positioning
M82 ;Set extruder to absolute mode too
G28 X0 Y0 ;First move X/Y to min endstops
G28 Z0 ;Then move Z to min endstops
G1 F1000 Z15 ;After homing lift the nozzle 15mm before start printing

G92 E0
G92 E0
G1 F2400 E-4
;LAYER_COUNT:43
;LAYER:0
M106 S255
M204 S3000
M205 X10 Y10
G1 F600 Z0.175
G0 F1800 X156.871 Y192.793 Z0.175
M204 S1800
M205 X8 Y8
;TYPE:SKIRT
G1 F600 Z0.1
G1 F2400 E0
G1 X157.395 Y192.409 E0.01512
G1 X158.205 Y191.958 E0.03671
G1 X158.934 Y191.67 E0.05496
G1 X159.642 Y191.486 E0.07199
G1 X160.857 Y191.347 E0.10046
G1 X238.409 Y191.347 E1.90604
G1 X239.183 Y191.358 E1.92406
G1 X239.969 Y191.42 E1.94241
G1 X240.807 Y191.593 E1.96234
G1 X241.423 Y191.799 E1.97746
G1 X242.259 Y192.198 E1.99903
G1 X242.915 Y192.626 E2.01726
G1 X243.465 Y193.086 E2.03396
G1 X243.961 Y193.607 E2.0507
G1 X244.47 Y194.293 E2.07059
G1 X244.855 Y194.98 E2.08893
G1 X245.153 Y195.709 E2.10726
G1 X245.344 Y196.401 E2.12398
G1 X245.501 Y197.717 E2.15483
G1 X245.493 Y200.51 E2.21986
G1 X245.5 Y201.605 E2.24535
G1 X245.49 Y202.332 E2.26228
G1 X245.419 Y203.183 E2.28216
G1 X245.291 Y203.82 E2.29729
G1 X244.999 Y204.699 E2.31886
G1 X244.688 Y205.342 E2.33548
G1 X244.264 Y206.007 E2.35385
G1 X243.809 Y206.563 E2.37057
G1 X243.136 Y207.199 E2.39213
G1 X242.613 Y207.584 E2.40725
G1 X241.804 Y208.038 E2.42885
G1 X241.203 Y208.283 E2.44396
G1 X240.364 Y208.512 E2.46421
G1 X239.153 Y208.652 E2.49259
G1 X161.591 Y208.653 E4.2984
G1 X160.817 Y208.642 E4.31642
G1 X160.031 Y208.58 E4.33478
G1 X159.193 Y208.407 E4.3547
G1 X158.577 Y208.201 E4.36982
G1 X157.741 Y207.802 E4.39139
G1 X157.085 Y207.374 E4.40962
G1 X156.535 Y206.914 E4.42632
G1 X156.039 Y206.393 E4.44306
G1 X155.53 Y205.707 E4.46295
G1 X155.145 Y205.02 E4.48129
G1 X154.847 Y204.291 E4.49962
G1 X154.656 Y203.599 E4.51634
G1 X154.499 Y202.266 E4.54759
G1 X154.507 Y199.489 E4.61224
G1 X154.5 Y198.441 E4.63664
G1 X154.511 Y197.661 E4.6548
G1 X154.573 Y196.873 E4.67321
G1 X154.747 Y196.036 E4.69311
G1 X154.953 Y195.42 E4.70823
G1 X155.353 Y194.583 E4.72983
G1 X155.783 Y193.927 E4.74809
G1 X156.245 Y193.377 E4.76482
G1 X156.871 Y192.793 E4.78475
M204 S3000
M205 X10 Y10
G0 F1800 X157.202 Y193.245
M204 S1800
M205 X8 Y8
G1 F2400 X157.726 Y192.861 E4.79987
G1 X158.413 Y192.478 E4.81819
G1 X159.08 Y192.211 E4.83491
G1 X159.707 Y192.042 E4.85003
G1 X160.857 Y191.907 E4.87699
G1 X238.401 Y191.907 E6.68238
G1 X239.175 Y191.918 E6.7004
G1 X239.924 Y191.978 E6.71789
G1 X240.629 Y192.124 E6.73466
G1 X241.245 Y192.33 E6.74978
G1 X241.955 Y192.669 E6.7681
G1 X242.558 Y193.058 E6.7848
G1 X243.059 Y193.472 E6.79993
G1 X243.555 Y193.993 E6.81668
G1 X243.983 Y194.569 E6.83339
G1 X244.338 Y195.195 E6.85014
G1 X244.613 Y195.858 E6.86686
G1 X244.804 Y196.55 E6.88357
G1 X244.941 Y197.715 E6.91088
G1 X244.933 Y200.508 E6.97591
G1 X244.94 Y201.597 E7.00126
G1 X244.93 Y202.324 E7.01819
G1 X244.87 Y203.073 E7.03568
G1 X244.742 Y203.71 E7.05081
G1 X244.493 Y204.458 E7.06917
G1 X244.214 Y205.044 E7.08428
G1 X243.831 Y205.652 E7.10101
G1 X243.376 Y206.208 E7.11773
G1 X242.804 Y206.748 E7.13605
G1 X242.281 Y207.133 E7.15117
G1 X241.593 Y207.519 E7.16953
G1 X240.992 Y207.764 E7.18464
G1 X240.219 Y207.971 E7.20328
G1 X239.153 Y208.092 E7.22825
G1 X161.599 Y208.093 E9.03387
G1 X160.825 Y208.082 E9.0519
G1 X160.076 Y208.022 E9.06939
G1 X159.371 Y207.876 E9.08615
G1 X158.755 Y207.67 E9.10127
G1 X158.045 Y207.331 E9.11959
G1 X157.442 Y206.942 E9.1363
G1 X156.941 Y206.528 E9.15143
G1 X156.445 Y206.007 E9.16818
G1 X156.017 Y205.431 E9.18489
G1 X155.662 Y204.805 E9.20164
G1 X155.387 Y204.142 E9.21835
G1 X155.196 Y203.45 E9.23507
G1 X155.059 Y202.268 E9.26277
G1 X155.067 Y199.491 E9.32742
G1 X155.06 Y198.449 E9.35168
G1 X155.071 Y197.669 E9.36985
G1 X155.131 Y196.918 E9.38739
G1 X155.278 Y196.214 E9.40413
G1 X155.484 Y195.598 E9.41925
G1 X155.823 Y194.888 E9.43757
G1 X156.214 Y194.285 E9.4543
G1 X156.629 Y193.785 E9.46943
G1 X157.202 Y193.245 E9.48776
M204 S3000
M205 X10 Y10
G0 F1800 X157.533 Y193.697
M204 S1800
M205 X8 Y8
G1 F2400 X158.057 Y193.313 E9.50289
G1 X158.624 Y192.997 E9.518
G1 X159.226 Y192.752 E9.53313
G1 X159.853 Y192.583 E9.54825
G1 X160.857 Y192.467 E9.57178
G1 X238.393 Y192.467 E11.37698
G1 X239.167 Y192.478 E11.39501
G1 X239.814 Y192.527 E11.41011
G1 X240.451 Y192.655 E11.42524
G1 X241.067 Y192.861 E11.44036
G1 X241.654 Y193.141 E11.4555
G1 X242.201 Y193.49 E11.47061
G1 X242.702 Y193.904 E11.48574
G1 X243.147 Y194.377 E11.50086
G1 X243.532 Y194.901 E11.516
G1 X243.849 Y195.468 E11.53112
G1 X244.094 Y196.069 E11.54623
G1 X244.263 Y196.696 E11.56135
G1 X244.381 Y197.713 E11.58519
G1 X244.373 Y200.506 E11.65022
G1 X244.38 Y201.589 E11.67543
G1 X244.37 Y202.316 E11.69236
G1 X244.321 Y202.963 E11.70747
G1 X244.193 Y203.6 E11.72259
G1 X243.987 Y204.217 E11.73774
G1 X243.708 Y204.803 E11.75285
G1 X243.359 Y205.351 E11.76798
G1 X242.945 Y205.851 E11.78309
G1 X242.472 Y206.297 E11.79822
G1 X241.949 Y206.682 E11.81334
G1 X241.382 Y207 E11.82848
G1 X240.781 Y207.245 E11.84359
G1 X240.154 Y207.415 E11.85872
G1 X239.153 Y207.532 E11.88218
G1 X161.607 Y207.533 E13.68761
G1 X160.833 Y207.522 E13.70564
G1 X160.186 Y207.473 E13.72074
G1 X159.549 Y207.345 E13.73587
G1 X158.933 Y207.139 E13.75099
G1 X158.346 Y206.859 E13.76613
G1 X157.799 Y206.51 E13.78124
G1 X157.298 Y206.096 E13.79637
G1 X156.853 Y205.623 E13.81149
G1 X156.468 Y205.099 E13.82663
G1 X156.151 Y204.532 E13.84175
G1 X155.906 Y203.931 E13.85686
G1 X155.737 Y203.304 E13.87198
G1 X155.619 Y202.27 E13.89621
G1 X155.627 Y199.493 E13.96087
G1 X155.62 Y198.457 E13.98499
G1 X155.631 Y197.677 E14.00315
G1 X155.68 Y197.029 E14.01828
G1 X155.809 Y196.392 E14.03341
G1 X156.015 Y195.776 E14.04853
G1 X156.295 Y195.19 E14.06366
G1 X156.645 Y194.643 E14.07877
G1 X157.06 Y194.143 E14.0939
G1 X157.533 Y193.697 E14.10904
M204 S3000
M205 X10 Y10
G1 F2400 E10.10904
G0 F1800 X161.18 Y198.027
M204 S1800
M205 X8 Y8
G1 F2400 E14.10904
G1 X161.22 Y198.027 E14.10997
G1 X161.22 Y198.524 E14.12154
G1 X161.18 Y198.524 E14.12247
G1 X161.18 Y198.027 E14.13404
M204 S3000
M205 X10 Y10
G1 F2400 E10.13404
G0 F1800 X161.18 Y201.477
M204 S1800
M205 X8 Y8
G1 F2400 E14.13404
G1 X161.22 Y201.477 E14.13498
G1 X161.22 Y201.973 E14.14652
G1 X161.18 Y201.973 E14.14745
G1 X161.18 Y201.477 E14.159
M204 S3000
M205 X10 Y10
G1 F2400 E10.159
G0 F1800 X238.78 Y201.476
M204 S1800
M205 X8 Y8
G1 F2400 E14.159
G1 X238.82 Y201.476 E14.15993
G1 X238.82 Y201.972 E14.17148
G1 X238.78 Y201.972 E14.17241
G1 X238.78 Y201.476 E14.18396
M204 S3000
M205 X10 Y10
G1 F2400 E10.18396
G0 F1800 X238.78 Y198.523
M204 S1800
M205 X8 Y8
G1 F2400 E14.18396
G1 X238.78 Y198.027 E14.19551
G1 X238.82 Y198.027 E14.19644
G1 X238.82 Y198.523 E14.20799
G1 X238.78 Y198.523 E14.20892
M204 S3000
M205 X10 Y10
G0 F1800 X238.3 Y198.603
M204 S1800
M205 X8 Y8
;TYPE:SUPPORT-INTERFACE
G1 F1200 X161.7 Y198.604 E15.99233
G1 X161.7 Y197.947 E16.00762
G1 X238.3 Y197.947 E17.79103
G1 X238.3 Y198.603 E17.80631
M204 S3000
M205 X10 Y10
G1 F2400 E13.80631
G0 F1800 X238.3 Y201.396
M204 S1800
M205 X8 Y8
G1 F2400 E17.80631
G1 F1200 X238.3 Y202.052 E17.82158
G1 X161.7 Y202.053 E19.60499
G1 X161.7 Y201.397 E19.62026
G1 X238.3 Y201.396 E21.40367
M204 S3000
M205 X10 Y10
G1 F2400 E17.40367
G0 F1800 X237.972 Y198.275
M204 S1800
M205 X8 Y8
G1 F2400 E21.40367
G1 F1976.5 X162.028 Y198.275 E22.47718
M204 S3000
M205 X10 Y10
G1 F2400 E18.47718
G0 F1800 X162.028 Y201.725
M204 S1800
M205 X8 Y8
G1 F2400 E22.47718
G1 F1976.5 X237.972 Y201.724 E23.55069
M204 S3000
M205 X10 Y10
;MESH:shaft.STL
G0 F1800 X237.686 Y200.082
G0 X237.852 Y200.248
M204 S1800
M205 X8 Y8
;TYPE:WALL-OUTER
G1 F3387.1 X162.148 Y200.249 E25.1118
G1 F3380.3 X162.148 Y199.752 E25.12207
G1 F3387.1 X237.852 Y199.752 E26.68319
G1 X237.852 Y200.248 E26.69342
M204 S3000
M205 X10 Y10
G0 F1800 X237.852 Y200.048
G1 F2400 E22.69342
;MESH:NONMESH
G0 F600 X237.852 Y200.048 Z0.2
G0 F1800 X237.6 Y200.048
G0 X162.314 Y200.083
G0 X161.18 Y201.477
;TIME_ELAPSED:55.801540
;LAYER:1
M204 S1800
M205 X8 Y8
;TYPE:SKIRT
G1 F2400 E26.69342
G1 X161.22 Y201.477 E26.69408
G1 X161.22 Y201.973 E26.70233
G1 X161.18 Y201.973 E26.70299
G1 X161.18 Y201.477 E26.71124
M204 S3000
M205 X10 Y10
G0 F2700 X161.2 Y201.953
M204 S1800
M205 X8 Y8
;TYPE:SUPPORT
G1 F1200 X161.2 Y201.497 E26.72262
M204 S3000
M205 X10 Y10
G1 F2400 E22.72262
G0 F2700 X161.2 Y198.047
M204 S1800
M205 X8 Y8
G1 F2400 E26.72262
G1 F1200 X161.2 Y198.504 E26.73402
M204 S3000
M205 X10 Y10
G1 F2400 E22.73402
G0 F2700 X238.8 Y198.047
M204 S1800
M205 X8 Y8
G1 F2400 E26.73402
G1 F1200 X238.8 Y198.503 E26.74539
M204 S3000
M205 X10 Y10
G1 F2400 E22.74539
G0 F2700 X238.8 Y201.952
M204 S1800
M205 X8 Y8
G1 F2400 E26.74539
G1 F1200 X238.8 Y201.496 E26.75677
M204 S3000
M205 X10 Y10
G1 F2400 E22.75677
G0 F2700 X238.753 Y198.51
G0 X238.236 Y198.498
G0 X238.236 Y198.539
M204 S1800
M205 X8 Y8
;TYPE:SUPPORT-INTERFACE
G1 F2400 E26.75677
G1 F909.1 X161.764 Y198.54 E28.43546
G1 F907.4 X161.764 Y198.011 E28.44709
G1 F909.1 X238.236 Y198.011 E30.12578
G1 X238.236 Y198.539 E30.13737
M204 S3000
M205 X10 Y10
G1 F2400 E26.13737
G0 F2700 X238.236 Y198.498
G0 X238.753 Y198.51
G0 X238.753 Y201.489
G0 X238.237 Y201.501
G0 X238.236 Y201.46
M204 S1800
M205 X8 Y8
G1 F2400 E30.13737
G1 F909.1 X238.236 Y201.988 E30.14896
G1 X161.764 Y201.989 E31.82765
G1 X161.764 Y201.461 E31.83924
G1 X238.236 Y201.46 E33.51793
M204 S3000
M205 X10 Y10
;MESH:shaft.STL
G0 F2700 X237.686 Y200.422
G0 X237.23 Y199.966
G0 X237.482 Y200.218
M204 S1800
M205 X8 Y8
;TYPE:WALL-INNER
G1 F4119 X237.482 Y199.781 E33.52587
G1 X162.518 Y199.781 E34.88784
G1 X162.518 Y200.219 E34.8958
G1 X237.482 Y200.218 E36.25777
M204 S3000
M205 X10 Y10
G0 F2700 X237.9 Y200.636
M204 S1800
M205 X8 Y8
;TYPE:WALL-OUTER
G1 F4500 X237.9 Y199.363 E36.27894
G1 X162.1 Y199.363 E37.5395
G1 X162.1 Y200.637 E37.56069
G1 X237.9 Y200.636 E38.82125
M204 S3000
M205 X10 Y10
G0 F2700 X237.9 Y200.436
G1 F2400 E34.82125
;MESH:NONMESH
G0 F600 X237.9 Y200.436 Z0.3
G0 F2700 X237.23 Y199.966
G0 X162.314 Y200.423
G0 X161.18 Y201.477
;TIME_ELAPSED:86.270255
;LAYER:2
M204 S1800
M205 X8 Y8
;TYPE:SKIRT
G1 F2400 E38.82125
G1 X161.22 Y201.477 E38.82191
G1 X161.22 Y201.973 E38.83016
G1 X161.18 Y201.973 E38.83083
G1 X161.18 Y201.477 E38.83908
M204 S3000
M205 X10 Y10
G1 F2400 E34.83908
;MESH:shaft.STL
G0 F3600 X162.314 Y200.659
G0 X237.23 Y200.202
G0 X237.5 Y200.472
M204 S1800
M205 X8 Y8
;TYPE:WALL-INNER
G1 F2400 E38.83908
G1 F6000 X237.5 Y199.527 E38.85479
G1 X162.5 Y199.527 E40.10205
G1 X162.5 Y200.473 E40.11778
G1 X237.5 Y200.472 E41.36503
M204 S3000
M205 X10 Y10
G0 F3600 X237.9 Y200.872
M204 S1800
M205 X8 Y8
;TYPE:WALL-OUTER
G1 F6000 X237.9 Y199.127 E41.39405
G1 X162.1 Y199.127 E42.65461
G1 X162.1 Y200.873 E42.68365
G1 X237.9 Y200.872 E43.94421
M204 S3000
M205 X10 Y10
G0 F3600 X237.9 Y200.672
G0 X237.23 Y200.202
G0 X162.973 Y200
M204 S1800
M205 X8 Y8
;TYPE:SKIN
G1 F1638.2 X237.027 Y200 E45.74839
M204 S3000
M205 X10 Y10
G0 F3600 X237.028 Y200.127
;MESH:NONMESH
G0 F600 X237.028 Y200.127 Z0.4
G0 F3600 X237.5 Y200.652
;TIME_ELAPSED:95.515963
;LAYER:3
M204 S1800
M205 X8 Y8
;TYPE:WALL-INNER
;MESH:shaft.STL
G1 F6000 X237.5 Y199.347 E45.77009
G1 X162.5 Y199.347 E47.01735
G1 X162.5 Y200.653 E47.03906
G1 X237.5 Y200.652 E48.28632
M204 S3000
M205 X10 Y10
G0 F3600 X237.9 Y201.052
M204 S1800
M205 X8 Y8
;TYPE:WALL-OUTER
G1 F6000 X237.9 Y198.947 E48.32133
G1 X162.1 Y198.947 E49.58188
G1 X162.1 Y201.053 E49.61691
G1 X237.9 Y201.052 E50.87747
M204 S3000
M205 X10 Y10
G0 F3600 X237.9 Y200.852
G0 X237.23 Y200.382
G0 X237.084 Y200.236
M204 S1800
M205 X8 Y8
;TYPE:SKIN
G1 F2029.6 X162.916 Y200.237 E52.33598
G1 X162.916 Y199.763 E52.34531
G1 X237.084 Y199.763 E53.80382
G1 X237.084 Y200.236 E53.81313
M204 S3000
M205 X10 Y10
G0 F3600 X236.901 Y200.052
;MESH:NONMESH
G0 F600 X236.901 Y200.052 Z0.5
G0 F3600 X237.5 Y200.806
;TIME_ELAPSED:103.576685
;LAYER:4
M204 S1800
M205 X8 Y8
;TYPE:WALL-INNER
;MESH:shaft.STL
G1 F6000 X237.5 Y199.193 E53.83995
G1 X162.5 Y199.193 E55.0872
G1 X162.5 Y200.807 E55.11405
G1 X237.5 Y200.806 E56.3613
M204 S3000
M205 X10 Y10
G0 F3600 X237.9 Y201.206
M204 S1800
M205 X8 Y8
;TYPE:WALL-OUTER
G1 F6000 X237.9 Y198.793 E56.40143
G1 X162.1 Y198.793 E57.66199
G1 X162.1 Y201.207 E57.70213
G1 X237.9 Y201.206 E58.96269
M204 S3000
M205 X10 Y10
G0 F3600 X237.9 Y201.006
G0 X237.12 Y200.426
M204 S1800
M205 X8 Y8
;TYPE:SKIN
G1 F2400 X162.88 Y200.427 E60.19731
G1 X162.88 Y199.573 E60.21151
G1 X237.12 Y199.573 E61.44613
G1 X237.12 Y200.426 E61.46031
M204 S3000
M205 X10 Y10
G0 F3600 X236.918 Y200.149
M204 S1800
M205 X8 Y8
G1 F2400 X236.542 Y199.773 E61.46915
M204 S3000
M205 X10 Y10
G0 F3600 X236.429 Y200.225
M204 S1800
M205 X8 Y8
G1 F2400 X235.977 Y199.773 E61.47979
M204 S3000
M205 X10 Y10
G0 F3600 X235.863 Y200.225
M204 S1800
M205 X8 Y8
G1 F2400 X235.411 Y199.773 E61.49042
M204 S3000
M205 X10 Y10
G0 F3600 X235.298 Y200.225
M204 S1800
M205 X8 Y8
G1 F2400 X234.845 Y199.773 E61.50106
M204 S3000
M205 X10 Y10
G0 F3600 X234.732 Y200.225
M204 S1800
M205 X8 Y8
G1 F2400 X234.28 Y199.773 E61.51169
M204 S3000
M205 X10 Y10
G0 F3600 X234.166 Y200.225
M204 S1800
M205 X8 Y8
G1 F2400 X233.714 Y199.773 E61.52232
M204 S3000
M205 X10 Y10
G0 F3600 X233.601 Y200.225
M204 S1800
M205 X8 Y8
G1 F2400 X233.148 Y199.773 E61.53296
M204 S3000
M205 X10 Y10
G0 F3600 X233.035 Y200.225
M204 S1800
M205 X8 Y8
G1 F2400 X232.582 Y199.773 E61.5436
M204 S3000
M205 X10 Y10
G0 F3600 X232.469 Y200.225
M204 S1800
M205 X8 Y8
G1 F2400 X232.017 Y199.773 E61.55423
M204 S3000
M205 X10 Y10
G0 F3600 X231.904 Y200.225
M204 S1800
M205 X8 Y8
G1 F2400 X231.451 Y199.773 E61.56488
M204 S3000
M205 X10 Y10
G0 F3600 X231.338 Y200.225
M204 S1800
M205 X8 Y8
G1 F2400 X230.885 Y199.773 E61.57552
M204 S3000
M205 X10 Y10
G0 F3600 X230.772 Y200.225
M204 S1800
M205 X8 Y8
G1 F2400 X230.32 Y199.773 E61.58615
M204 S3000
M205 X10 Y10
G0 F3600 X230.207 Y200.225
M204 S1800
M205 X8 Y8
G1 F2400 X229.754 Y199.773 E61.59679
M204 S3000
M205 X10 Y10
G0 F3600 X229.641 Y200.225
M204 S1800
M205 X8 Y8
G1 F2400 X229.188 Y199.773 E61.60743
M204 S3000
M205 X10 Y10
G0 F3600 X229.075 Y200.225
M204 S1800
M205 X8 Y8
G1 F2400 X228.623 Y199.773 E61.61806
M204 S3000
M205 X10 Y10
G0 F3600 X228.51 Y200.225
M204 S1800
M205 X8 Y8
G1 F2400 X228.057 Y199.773 E61.6287
M204 S3000
M205 X10 Y10
G0 F3600 X227.944 Y200.225
M204 S1800
M205 X8 Y8
G1 F2400 X227.491 Y199.773 E61.63935
M204 S3000
M205 X10 Y10
G0 F3600 X227.378 Y200.225
M204 S1800
M205 X8 Y8
G1 F2400 X226.926 Y199.773 E61.64998
M204 S3000
M205 X10 Y10
G0 F3600 X226.812 Y200.225
M204 S1800
M205 X8 Y8
G1 F2400 X226.36 Y199.773 E61.66061
M204 S3000
M205 X10 Y10
G0 F3600 X226.247 Y200.225
M204 S1800
M205 X8 Y8
G1 F2400 X225.794 Y199.773 E61.67125
M204 S3000
M205 X10 Y10
G0 F3600 X225.681 Y200.225
M204 S1800
M205 X8 Y8
G1 F2400 X225.229 Y199.773 E61.68188
M204 S3000
M205 X10 Y10
G0 F3600 X225.115 Y200.225
M204 S1800
