;FLAVOR:Marlin
;TIME:1803
;Filament used: 1.43135m
;Layer height: 0.3
;MINX:137.039
;MINY:137.968
;MINZ:0.3
;MAXX:162.961
;MAXY:175.532
;MAXZ:25.575
;Generated with Cura_SteamEngine 5.4.0
M82 ;absolute extrusion mode
;Profil Homepage: https://github.com/NilsRo/Cura_Anycubic_MegaS_Profile

;Slicer Information - (Support for OctoPrint Slicer Estimator)
;Slicer info:material_guid;0ff92885-617b-4144-a03c-9989872454bc
;Slicer info:material_id;generic_pla_175
;Slicer info:material_brand;Generic
;Slicer info:material_name;PLA
;Slicer info:filament_cost;[0.0]
;Slicer info:material_bed_temperature;60
;Slicer info:material_bed_temperature_layer_0;60
;Slicer info:material_print_temperature;200
;Slicer info:material_print_temperature_layer_0;205
;Slicer info:material_flow;100
;Slicer info:layer_height;0.3
;Slicer info:machine_nozzle_size;0.4
;Slicer info:wall_thickness;1.2000000000000002
;Slicer info:speed_print;100
;Slicer info:speed_topbottom;50.0
;Slicer info:travel_speed;100.0
;Slicer info:support;0
;Slicer info:retraction_speed;30
;Slicer info:retraction_amount;6
;Slicer info:layer_height;0.3
;Slicer info:infill_pattern;grid
;Slicer info:infill_sparse_density;20
;Slicer info:cool_fan_enabled;True
;Slicer info:cool_fan_speed;100
;Slicer info:sliced_at;Sat 16-03-2024 12:31:32
G21                                        ; metric values 
G90                                        ; absolute positioning 
M82                                        ; set extruder to absolute mode 
M900 K0                                    ; disable lin. adv. if not set in GCODE
M107                                       ; start with the fan off 
M140 S60   ; Start heating the bed 
G4 S60                                     ; wait 1 minute 
M104 S205 ; start heating the hot end 
M190 S60   ; wait for bed 
M109 S205 ; wait for hotend 
M300 S1000 P500                            ; BEEP heating done 
G28 X0 Y10 Z0                              ; move X/Y to min endstops 
M420 S1                                    ; Enable leveling 
M420 Z2.0                                  ; Set leveling fading height to 2 mm 
G0 Z0.15                                   ; lift nozzle a bit 
G92 E0                                     ; zero the extruded length 
G1 X50 E20 F500                            ; Extrude 20mm of filament in a 5cm line. 
G92 E0                                     ; zero the extruded length again 
G1 E-2 F500                                ; Retract a little 
G1 X50 F500                                ; wipe away from the filament line
G1 X100 F9000                              ; Quickly wipe away from the filament line
G92 E0
G92 E0
G1 F1800 E-6
;LAYER_COUNT:85
;LAYER:0
M106 S76.5
M205 X10 Y10
G1 F480 Z0.375
G0 F6000 X142.257 Y139.755 Z0.375
M205 X8 Y8
;TYPE:SKIRT
G1 F480 Z0.3
G1 F1800 E0
G1 F1200 X142.811 Y139.262 E0.037
G1 X143.38 Y138.865 E0.07161
G1 X144.037 Y138.516 E0.10873
G1 X144.78 Y138.235 E0.14836
G1 X145.406 Y138.082 E0.18051
G1 X146.43 Y137.979 E0.23185
G1 X147.201 Y137.968 E0.27032
G1 X152.788 Y137.968 E0.54906
G1 X153.611 Y137.981 E0.59013
G1 X154.254 Y138.03 E0.6223
G1 X155.032 Y138.185 E0.66188
G1 X155.786 Y138.441 E0.7016
G1 X156.41 Y138.745 E0.73623
G1 X157.074 Y139.176 E0.77572
G1 X157.604 Y139.624 E0.81035
G1 X158.114 Y140.172 E0.8477
G1 X158.594 Y140.849 E0.8891
G1 X159.004 Y141.532 E0.92884
G1 X161.85 Y146.46 E1.21276
G1 X162.216 Y147.115 E1.25019
G1 X162.495 Y147.696 E1.28234
G1 X162.749 Y148.447 E1.3219
G1 X162.904 Y149.223 E1.36138
G1 X162.961 Y149.967 E1.3986
G1 X162.884 Y151.469 E1.47364
G1 X162.772 Y154.118 E1.60591
G1 X162.735 Y156.841 E1.74178
G1 X162.773 Y159.434 E1.87116
G1 X162.886 Y162.122 E2.00538
G1 X162.947 Y163.211 E2.0598
G1 X162.937 Y163.954 E2.09687
G1 X162.854 Y164.593 E2.12902
G1 X162.642 Y165.409 E2.17108
G1 X162.371 Y166.091 E2.20769
G1 X161.798 Y167.129 E2.26684
G1 X158.649 Y172.57 E2.58048
G1 X158.232 Y173.186 E2.61759
G1 X157.743 Y173.745 E2.65465
G1 X157.189 Y174.238 E2.69164
G1 X156.62 Y174.635 E2.72626
G1 X155.963 Y174.984 E2.76337
G1 X155.22 Y175.265 E2.803
G1 X154.594 Y175.418 E2.83515
G1 X153.57 Y175.521 E2.8865
G1 X152.787 Y175.532 E2.92557
G1 X147.138 Y175.531 E3.2074
G1 X146.389 Y175.519 E3.24477
G1 X145.746 Y175.47 E3.27694
G1 X144.968 Y175.315 E3.31652
G1 X144.214 Y175.059 E3.35625
G1 X143.59 Y174.755 E3.39088
G1 X142.926 Y174.324 E3.43037
G1 X142.396 Y173.876 E3.46499
G1 X141.851 Y173.285 E3.5051
G1 X141.385 Y172.62 E3.54561
G1 X140.948 Y171.885 E3.58827
G1 X138.15 Y167.04 E3.8674
G1 X137.784 Y166.385 E3.90484
G1 X137.505 Y165.804 E3.93699
G1 X137.251 Y165.053 E3.97655
G1 X137.096 Y164.277 E4.01602
G1 X137.039 Y163.533 E4.05325
G1 X137.116 Y162.031 E4.12829
G1 X137.228 Y159.369 E4.26121
G1 X137.265 Y156.659 E4.39643
G1 X137.227 Y154.044 E4.5269
G1 X137.114 Y151.383 E4.65978
G1 X137.052 Y150.293 E4.71425
G1 X137.062 Y149.55 E4.75132
G1 X137.145 Y148.911 E4.78347
G1 X137.357 Y148.095 E4.82553
G1 X137.673 Y147.315 E4.86752
G1 X138.202 Y146.371 E4.9215
G1 X141.351 Y140.93 E5.23514
G1 X141.768 Y140.314 E5.27225
G1 X142.257 Y139.755 E5.30931
M205 X10 Y10
G0 F6000 X142.524 Y140.053
M205 X8 Y8
G1 F1200 X143.041 Y139.589 E5.34396
G1 X143.568 Y139.218 E5.37612
G1 X144.225 Y138.869 E5.41323
G1 X144.875 Y138.624 E5.44789
G1 X145.501 Y138.471 E5.48004
G1 X146.436 Y138.379 E5.52691
G1 X147.207 Y138.368 E5.56538
G1 X152.782 Y138.368 E5.84352
G1 X153.581 Y138.38 E5.88339
G1 X154.224 Y138.429 E5.91556
G1 X154.905 Y138.564 E5.95019
G1 X155.611 Y138.801 E5.98735
G1 X156.235 Y139.105 E6.02198
G1 X156.817 Y139.483 E6.0566
G1 X157.311 Y139.897 E6.08876
G1 X157.821 Y140.445 E6.1261
G1 X158.267 Y141.079 E6.16478
G1 X158.658 Y141.732 E6.20275
G1 X161.501 Y146.655 E6.48637
G1 X161.855 Y147.288 E6.52256
G1 X162.134 Y147.869 E6.55471
G1 X162.37 Y148.574 E6.5918
G1 X162.505 Y149.254 E6.62639
G1 X162.562 Y149.998 E6.66362
G1 X162.484 Y151.452 E6.73626
G1 X162.372 Y154.101 E6.86854
G1 X162.335 Y156.836 E7.005
G1 X162.373 Y159.451 E7.13548
G1 X162.487 Y162.139 E7.2697
G1 X162.547 Y163.207 E7.32307
G1 X162.54 Y163.902 E7.35774
G1 X162.457 Y164.541 E7.38989
G1 X162.27 Y165.261 E7.42701
G1 X161.999 Y165.943 E7.46362
G1 X161.452 Y166.929 E7.51987
G1 X158.317 Y172.347 E7.83217
G1 X157.93 Y172.924 E7.86683
G1 X157.476 Y173.447 E7.90138
G1 X156.959 Y173.911 E7.93604
G1 X156.432 Y174.282 E7.96819
G1 X155.775 Y174.631 E8.00531
G1 X155.125 Y174.876 E8.03996
G1 X154.499 Y175.029 E8.07211
G1 X153.564 Y175.121 E8.11899
G1 X152.787 Y175.132 E8.15776
G1 X147.144 Y175.131 E8.43929
G1 X146.419 Y175.12 E8.47546
G1 X145.776 Y175.071 E8.50763
G1 X145.095 Y174.936 E8.54227
G1 X144.389 Y174.699 E8.57942
G1 X143.765 Y174.395 E8.61405
G1 X143.183 Y174.017 E8.64868
G1 X142.689 Y173.603 E8.68083
G1 X142.179 Y173.055 E8.71818
G1 X141.713 Y172.39 E8.75869
G1 X141.294 Y171.685 E8.79961
G1 X138.499 Y166.845 E9.07845
G1 X138.145 Y166.212 E9.11463
G1 X137.866 Y165.631 E9.14679
G1 X137.63 Y164.926 E9.18388
G1 X137.495 Y164.246 E9.21846
G1 X137.438 Y163.502 E9.25569
G1 X137.516 Y162.048 E9.32834
G1 X137.628 Y159.386 E9.46126
G1 X137.665 Y156.664 E9.59707
G1 X137.627 Y154.038 E9.7281
G1 X137.513 Y151.366 E9.86153
G1 X137.452 Y150.297 E9.91495
G1 X137.459 Y149.602 E9.94962
G1 X137.542 Y148.963 E9.98177
G1 X137.728 Y148.244 E10.01882
G1 X138.022 Y147.51 E10.05827
G1 X138.548 Y146.571 E10.11197
G1 X141.683 Y141.153 E10.42426
G1 X142.07 Y140.576 E10.45892
G1 X142.524 Y140.053 E10.49347
M205 X10 Y10
G0 F6000 X142.793 Y140.349
M205 X8 Y8
G1 F1200 X143.271 Y139.916 E10.52565
G1 X143.798 Y139.545 E10.55781
G1 X144.368 Y139.243 E10.58999
G1 X144.97 Y139.013 E10.62214
G1 X145.596 Y138.86 E10.65429
G1 X146.442 Y138.779 E10.69669
G1 X147.213 Y138.768 E10.73516
G1 X152.776 Y138.768 E11.0127
G1 X153.551 Y138.779 E11.05137
G1 X154.194 Y138.828 E11.08354
G1 X154.826 Y138.956 E11.11571
G1 X155.437 Y139.161 E11.14786
G1 X156.018 Y139.441 E11.18004
G1 X156.56 Y139.79 E11.2122
G1 X157.054 Y140.204 E11.24436
G1 X157.494 Y140.675 E11.27651
G1 X157.94 Y141.309 E11.31519
G1 X158.312 Y141.932 E11.35139
G1 X161.152 Y146.85 E11.63472
G1 X161.494 Y147.461 E11.66965
G1 X161.773 Y148.042 E11.70181
G1 X161.978 Y148.653 E11.73396
G1 X162.106 Y149.285 E11.76613
G1 X162.163 Y150.029 E11.80336
G1 X162.084 Y151.435 E11.87362
G1 X161.972 Y154.084 E12.00589
G1 X161.935 Y156.831 E12.14295
G1 X161.973 Y159.468 E12.27453
G1 X162.088 Y162.156 E12.40875
G1 X162.147 Y163.205 E12.46117
G1 X162.143 Y163.85 E12.49335
G1 X162.06 Y164.489 E12.5255
G1 X161.898 Y165.113 E12.55766
G1 X161.627 Y165.795 E12.59428
G1 X161.106 Y166.729 E12.64763
G1 X157.984 Y172.126 E12.9587
G1 X157.627 Y172.663 E12.99087
G1 X157.207 Y173.151 E13.02299
G1 X156.729 Y173.584 E13.05517
G1 X156.202 Y173.955 E13.08732
G1 X155.632 Y174.257 E13.1195
G1 X155.03 Y174.487 E13.15165
G1 X154.404 Y174.64 E13.1838
G1 X153.558 Y174.721 E13.2262
G1 X152.787 Y174.732 E13.26467
G1 X147.15 Y174.731 E13.5459
G1 X146.449 Y174.721 E13.58088
G1 X145.806 Y174.672 E13.61305
G1 X145.174 Y174.544 E13.64522
G1 X144.563 Y174.339 E13.67738
G1 X143.982 Y174.059 E13.70955
G1 X143.44 Y173.71 E13.74171
G1 X142.946 Y173.296 E13.77387
G1 X142.506 Y172.825 E13.80603
G1 X142.057 Y172.186 E13.84499
G1 X141.64 Y171.485 E13.88568
G1 X138.848 Y166.65 E14.16423
G1 X138.506 Y166.039 E14.19917
G1 X138.227 Y165.458 E14.23132
G1 X138.022 Y164.847 E14.26347
G1 X137.894 Y164.215 E14.29564
G1 X137.837 Y163.471 E14.33287
G1 X137.916 Y162.065 E14.40313
G1 X138.028 Y159.403 E14.53605
G1 X138.065 Y156.669 E14.67247
G1 X138.027 Y154.032 E14.80404
G1 X137.912 Y151.349 E14.93802
G1 X137.852 Y150.299 E14.99049
G1 X137.856 Y149.654 E15.02267
G1 X137.939 Y149.015 E15.05482
G1 X138.1 Y148.391 E15.08697
G1 X138.371 Y147.705 E15.12376
G1 X138.894 Y146.771 E15.17717
G1 X142.016 Y141.374 E15.48823
G1 X142.373 Y140.837 E15.5204
G1 X142.793 Y140.349 E15.55253
M205 X10 Y10
G1 F1800 E9.55253
G1 F480 Z0.375
;MESH:neo hex key.STL
G0 F6000 X147.066 Y145.599 Z0.375
M205 X8 Y8
;TYPE:WALL-INNER
G1 F480 Z0.3
G1 F1800 E15.55253
G1 F1030 X147.844 Y145.173 E15.60408
G1 X148.335 Y145.002 E15.6343
G1 X147.114 Y145.002 E15.70527
G1 X146.514 Y146.04 E15.77495
G1 X147.066 Y145.599 E15.81602
M205 X10 Y10
G1 F1800 E9.81602
G1 F480 Z0.375
G0 F6000 X154.667 Y148.44 Z0.375
M205 X8 Y8
G1 F480 Z0.3
G1 F1800 E15.81602
G1 F937.5 X154.672 Y148.556 E15.82343
G1 F1088.4 X154.807 Y149.363 E15.86844
G1 F1200 X154.851 Y150.123 E15.90642
G1 X154.767 Y150.883 E15.94456
G1 F1030 X154.614 Y151.69 E15.9923
G1 F937.5 X154.228 Y152.469 E16.04782
G1 F1004.2 X153.789 Y153.129 E16.09508
G1 F1111.1 X153.096 Y153.73 E16.1445
G1 F1200 X152.462 Y154.18 E16.18329
G1 X152.124 Y154.344 E16.20204
G1 X152.125 Y155.431 E16.25627
G1 X153.136 Y155.431 E16.30671
G1 X153.853 Y154.19 E16.37821
G1 F1066.7 X154.17 Y153.54 E16.4188
G1 F933.9 X154.199 Y153.462 E16.42413
G1 F941.2 X154.654 Y152.715 E16.47977
G1 F937.5 X155.1 Y151.896 E16.53933
G1 F1030 X155.516 Y151.309 E16.58114
G1 F1200 X156.273 Y150 E16.65658
G1 X155.653 Y148.926 E16.71845
G1 F1088.4 X155.259 Y148.326 E16.75793
G1 F937.5 X155.151 Y148.2 E16.76853
G1 F926.6 X154.76 Y147.471 E16.82198
G1 F948.6 X154.299 Y146.698 E16.87878
G1 F1048 X153.991 Y146.05 E16.91976
G1 F1200 X153.136 Y144.568 E17.00512
G1 X152.101 Y144.569 E17.05676
G1 F1071.4 X151.387 Y144.615 E17.09674
G1 F905.7 X151.222 Y144.65 E17.10789
G1 F904 X150.352 Y144.618 E17.16555
G1 F958.1 X149.487 Y144.62 E17.2196
G1 F897.2 X148.769 Y144.651 E17.26755
G1 F902.3 X148.607 Y144.617 E17.27854
G1 F1069 X147.894 Y144.569 E17.31856
G1 F1200 X146.864 Y144.569 E17.36994
G1 X146.004 Y146.057 E17.45569
G1 F1048 X145.697 Y146.706 E17.4967
G1 F950.5 X145.237 Y147.476 E17.5532
G1 F926.6 X144.845 Y148.208 E17.60684
G1 F933.9 X144.739 Y148.332 E17.6173
G1 F1086 X144.345 Y148.933 E17.65692
G1 F1200 X143.728 Y150 E17.71841
G1 X144.486 Y151.313 E17.79405
G1 F1030 X144.905 Y151.907 E17.8363
G1 F937.5 X145.395 Y152.797 E17.90118
G1 F930.2 X145.849 Y153.535 E17.95694
G1 F1023.5 X146.15 Y154.196 E17.99943
G1 F1200 X146.864 Y155.432 E18.07064
G1 X147.876 Y155.432 E18.12113
G1 X147.876 Y154.344 E18.17541
G1 X147.542 Y154.182 E18.19393
G1 X146.91 Y153.735 E18.23255
G1 F1023.5 X146.273 Y153.209 E18.28087
G1 F932 X145.778 Y152.482 E18.33737
G1 F937.5 X145.39 Y151.701 E18.39306
G1 F1030 X145.234 Y150.888 E18.44117
G1 F1200 X145.149 Y150.133 E18.47908
G1 X145.192 Y149.371 E18.51716
G1 F1086 X145.326 Y148.562 E18.56236
G1 F933.9 X145.331 Y148.448 E18.56968
G1 F926.6 X145.664 Y147.722 E18.62128
G1 F950.5 X146.112 Y147.006 E18.67448
G1 F1048 X146.705 Y146.441 E18.72127
G1 F1200 X147.306 Y145.962 E18.75961
G1 X147.973 Y145.596 E18.79757
G1 F1069 X148.719 Y145.273 E18.84309
G1 F902.3 X148.817 Y145.212 E18.85075
G1 F897.2 X149.529 Y145.122 E18.89864
G1 F952.4 X150.461 Y145.121 E18.95723
G1 F898.9 X151.175 Y145.212 E19.00517
G1 F905.7 X151.275 Y145.274 E19.01295
G1 F1071.4 X152.024 Y145.594 E19.05846
G1 F1200 X152.694 Y145.962 E19.0966
G1 X153.288 Y146.436 E19.13451
G1 F1048 X153.882 Y146.999 E19.18126
G1 F948.6 X154.332 Y147.718 E19.23479
G1 F926.6 X154.667 Y148.44 E19.28622
M205 X10 Y10
G1 F1800 E13.28622
G1 F480 Z0.375
G0 F6000 X155.284 Y150.134 Z0.375
M205 X8 Y8
G1 F480 Z0.3
G1 F1800 E19.28622
G1 F1034.5 X155.188 Y151.014 E19.33745
G1 X155.774 Y150 E19.40522
G1 X155.222 Y149.043 E19.46916
G1 X155.284 Y150.134 E19.5324
M205 X10 Y10
G1 F1800 E13.5324
G1 F480 Z0.375
G0 F6000 X152.934 Y145.599 Z0.375
M205 X8 Y8
G1 F480 Z0.3
G1 F1800 E19.5324
G1 F1030 X153.487 Y146.041 E19.57355
G1 X152.886 Y145.001 E19.64336
G1 X151.665 Y145.002 E19.71433
G1 X152.233 Y145.214 E19.74957
G1 X152.934 Y145.599 E19.79605
M205 X10 Y10
G1 F1800 E13.79605
G1 F480 Z0.375
G0 F6000 X144.717 Y150.138 Z0.375
M205 X8 Y8
G1 F480 Z0.3
G1 F1800 E19.79605
G1 F1036.7 X144.778 Y149.043 E19.85938
G1 X144.225 Y150 E19.92321
G1 X144.814 Y151.02 E19.99123
G1 X144.717 Y150.138 E20.04247
M205 X10 Y10
G1 F1800 E14.04247
G1 F480 Z0.375
G0 F6000 X147.45 Y155.006 Z0.375
M205 X8 Y8
G1 F480 Z0.3
G1 F1800 E20.04247
G1 F1059.6 X147.45 Y154.634 E20.06349
G1 X146.519 Y153.982 E20.12771
G1 X147.11 Y155.006 E20.19451
G1 X147.45 Y155.006 E20.21372
M205 X10 Y10
G0 F6000 X148.476 Y155.776
M205 X8 Y8
;TYPE:WALL-OUTER
G1 F933.9 X151.568 Y155.775 E20.41194
M205 X10 Y10
G1 F1800 E14.41194
G1 F480 Z0.375
G0 F6000 X152.89 Y155.005 Z0.375
M205 X8 Y8
;TYPE:WALL-INNER
G1 F480 Z0.3
G1 F1800 E20.41194
G1 F1061.9 X153.486 Y153.975 E20.47903
G1 X152.55 Y154.647 E20.54399
G1 X152.551 Y155.005 E20.56417
G1 X152.89 Y155.005 E20.58328
M205 X10 Y10
G1 F1800 E14.58328
G1 F480 Z0.375
G0 F6000 X148.276 Y155.52 Z0.375
M205 X8 Y8
;TYPE:WALL-OUTER
G1 F480 Z0.3
G1 F1800 E20.58328
G1 F1200 X148.276 Y154.094 E20.65443
G1 X147.738 Y153.833 E20.68426
G1 X147.117 Y153.388 E20.72238
G1 X146.593 Y152.864 E20.75935
G1 X146.164 Y152.259 E20.79635
G1 X145.838 Y151.573 E20.83424
G1 X145.638 Y150.877 E20.87037
G1 X145.552 Y150.105 E20.90912
G1 X145.596 Y149.36 E20.94636
G1 X145.756 Y148.66 E20.98218
G1 X146.055 Y147.939 E21.02112
G1 X146.454 Y147.311 E21.05824
G1 X146.93 Y146.777 E21.09393
G1 X147.54 Y146.29 E21.13287
G1 X148.195 Y145.934 E21.17007
G1 X148.9 Y145.688 E21.20732
G1 X149.606 Y145.567 E21.24305
G1 X150.386 Y145.567 E21.28197
G1 X151.095 Y145.687 E21.31784
G1 X151.832 Y145.945 E21.3568
G1 X152.455 Y146.287 E21.39226
G1 X153.064 Y146.772 E21.4311
G1 X153.561 Y147.332 E21.46845
G1 X153.945 Y147.941 E21.50437
G1 X154.232 Y148.622 E21.54124
G1 X154.407 Y149.386 E21.58034
G1 X154.448 Y150.098 E21.61592
G1 X154.363 Y150.873 E21.65482
G1 X154.154 Y151.594 E21.69227
G1 X153.842 Y152.246 E21.72833
G1 X153.41 Y152.861 E21.76583
