; generated by F3Slic3r 2.6.0-alpha4 on 2025-02-27 at 23:47:44 UTC

; 

; external perimeters extrusion width = 0.68mm
; perimeters extrusion width = 0.68mm
; infill extrusion width = 0.68mm
; solid infill extrusion width = 0.68mm
; top infill extrusion width = 0.60mm
; first layer extrusion width = 0.70mm

; external perimeters extrusion width = 0.68mm
; perimeters extrusion width = 0.68mm
; infill extrusion width = 0.68mm
; solid infill extrusion width = 0.68mm
; top infill extrusion width = 0.60mm
; first layer extrusion width = 0.70mm

M107
;TYPE:Custom
; Fusion3 F410 F3Slic3r start script
; Rev 2023.01.16
M104 S0 
G21  
G90  
T0  
G92 E0.0  
M220 S100 
M140 S60  
G32 
M190 S60  
M109 S220  
; === pause for heating ===
; reset filament monitor
M42 P63 S0
G4 P100
G4 P50
M42 P63 S1
;
G1 Z10.0 F2000  ; move up
G1 E30.0 F500  ; prime extruder
G1 X20 Y15 F9000  ; move back
G1 Z0 F1000  ; move down to begin wipe
G1 X150 E4.0 F10000  ; wipe print head (extrude material while we do this)
G92 E0.0  ; reset e count
G21 ; set units to millimeters
G90 ; use absolute coordinates
M83 ; use relative distances for extrusion
; Filament gcode
M107
;LAYER_CHANGE
;Z:0.35
;HEIGHT:0.35
G1 Z.35 F7800
G1 E-3.25 F10020
G1 X143.995 Y157.232 F7800
G1 E3.25 F2400
;TYPE:Skirt/Brim
;WIDTH:0.7
G1 F1800
G1 X145.132 Y156.729 E.11305
G1 X208.648 Y155.238 E5.77707
G1 X209.729 Y155.616 E.10413
G1 X212.616 Y158.03 E.34219
G1 X213.179 Y159.027 E.10411
G1 X213.559 Y161.629 E.23911
G1 X215.155 Y201.857 E3.66079
G1 X215.951 Y235.79 E3.08636
G1 X215.503 Y236.95 E.11307
G1 X212.643 Y239.947 E.37669
G1 X211.506 Y240.45 E.11305
G1 X147.99 Y241.941 E5.77707
G1 X146.909 Y241.563 E.10413
G1 X144.022 Y239.148 E.34225
G1 X143.459 Y238.152 E.10403
G1 X143.079 Y235.55 E.23911
G1 X141.483 Y195.321 E3.66088
G1 X140.687 Y161.389 E3.08627
G1 X141.136 Y160.229 E.1131
G1 X143.933 Y157.297 E.36846
G1 E-3.25 F10020
G1 X148.199 Y201.063 F7800
G1 E3.25 F2400
G1 F1800
G1 X209.455 Y199.656 E5.57145
G1 X209.96 Y199.772 E.04712
G1 X210.462 Y199.966 E.04894
G1 X210.912 Y200.22 E.04699
G1 X212.136 Y201.344 E.15111
G1 X212.602 Y202.004 E.07347
G1 X212.864 Y202.628 E.06154
G1 X213 Y203.286 E.0611
G1 X213.732 Y234.463 E2.83569
G1 X213.595 Y235.247 E.07237
G1 X213.397 Y235.757 E.04975
G1 X213.143 Y236.207 E.04699
G1 X212.024 Y237.426 E.15046
G1 X211.493 Y237.822 E.06023
G1 X210.808 Y238.135 E.06848
G1 X210.075 Y238.295 E.06822
G1 X203.906 Y238.408 E.56104
G1 X203.401 Y238.293 E.0471
G1 X202.89 Y238.095 E.04983
G1 X202.314 Y237.742 E.06143
G1 X201.121 Y236.601 E.15011
G1 X200.755 Y236.051 E.06007
G1 X200.497 Y235.436 E.06064
G1 X200.361 Y234.778 E.0611
G1 X199.856 Y213.228 E1.96007
G1 X158.141 Y214.207 E3.79417
G1 X158.647 Y235.756 E1.95998
G1 X158.528 Y236.477 E.06645
G1 X158.283 Y237.111 E.0618
G1 X157.877 Y237.737 E.06785
G1 X156.706 Y238.918 E.15123
G1 X156.268 Y239.193 E.04703
G1 X155.768 Y239.414 E.04971
G1 X154.989 Y239.588 E.07258
G1 X148.965 Y239.716 E.54788
G1 X148.414 Y239.615 E.05094
G1 X147.77 Y239.37 E.06265
G1 X147.252 Y239.055 E.05513
G1 X146.145 Y238.019 E.13786
G1 X145.749 Y237.488 E.06023
G1 X145.436 Y236.803 E.06848
G1 X145.277 Y236.072 E.06802
G1 X144.545 Y204.895 E2.83569
G1 X144.682 Y204.11 E.07246
G1 X144.879 Y203.6 E.04971
G1 X145.133 Y203.15 E.04699
G1 X146.252 Y201.931 E.15046
G1 X146.783 Y201.536 E.06018
G1 X147.468 Y201.222 E.06852
G1 X148.111 Y201.082 E.05984
G1 X148.246 Y201.687 F7800
G1 F1800
G1 X209.357 Y200.274 E5.55828
G1 X209.757 Y200.363 E.03726
G1 X210.214 Y200.54 E.04456
G1 X210.57 Y200.744 E.03731
G1 X211.687 Y201.779 E.13847
G1 X212.041 Y202.282 E.05593
G1 X212.26 Y202.791 E.05039
G1 X212.376 Y203.331 E.05022
G1 X213.106 Y234.447 E2.83014
G1 X213.001 Y235.05 E.05566
G1 X212.823 Y235.509 E.04477
G1 X212.62 Y235.865 E.03726
G1 X211.586 Y236.98 E.13827
G1 X211.198 Y237.27 E.04405
G1 X210.635 Y237.534 E.05654
G1 X210.029 Y237.671 E.05649
G1 X204.004 Y237.79 E.54796
G1 X203.604 Y237.701 E.03726
G1 X203.144 Y237.523 E.04485
G1 X202.673 Y237.23 E.05044
G1 X201.58 Y236.176 E.13807
G1 X201.318 Y235.778 E.04333
G1 X201.101 Y235.274 E.0499
G1 X200.986 Y234.733 E.05029
G1 X200.466 Y212.588 E2.01419
G1 X157.501 Y213.597 E3.90787
G1 X158.021 Y235.742 E2.01419
G1 X157.932 Y236.287 E.05021
G1 X157.737 Y236.806 E.05041
G1 X157.406 Y237.325 E.05597
G1 X156.339 Y238.411 E.13844
G1 X155.993 Y238.632 E.03733
G1 X155.543 Y238.83 E.0447
G1 X154.944 Y238.964 E.05581
G1 X148.987 Y239.09 E.54179
G1 X148.562 Y239.007 E.03938
G1 X148.064 Y238.818 E.04843
G1 X147.653 Y238.574 E.04346
G1 X146.591 Y237.581 E.1322
G1 X146.301 Y237.193 E.04405
G1 X146.037 Y236.63 E.05654
G1 X145.901 Y236.025 E.05639
G1 X145.17 Y204.911 E2.82996
G1 X145.275 Y204.307 E.05575
G1 X145.453 Y203.849 E.04468
G1 X145.657 Y203.493 E.03731
G1 X146.691 Y202.377 E.13834
G1 X147.078 Y202.087 E.04397
G1 X147.641 Y201.824 E.0565
G1 X148.158 Y201.707 E.0482
G1 X148.292 Y202.311 F7800
G1 F1800
G1 X209.264 Y200.893 E5.54566
G1 X209.556 Y200.955 E.02714
G1 X209.964 Y201.113 E.03978
G1 X210.223 Y201.264 E.02726
G1 X211.236 Y202.213 E.12622
G1 X211.483 Y202.564 E.03903
G1 X211.658 Y202.96 E.03937
G1 X211.752 Y203.378 E.03896
G1 X212.481 Y234.431 E2.82441
G1 X212.407 Y234.853 E.03896
G1 X212.25 Y235.259 E.03958
G1 X212.099 Y235.518 E.02726
G1 X211.151 Y236.531 E.12616
G1 X210.857 Y236.746 E.03312
G1 X210.407 Y236.952 E.045
G1 X209.985 Y237.047 E.03933
G1 X204.097 Y237.171 E.53551
G1 X203.805 Y237.109 E.02714
G1 X203.399 Y236.952 E.03958
G1 X203.037 Y236.722 E.039
G1 X202.042 Y235.754 E.12623
G1 X201.879 Y235.502 E.02729
G1 X201.703 Y235.105 E.03949
G1 X201.609 Y234.686 E.03905
G1 X201.076 Y211.949 E2.06803
G1 X156.862 Y212.987 E4.02147
G1 X157.396 Y235.724 E2.06804
G1 X157.322 Y236.147 E.03905
G1 X157.166 Y236.55 E.03929
G1 X156.936 Y236.913 E.03908
G1 X155.968 Y237.907 E.12616
G1 X155.716 Y238.071 E.02734
G1 X155.319 Y238.246 E.03945
G1 X154.9 Y238.34 E.03905
G1 X149.013 Y238.465 E.53542
G1 X148.72 Y238.402 E.02725
G1 X148.312 Y238.244 E.03978
G1 X148.053 Y238.093 E.02726
G1 X147.041 Y237.146 E.12603
G1 X146.825 Y236.851 E.03325
G1 X146.62 Y236.401 E.04496
G1 X146.525 Y235.979 E.03933
G1 X145.796 Y204.927 E2.82432
G1 X145.869 Y204.504 E.03903
G1 X146.026 Y204.099 E.0395
G1 X146.177 Y203.84 E.02726
G1 X147.125 Y202.827 E.12616
G1 X147.419 Y202.611 E.03317
G1 X147.87 Y202.406 E.04505
G1 X148.204 Y202.331 E.03113
G1 X148.337 Y202.935 F7800
G1 F1800
G1 X209.177 Y201.512 E5.53367
G1 X209.358 Y201.549 E.0168
G1 X209.711 Y201.685 E.0344
G1 X209.87 Y201.781 E.01689
G1 X210.783 Y202.644 E.11424
G1 X210.924 Y202.844 E.02225
G1 X211.074 Y203.184 E.03379
G1 X211.128 Y203.423 E.02228
G1 X211.855 Y234.415 E2.81886
G1 X211.813 Y234.656 E.02224
G1 X211.678 Y235.006 E.03411
G1 X211.582 Y235.165 E.01689
G1 X210.716 Y236.081 E.11462
G1 X210.567 Y236.191 E.01684
G1 X210.177 Y236.37 E.03902
G1 X209.94 Y236.423 E.02208
G1 X204.184 Y236.552 E.52352
G1 X204.003 Y236.516 E.01678
G1 X203.653 Y236.38 E.03414
G1 X203.447 Y236.249 E.0222
G1 X202.541 Y235.377 E.11434
G1 X202.439 Y235.223 E.0168
G1 X202.287 Y234.88 E.03411
G1 X202.233 Y234.641 E.02228
G1 X201.686 Y211.309 E2.12215
G1 X156.223 Y212.377 E4.13507
G1 X156.77 Y235.708 E2.12206
G1 X156.728 Y235.95 E.02233
G1 X156.594 Y236.296 E.03374
G1 X156.463 Y236.503 E.02227
G1 X155.591 Y237.408 E.11428
G1 X155.437 Y237.511 E.01685
G1 X155.094 Y237.663 E.03411
G1 X154.855 Y237.716 E.02226
G1 X149.099 Y237.845 E.52352
G1 X148.919 Y237.809 E.01669
G1 X148.565 Y237.672 E.03452
G1 X148.406 Y237.577 E.01684
G1 X147.49 Y236.711 E.11462
G1 X147.38 Y236.562 E.01684
G1 X147.202 Y236.172 E.03898
G1 X147.149 Y235.934 E.02217
G1 X146.421 Y204.943 E2.81878
G1 X146.463 Y204.701 E.02233
G1 X146.599 Y204.351 E.03414
G1 X146.694 Y204.193 E.01676
G1 X147.56 Y203.276 E.11469
G1 X147.709 Y203.166 E.01684
G1 X148.099 Y202.988 E.03898
G1 X148.249 Y202.955 E.01397
G1 X148.382 Y203.559 F7800
G1 F1800
G1 X209.104 Y202.133 E5.52295
G1 X209.454 Y202.256 E.03373
G1 X210.329 Y203.075 E.10898
G1 X210.504 Y203.469 E.0392
G1 X211.23 Y234.399 E2.81323
G1 X211.107 Y234.749 E.03373
G1 X210.288 Y235.624 E.10898
G1 X209.894 Y235.799 E.0392
G1 X204.257 Y235.931 E.51271
G1 X203.855 Y235.776 E.03918
G1 X203.032 Y234.99 E.10348
G1 X202.871 Y234.656 E.03371
G1 X202.296 Y210.67 E2.18166
G1 X155.583 Y211.767 E4.24876
G1 X156.134 Y235.753 E2.18161
G1 X155.989 Y236.094 E.03369
G1 X155.204 Y236.918 E.10348
G1 X154.809 Y237.092 E.03925
G1 X149.172 Y237.224 E.51271
G1 X148.823 Y237.102 E.03362
G1 X147.947 Y236.283 E.10904
G1 X147.773 Y235.889 E.03916
G1 X147.046 Y204.959 E2.81323
G1 X147.202 Y204.557 E.03921
G1 X147.988 Y203.733 E.10355
G1 X148.296 Y203.584 E.03111
G1 X148.49 Y204.181 F7800
G1 F1800
G1 X209.026 Y202.76 E5.50603
G1 X209.142 Y202.805 E.01131
G1 X209.831 Y203.463 E.08663
G1 X209.881 Y203.576 E.01124
G1 X210.603 Y234.321 E2.7964
G1 X210.558 Y234.437 E.01131
G1 X209.9 Y235.126 E.08663
G1 X209.787 Y235.176 E.01124
G1 X204.335 Y235.304 E.49588
G1 X204.22 Y235.259 E.01123
G1 X203.53 Y234.602 E.08663
G1 X203.48 Y234.488 E.01132
G1 X202.906 Y210.031 E2.22448
G1 X154.944 Y211.157 E4.36237
G1 X155.518 Y235.614 E2.22448
G1 X155.473 Y235.73 E.01131
G1 X154.816 Y236.419 E.08657
G1 X154.702 Y236.469 E.01132
G1 X149.251 Y236.597 E.49579
G1 X149.135 Y236.553 E.01128
G1 X148.445 Y235.895 E.0867
G1 X148.395 Y235.781 E.01132
G1 X147.673 Y205.037 E2.79631
G1 X147.718 Y204.921 E.01131
G1 X148.376 Y204.232 E.08663
G1 X148.407 Y204.218 E.00309
G1 E-3.25 F10020
G1 X148.25 Y197.529 F7800
G1 E3.25 F2400
G1 F1800
G1 X147.47 Y197.547 E.07094
G1 X146.686 Y197.41 E.07237
G1 X146.176 Y197.213 E.04971
G1 X145.726 Y196.959 E.04699
G1 X144.507 Y195.84 E.15046
G1 X144.111 Y195.309 E.06023
G1 X143.798 Y194.624 E.06848
G1 X143.639 Y193.893 E.06802
G1 X142.907 Y162.716 E2.83569
G1 X143.043 Y161.932 E.07235
G1 X143.241 Y161.422 E.04975
G1 X143.495 Y160.971 E.04707
G1 X144.614 Y159.753 E.1504
G1 X145.145 Y159.357 E.06023
G1 X145.83 Y159.044 E.06848
G1 X146.563 Y158.884 E.06822
G1 X152.732 Y158.771 E.56104
G1 X153.237 Y158.886 E.0471
G1 X153.749 Y159.084 E.04992
G1 X154.325 Y159.436 E.06138
G1 X155.518 Y160.578 E.15017
G1 X155.883 Y161.128 E.06002
G1 X156.141 Y161.742 E.06056
G1 X156.277 Y162.401 E.06119
G1 X156.783 Y183.951 E1.96007
G1 X198.497 Y182.972 E3.79408
G1 X197.991 Y161.423 E1.95998
G1 X198.128 Y160.638 E.07246
G1 X198.326 Y160.128 E.04975
G1 X198.58 Y159.678 E.04699
G1 X199.705 Y158.453 E.15123
G1 X200.326 Y158.01 E.06936
G1 X201.024 Y157.713 E.06898
G1 X201.66 Y157.59 E.0589
G1 X207.817 Y157.477 E.55995
G1 X208.322 Y157.593 E.04712
G1 X208.824 Y157.787 E.04894
G1 X209.274 Y158.041 E.04699
G1 X210.498 Y159.165 E.15111
G1 X210.964 Y159.825 E.07347
G1 X211.226 Y160.449 E.06154
G1 X211.361 Y161.107 E.06108
G1 X212.093 Y192.284 E2.83569
G1 X211.957 Y193.068 E.07235
G1 X211.759 Y193.578 E.04975
G1 X211.505 Y194.029 E.04707
G1 X210.386 Y195.247 E.1504
G1 X209.855 Y195.643 E.06023
G1 X209.17 Y195.956 E.06848
G1 X208.439 Y196.116 E.06804
G1 X148.34 Y197.527 E5.46628
G1 X148.326 Y196.902 F7800
G1 F1800
G1 X147.486 Y196.922 E.0764
G1 X146.883 Y196.817 E.05566
G1 X146.424 Y196.639 E.04477
G1 X146.068 Y196.435 E.03731
G1 X144.953 Y195.401 E.13827
G1 X144.663 Y195.014 E.04397
G1 X144.399 Y194.451 E.05654
G1 X144.263 Y193.846 E.05639
G1 X143.532 Y162.732 E2.82996
G1 X143.637 Y162.129 E.05566
G1 X143.815 Y161.67 E.04477
G1 X144.019 Y161.314 E.03731
G1 X145.052 Y160.198 E.13828
G1 X145.44 Y159.908 E.04405
G1 X146.003 Y159.645 E.0565
G1 X146.609 Y159.508 E.05649
G1 X152.634 Y159.389 E.54796
G1 X153.034 Y159.478 E.03726
G1 X153.495 Y159.656 E.04493
G1 X153.965 Y159.948 E.05031
G1 X155.058 Y161.003 E.13813
G1 X155.32 Y161.401 E.04333
G1 X155.537 Y161.905 E.0499
G1 X155.653 Y162.446 E.05031
G1 X156.173 Y184.591 E2.01419
G1 X199.137 Y183.582 E3.90778
G1 X198.617 Y161.439 E2.01401
G1 X198.722 Y160.835 E.05575
G1 X198.9 Y160.377 E.04468
G1 X199.103 Y160.021 E.03726
G1 X200.139 Y158.904 E.13853
G1 X200.654 Y158.543 E.05719
G1 X201.232 Y158.303 E.05691
G1 X201.698 Y158.215 E.04312
G1 X207.719 Y158.095 E.5476
G1 X208.119 Y158.184 E.03726
G1 X208.576 Y158.361 E.04456
G1 X208.932 Y158.565 E.03731
G1 X210.049 Y159.6 E.13847
G1 X210.403 Y160.103 E.05593
G1 X210.622 Y160.612 E.05039
G1 X210.737 Y161.152 E.0502
G1 X211.468 Y192.268 E2.83015
G1 X211.363 Y192.871 E.05566
G1 X211.185 Y193.33 E.04477
G1 X210.981 Y193.686 E.03731
G1 X209.948 Y194.802 E.13828
G1 X209.56 Y195.092 E.04405
G1 X208.997 Y195.355 E.0565
G1 X208.392 Y195.492 E.05641
G1 X148.415 Y196.9 E5.45519
G1 X148.401 Y196.275 F7800
G1 F1800
G1 X147.502 Y196.296 E.08177
G1 X147.08 Y196.223 E.03894
G1 X146.674 Y196.066 E.03958
G1 X146.415 Y195.915 E.02726
G1 X145.403 Y194.967 E.12609
G1 X145.187 Y194.673 E.03317
G1 X144.981 Y194.222 E.04508
G1 X144.887 Y193.8 E.03931
G1 X144.157 Y162.748 E2.82433
G1 X144.231 Y162.326 E.03896
G1 X144.388 Y161.92 E.03958
G1 X144.539 Y161.661 E.02726
G1 X145.487 Y160.648 E.12616
G1 X145.781 Y160.433 E.03312
G1 X146.231 Y160.227 E.045
G1 X146.654 Y160.132 E.03942
G1 X152.541 Y160.008 E.53542
G1 X152.833 Y160.07 E.02714
G1 X153.239 Y160.227 E.03958
G1 X153.601 Y160.457 E.039
G1 X154.596 Y161.425 E.12623
G1 X154.759 Y161.676 E.02721
G1 X154.935 Y162.074 E.03957
G1 X155.029 Y162.493 E.03905
G1 X155.563 Y185.23 E2.06804
G1 X199.776 Y184.192 E4.02138
G1 X199.242 Y161.455 E2.06804
G1 X199.316 Y161.032 E.03905
G1 X199.473 Y160.627 E.0395
G1 X199.624 Y160.368 E.02726
G1 X200.572 Y159.355 E.12616
G1 X200.926 Y159.107 E.0393
G1 X201.44 Y158.893 E.05063
G1 X201.736 Y158.839 E.02736
G1 X207.626 Y158.714 E.5357
G1 X207.918 Y158.777 E.02716
G1 X208.326 Y158.934 E.03975
G1 X208.585 Y159.085 E.02726
G1 X209.598 Y160.034 E.12622
G1 X209.845 Y160.385 E.03903
G1 X210.02 Y160.781 E.03937
G1 X210.113 Y161.199 E.03894
G1 X210.843 Y192.252 E2.82442
G1 X210.769 Y192.674 E.03896
G1 X210.612 Y193.08 E.03958
G1 X210.461 Y193.339 E.02726
G1 X209.513 Y194.352 E.12616
G1 X209.219 Y194.567 E.03312
G1 X208.769 Y194.773 E.045
G1 X208.347 Y194.868 E.03933
G1 X148.491 Y196.273 E5.44418
G1 X148.476 Y195.648 F7800
G1 F1800
G1 X147.518 Y195.671 E.08714
G1 X147.277 Y195.629 E.02224
G1 X146.927 Y195.493 E.03414
G1 X146.768 Y195.398 E.01684
G1 X145.852 Y194.532 E.11462
G1 X145.742 Y194.383 E.01684
G1 X145.564 Y193.993 E.03898
G1 X145.511 Y193.755 E.02217
G1 X144.783 Y162.764 E2.81878
G1 X144.825 Y162.522 E.02233
G1 X144.961 Y162.172 E.03414
G1 X145.056 Y162.014 E.01676
G1 X145.922 Y161.098 E.11462
G1 X146.071 Y160.987 E.01689
G1 X146.461 Y160.809 E.03898
G1 X146.698 Y160.756 E.02208
G1 X152.454 Y160.627 E.52352
G1 X152.635 Y160.663 E.01678
G1 X152.985 Y160.799 E.03414
G1 X153.191 Y160.93 E.0222
G1 X154.097 Y161.802 E.11434
G1 X154.199 Y161.955 E.01672
G1 X154.351 Y162.299 E.0342
G1 X154.405 Y162.538 E.02228
G1 X154.952 Y185.869 E2.12206
G1 X200.415 Y184.802 E4.13507
G1 X199.868 Y161.471 E2.12206
G1 X199.91 Y161.229 E.02233
G1 X200.045 Y160.879 E.03411
G1 X200.141 Y160.721 E.01681
G1 X201.004 Y159.807 E.1143
G1 X201.203 Y159.668 E.02207
G1 X201.597 Y159.499 E.03898
G1 X201.779 Y159.463 E.01687
G1 X207.539 Y159.334 E.52389
G1 X207.72 Y159.37 E.01678
G1 X208.073 Y159.507 E.03443
G1 X208.232 Y159.602 E.01684
G1 X209.145 Y160.466 E.1143
G1 X209.286 Y160.666 E.02225
G1 X209.436 Y161.005 E.03371
G1 X209.489 Y161.245 E.02235
G1 X210.217 Y192.236 E2.81878
G1 X210.175 Y192.478 E.02233
G1 X210.039 Y192.828 E.03414
G1 X209.944 Y192.986 E.01676
G1 X209.078 Y193.902 E.11462
G1 X208.929 Y194.013 E.01689
G1 X208.539 Y194.191 E.03898
G1 X208.301 Y194.244 E.02217
G1 X148.566 Y195.646 E5.43317
G1 X148.551 Y195.022 F7800
G1 F1800
G1 X147.534 Y195.046 E.0925
G1 X147.184 Y194.923 E.03373
G1 X146.309 Y194.104 E.10898
G1 X146.135 Y193.71 E.03916
G1 X145.408 Y162.78 E2.81323
G1 X145.564 Y162.378 E.03921
G1 X146.4 Y161.519 E.10899
G1 X146.744 Y161.38 E.03374
G1 X152.381 Y161.248 E.51271
G1 X152.783 Y161.403 E.03918
G1 X153.606 Y162.189 E.10348
G1 X153.767 Y162.523 E.03371
G1 X154.342 Y186.509 E2.18166
G1 X201.055 Y185.412 E4.24876
G1 X200.504 Y161.426 E2.18161
G1 X200.649 Y161.085 E.03369
G1 X201.435 Y160.261 E.10355
