; generated by F3Slic3r 2.6.0-alpha4 on 2025-03-01 at 14:51:34 UTC

; 

; external perimeters extrusion width = 0.68mm
; perimeters extrusion width = 0.68mm
; infill extrusion width = 0.68mm
; solid infill extrusion width = 0.68mm
; top infill extrusion width = 0.60mm
; first layer extrusion width = 0.40mm

; external perimeters extrusion width = 0.68mm
; perimeters extrusion width = 0.68mm
; infill extrusion width = 0.68mm
; solid infill extrusion width = 0.68mm
; top infill extrusion width = 0.60mm
; first layer extrusion width = 0.40mm

; external perimeters extrusion width = 0.68mm
; perimeters extrusion width = 0.68mm
; infill extrusion width = 0.68mm
; solid infill extrusion width = 0.68mm
; top infill extrusion width = 0.60mm
; first layer extrusion width = 0.40mm

M107
;TYPE:Custom
; Fusion3 F410 F3Slic3r start script
; Rev 2023.01.16
M104 S0 
G21  
G90  
T0  
G92 E0.0  
M220 S100 
M140 S60  
G32 
M190 S60  
M109 S220  
; === pause for heating ===
; reset filament monitor
M42 P63 S0
G4 P100
G4 P50
M42 P63 S1
;
G1 Z10.0 F2000  ; move up
G1 E30.0 F500  ; prime extruder
G1 X20 Y15 F9000  ; move back
G1 Z0 F1000  ; move down to begin wipe
G1 X150 E4.0 F10000  ; wipe print head (extrude material while we do this)
G92 E0.0  ; reset e count
G21 ; set units to millimeters
G90 ; use absolute coordinates
M83 ; use relative distances for extrusion
; Filament gcode
M107
;LAYER_CHANGE
;Z:0.2
;HEIGHT:0.2
G1 Z.2 F7800
G1 E-3.25 F10020
G1 X111.128 Y91.848 F7800
G1 E3.25 F2400
;TYPE:Skirt/Brim
;WIDTH:0.4
G1 F1800
G1 X112.351 Y90.528 E.05343
G1 X113.924 Y89.118 E.06272
G1 X115.627 Y87.87 E.06269
G1 X117.444 Y86.795 E.06268
G1 X119.358 Y85.903 E.0627
G1 X121.35 Y85.203 E.06269
G1 X123.402 Y84.702 E.06272
G1 X125.492 Y84.404 E.06268
G1 X127.418 Y84.312 E.05725
G1 X182 Y84.312 E1.62061
G1 X185.178 Y85.164 E.09769
G1 X187.499 Y86.504 E.07957
G1 X189.826 Y88.83 E.09769
G1 X201.818 Y109.601 E.71212
G1 X202.275 Y110.576 E.03197
G1 X221.342 Y162.172 E1.63321
G1 X221.618 Y163.157 E.03037
G1 X221.803 Y164.107 E.02874
G1 X221.921 Y165.325 E.03633
G1 X221.921 Y166.519 E.03545
G1 X221.822 Y167.641 E.03344
G1 X221.368 Y169.603 E.05979
G1 X220.893 Y170.82 E.03879
G1 X220.465 Y171.677 E.02844
G1 X210.606 Y188.749 E.58534
G1 X209.388 Y190.438 E.06183
G1 X207.844 Y191.92 E.06354
G1 X206.868 Y192.613 E.03554
G1 X205.867 Y193.191 E.03432
G1 X203.98 Y193.975 E.06067
G1 X202.873 Y194.262 E.03395
G1 X200.836 Y194.504 E.06091
G1 X142.704 Y196.041 E1.72662
G1 X94.005 Y196.019 E1.44594
G1 X91.794 Y195.621 E.0667
G1 X89.513 Y194.157 E.08048
G1 X86.585 Y191.228 E.12297
G1 X85.302 Y189.384 E.0667
G1 X84.723 Y186.733 E.08057
G1 X84.723 Y147.3 E1.17082
G1 X85.334 Y144.579 E.0828
G1 X108.306 Y96.07 E1.59363
G1 X109.656 Y93.773 E.07911
G1 X111.073 Y91.919 E.06928
G1 E-3.25 F10020
G1 X111.069 Y144.552 F7800
G1 E3.25 F2400
G1 F1800
G1 X141.83 Y144.554 E.91333
G1 X142.961 Y144.849 E.0347
G1 X143.917 Y145.349 E.03203
G1 X145.176 Y146.6 E.0527
G1 X148.675 Y152.717 E.20924
G1 X152.215 Y158.848 E.2102
G1 X155.765 Y164.941 E.20938
G1 X156.221 Y166.717 E.05444
G1 X156.135 Y167.958 E.03694
G1 X155.75 Y169.118 E.03629
G1 X152.215 Y175.184 E.20846
G1 X148.674 Y181.317 E.21027
G1 X145.196 Y187.397 E.20797
G1 X144.44 Y188.272 E.03433
G1 X143.121 Y189.118 E.04653
G1 X141.568 Y189.511 E.04756
G1 X135.12 Y189.483 E.19145
G1 X95.648 Y189.483 E1.17197
G1 X94.661 Y189.303 E.02979
G1 X93.699 Y188.897 E.031
G1 X92.415 Y187.825 E.04966
G1 X91.613 Y186.556 E.04457
G1 X91.259 Y185.117 E.044
G1 X91.259 Y148.939 E1.07417
G1 X91.439 Y147.952 E.02979
G1 X91.844 Y146.99 E.03099
G1 X92.917 Y145.706 E.04968
G1 X94.186 Y144.904 E.04457
G1 X95.625 Y144.55 E.044
G1 X110.979 Y144.552 E.45588
G1 X110.979 Y144.909 F7800
G1 F1800
G1 X141.806 Y144.911 E.91529
G1 X142.849 Y145.188 E.03204
G1 X143.727 Y145.652 E.02949
G1 X144.878 Y146.798 E.04823
G1 X148.365 Y152.895 E.20854
G1 X151.906 Y159.027 E.21024
G1 X155.444 Y165.099 E.20866
G1 X155.863 Y166.723 E.0498
G1 X155.789 Y167.869 E.0341
G1 X155.432 Y168.955 E.03394
G1 X151.906 Y175.005 E.20791
G1 X148.364 Y181.139 E.21031
G1 X144.895 Y187.204 E.20745
G1 X144.188 Y188.018 E.03201
G1 X142.955 Y188.801 E.04337
G1 X141.547 Y189.154 E.0431
G1 X135.121 Y189.126 E.1908
G1 X95.665 Y189.126 E1.1715
G1 X94.746 Y188.956 E.02775
G1 X93.864 Y188.58 E.02847
G1 X92.666 Y187.57 E.04652
G1 X91.952 Y186.441 E.03966
G1 X91.616 Y185.094 E.04122
G1 X91.616 Y148.956 E1.07298
G1 X91.786 Y148.037 E.02775
G1 X92.162 Y147.155 E.02847
G1 X93.172 Y145.957 E.04652
G1 X94.301 Y145.243 E.03966
G1 X95.647 Y144.907 E.04119
G1 X110.889 Y144.909 E.45255
G1 X110.888 Y145.266 F7800
G1 F1800
G1 X141.782 Y145.268 E.91728
G1 X142.735 Y145.527 E.02932
G1 X143.535 Y145.954 E.02692
G1 X144.579 Y146.996 E.0438
G1 X148.056 Y153.073 E.20788
G1 X151.597 Y159.207 E.21029
G1 X155.123 Y165.258 E.20794
G1 X155.505 Y166.73 E.04515
G1 X155.442 Y167.781 E.03126
G1 X155.113 Y168.792 E.03157
G1 X151.597 Y174.826 E.20735
G1 X148.055 Y180.961 E.21034
G1 X144.594 Y187.011 E.20695
G1 X143.936 Y187.764 E.02969
G1 X142.839 Y188.462 E.03861
G1 X141.526 Y188.797 E.04023
G1 X135.122 Y188.769 E.19014
G1 X95.682 Y188.769 E1.17102
G1 X94.832 Y188.609 E.02568
G1 X94.031 Y188.263 E.02591
G1 X92.919 Y187.317 E.04335
G1 X92.27 Y186.277 E.0364
G1 X91.973 Y185.073 E.03682
G1 X91.973 Y148.973 E1.07186
G1 X92.133 Y148.123 E.02568
G1 X92.479 Y147.322 E.02591
G1 X93.425 Y146.21 E.04335
G1 X94.465 Y145.561 E.0364
G1 X95.669 Y145.264 E.03682
G1 X110.798 Y145.266 E.4492
G1 X110.798 Y145.623 F7800
G1 F1800
G1 X141.757 Y145.625 E.91921
G1 X142.62 Y145.866 E.0266
G1 X143.342 Y146.256 E.02436
G1 X144.281 Y147.194 E.03941
G1 X147.746 Y153.251 E.20719
G1 X151.288 Y159.386 E.21034
G1 X154.802 Y165.417 E.20725
G1 X155.147 Y166.737 E.04051
G1 X155.087 Y167.736 E.02972
G1 X154.795 Y168.628 E.02787
G1 X151.288 Y174.646 E.20681
G1 X147.745 Y180.783 E.2104
G1 X144.293 Y186.818 E.20643
G1 X143.686 Y187.508 E.02729
G1 X142.673 Y188.145 E.03553
G1 X141.505 Y188.439 E.03576
G1 X135.123 Y188.411 E.18949
G1 X95.699 Y188.411 E1.17055
G1 X94.919 Y188.262 E.02358
G1 X94.199 Y187.947 E.02333
G1 X93.174 Y187.065 E.04015
G1 X92.589 Y186.114 E.03315
G1 X92.33 Y185.052 E.03246
G1 X92.33 Y148.99 E1.07073
G1 X92.48 Y148.21 E.02358
G1 X92.795 Y147.49 E.02333
G1 X93.677 Y146.465 E.04015
G1 X94.627 Y145.88 E.03313
G1 X95.69 Y145.622 E.03248
G1 X110.708 Y145.623 E.4459
G1 X110.708 Y145.98 F7800
G1 F1800
G1 X141.731 Y145.983 E.92111
G1 X142.501 Y146.203 E.02378
G1 X143.148 Y146.556 E.02188
G1 X143.983 Y147.392 E.03508
G1 X147.436 Y153.429 E.2065
G1 X150.979 Y159.565 E.21038
G1 X154.482 Y165.576 E.20657
G1 X154.789 Y166.746 E.03591
G1 X154.74 Y167.65 E.02688
G1 X154.477 Y168.465 E.02543
G1 X150.98 Y174.467 E.20625
G1 X147.436 Y180.606 E.21047
G1 X143.993 Y186.624 E.20586
G1 X143.437 Y187.251 E.02488
G1 X142.509 Y187.826 E.03241
G1 X141.485 Y188.082 E.03134
G1 X135.124 Y188.054 E.18887
G1 X95.716 Y188.054 E1.17007
G1 X95.044 Y187.927 E.02031
G1 X94.368 Y187.631 E.02191
G1 X93.43 Y186.815 E.03691
G1 X92.909 Y185.954 E.02988
G1 X92.687 Y185.031 E.02819
G1 X92.687 Y149.007 E1.0696
G1 X92.815 Y148.335 E.02031
G1 X93.111 Y147.659 E.02191
G1 X93.927 Y146.721 E.03691
G1 X94.788 Y146.201 E.02986
G1 X95.711 Y145.979 E.02819
G1 X110.618 Y145.98 E.44261
G1 X110.618 Y146.337 F7800
G1 F1800
G1 X141.705 Y146.34 E.92301
G1 X142.38 Y146.539 E.02089
G1 X142.953 Y146.856 E.01944
G1 X143.685 Y147.59 E.03078
G1 X147.127 Y153.607 E.20582
G1 X150.67 Y159.744 E.2104
G1 X154.161 Y165.735 E.20588
G1 X154.431 Y166.757 E.03139
G1 X154.392 Y167.565 E.02402
G1 X154.158 Y168.303 E.02299
G1 X150.671 Y174.288 E.20566
G1 X147.126 Y180.428 E.21051
G1 X143.692 Y186.43 E.20531
G1 X143.188 Y186.994 E.02246
G1 X142.394 Y187.488 E.02777
G1 X141.463 Y187.725 E.02852
G1 X135.125 Y187.697 E.18819
G1 X95.733 Y187.697 E1.1696
G1 X95.133 Y187.58 E.01815
G1 X94.538 Y187.316 E.01933
G1 X93.688 Y186.566 E.03366
G1 X93.231 Y185.796 E.02659
G1 X93.045 Y185.011 E.02395
G1 X93.045 Y149.024 E1.0685
G1 X93.161 Y148.424 E.01814
G1 X93.426 Y147.83 E.01931
G1 X94.175 Y146.979 E.03366
G1 X94.946 Y146.522 E.02661
G1 X95.731 Y146.336 E.02395
G1 X110.528 Y146.337 E.43934
G1 X110.528 Y146.694 F7800
G1 F1800
G1 X141.677 Y146.697 E.92485
G1 X142.256 Y146.874 E.01798
G1 X142.757 Y147.155 E.01706
G1 X143.387 Y147.787 E.0265
G1 X146.817 Y153.785 E.20515
G1 X150.362 Y159.924 E.21048
G1 X153.841 Y165.894 E.20516
G1 X154.074 Y166.77 E.02691
G1 X154.044 Y167.482 E.02116
G1 X153.839 Y168.141 E.02049
G1 X150.362 Y174.109 E.20508
G1 X146.816 Y180.25 E.21055
G1 X143.392 Y186.236 E.20475
G1 X142.941 Y186.734 E.01995
G1 X142.231 Y187.169 E.02472
G1 X141.442 Y187.368 E.02416
G1 X135.126 Y187.34 E.18753
G1 X95.751 Y187.34 E1.16909
G1 X95.224 Y187.235 E.01595
G1 X94.711 Y187.003 E.01672
G1 X93.948 Y186.32 E.03041
G1 X93.553 Y185.641 E.02332
G1 X93.402 Y184.991 E.01981
G1 X93.402 Y149.042 E1.06737
G1 X93.507 Y148.515 E.01595
G1 X93.739 Y148.003 E.01669
G1 X94.422 Y147.239 E.03043
G1 X95.101 Y146.844 E.02332
G1 X95.751 Y146.693 E.01981
G1 X110.438 Y146.694 E.43608
G1 X110.438 Y147.051 F7800
G1 F1800
G1 X141.648 Y147.054 E.92667
G1 X142.127 Y147.208 E.01494
G1 X142.559 Y147.453 E.01475
G1 X143.088 Y147.985 E.02228
G1 X146.507 Y153.962 E.20445
G1 X150.053 Y160.103 E.21055
G1 X153.52 Y166.054 E.20449
G1 X153.716 Y166.785 E.02247
G1 X153.696 Y167.402 E.01833
G1 X153.52 Y167.98 E.01794
G1 X150.053 Y173.93 E.20447
G1 X146.507 Y180.072 E.21057
G1 X143.092 Y186.041 E.20418
G1 X142.695 Y186.474 E.01744
G1 X142.115 Y186.83 E.02021
G1 X141.42 Y187.011 E.02132
G1 X135.126 Y186.983 E.18688
G1 X95.77 Y186.983 E1.16853
G1 X95.317 Y186.889 E.01374
G1 X94.887 Y186.691 E.01406
G1 X94.21 Y186.076 E.02716
G1 X93.877 Y185.489 E.02004
G1 X93.759 Y184.971 E.01577
G1 X93.759 Y149.061 E1.06621
G1 X93.852 Y148.609 E.0137
G1 X94.051 Y148.178 E.0141
G1 X94.666 Y147.501 E.02716
G1 X95.253 Y147.168 E.02004
G1 X95.771 Y147.05 E.01577
G1 X110.348 Y147.051 E.43281
G1 X110.348 Y147.408 F7800
G1 F1800
G1 X141.617 Y147.411 E.92842
G1 X141.993 Y147.539 E.01179
G1 X142.359 Y147.751 E.01256
G1 X142.79 Y148.183 E.01812
G1 X146.198 Y154.14 E.20377
G1 X149.744 Y160.282 E.21057
G1 X153.2 Y166.213 E.20381
G1 X153.359 Y166.803 E.01814
G1 X153.346 Y167.325 E.0155
G1 X153.2 Y167.819 E.01529
G1 X149.744 Y173.75 E.20381
G1 X146.197 Y179.894 E.21064
G1 X142.793 Y185.845 E.20356
G1 X142.452 Y186.212 E.01487
G1 X141.954 Y186.51 E.01723
G1 X141.399 Y186.654 E.01702
G1 X135.127 Y186.626 E.18623
G1 X95.79 Y186.626 E1.16797
G1 X95.414 Y186.545 E.01142
G1 X95.065 Y186.38 E.01146
G1 X94.475 Y185.835 E.02385
G1 X94.203 Y185.34 E.01677
G1 X94.116 Y184.952 E.01181
G1 X94.116 Y149.081 E1.06506
G1 X94.197 Y148.705 E.01142
G1 X94.361 Y148.357 E.01142
G1 X94.907 Y147.766 E.02389
G1 X95.402 Y147.494 E.01677
G1 X95.79 Y147.407 E.01181
G1 X110.258 Y147.408 E.42957
G1 X110.258 Y147.762 F7800
G1 F1800
G1 X141.533 Y147.759 E.9286
G1 X141.831 Y147.858 E.00932
G1 X142.16 Y148.048 E.01128
G1 X142.492 Y148.381 E.01396
G1 X145.888 Y154.318 E.20308
G1 X149.435 Y160.462 E.21064
G1 X152.879 Y166.372 E.2031
G1 X153.001 Y166.824 E.0139
G1 X152.996 Y167.252 E.01271
G1 X152.88 Y167.66 E.01259
G1 X149.435 Y173.571 E.20314
G1 X145.888 Y179.716 E.21067
G1 X142.493 Y185.651 E.20301
G1 X142.243 Y185.922 E.01095
G1 X141.835 Y186.173 E.01422
G1 X141.376 Y186.296 E.01411
G1 X135.128 Y186.269 E.18551
G1 X95.808 Y186.269 E1.16746
G1 X95.548 Y186.213 E.0079
G1 X95.244 Y186.07 E.00997
G1 X94.742 Y185.597 E.02048
G1 X94.53 Y185.196 E.01347
G1 X94.473 Y184.933 E.00799
G1 X94.473 Y149.1 E1.06393
G1 X94.528 Y148.839 E.00792
G1 X94.672 Y148.536 E.00996
G1 X95.145 Y148.034 E.02048
G1 X95.546 Y147.821 E.01348
G1 X95.809 Y147.764 E.00799
G1 X110.168 Y147.762 E.42634
G1 X110.168 Y148.117 F7800
G1 F1800
G1 X141.451 Y148.107 E.92883
G1 X141.67 Y148.177 E.00683
G1 X141.962 Y148.345 E.01
G1 X142.194 Y148.578 E.00976
G1 X145.579 Y154.496 E.20243
G1 X149.126 Y160.641 E.21067
G1 X152.559 Y166.532 E.20244
G1 X152.645 Y166.849 E.00975
G1 X152.645 Y167.184 E.00995
G1 X152.559 Y167.501 E.00975
G1 X149.127 Y173.392 E.20243
G1 X145.578 Y179.538 E.21072
G1 X142.194 Y185.454 E.20236
G1 X142.002 Y185.657 E.0083
G1 X141.674 Y185.853 E.01135
G1 X141.354 Y185.939 E.00984
G1 X135.129 Y185.912 E.18483
G1 X95.827 Y185.912 E1.16693
G1 X95.681 Y185.881 E.00443
G1 X95.424 Y185.76 E.00843
G1 X95.014 Y185.363 E.01695
G1 X94.86 Y185.058 E.01014
G1 X94.83 Y184.915 E.00434
G1 X94.83 Y149.118 E1.06286
G1 X94.86 Y148.972 E.00443
G1 X94.982 Y148.716 E.00842
G1 X95.379 Y148.305 E.01697
G1 X95.683 Y148.151 E.01012
G1 X95.827 Y148.121 E.00437
G1 X110.078 Y148.117 E.42313
G1 X110.078 Y148.478 F7800
G1 F1800
G1 X135.13 Y148.478 E.74383
G1 X141.375 Y148.457 E.18542
G1 X141.511 Y148.498 E.00422
G1 X141.763 Y148.643 E.00863
G1 X141.895 Y148.776 E.00556
G1 X145.269 Y154.674 E.20175
G1 X148.818 Y160.82 E.21072
G1 X152.239 Y166.691 E.20175
G1 X152.288 Y166.873 E.0056
G1 X152.288 Y167.16 E.00852
G1 X152.239 Y167.342 E.0056
G1 X148.818 Y173.213 E.20175
G1 X145.269 Y179.359 E.21072
G1 X141.894 Y185.259 E.20181
G1 X141.796 Y185.364 E.00426
G1 X141.512 Y185.534 E.00983
G1 X141.332 Y185.582 E.00553
G1 X135.13 Y185.555 E.18415
G1 X95.843 Y185.555 E1.16648
G1 X95.606 Y185.451 E.00768
G1 X95.291 Y185.136 E.01323
G1 X95.187 Y184.899 E.00768
G1 X95.193 Y149.104 E1.0628
G1 X95.291 Y148.897 E.0068
G1 X95.606 Y148.582 E.01323
G1 X95.843 Y148.478 E.00768
G1 X109.988 Y148.478 E.41998
G1 X109.988 Y148.835 F7800
G1 F1800
G1 X135.131 Y148.835 E.74653
G1 X141.31 Y148.808 E.18346
G1 X141.597 Y148.974 E.00984
G1 X144.959 Y154.852 E.20106
G1 X148.509 Y161 E.21079
G1 X151.918 Y166.851 E.20106
G1 X151.931 Y167.137 E.0085
G1 X148.509 Y173.033 E.20241
G1 X141.564 Y185.093 E.41321
G1 X141.31 Y185.225 E.0085
G1 X135.131 Y185.198 E.18346
G1 X95.896 Y185.198 E1.16494
G1 X95.831 Y185.171 E.00209
G1 X95.571 Y184.911 E.01092
G1 X95.544 Y184.846 E.00209
G1 X95.544 Y149.187 E1.05876
G1 X95.571 Y149.122 E.00209
G1 X95.831 Y148.862 E.01092
G1 X95.896 Y148.835 E.00209
G1 X109.898 Y148.835 E.41574
G1 X109.898 Y149.192 F7800
G1 F1800
G1 X135.132 Y149.192 E.74923
G1 X141.239 Y149.166 E.18133
G1 X141.323 Y149.214 E.00287
G1 X144.65 Y155.03 E.19894
G1 X148.2 Y161.179 E.21081
G1 X151.573 Y166.968 E.19893
G1 X151.573 Y167.065 E.00288
G1 X148.2 Y172.854 E.19893
G1 X144.65 Y179.003 E.21081
G1 X141.323 Y184.819 E.19894
G1 X141.239 Y184.867 E.00287
G1 X135.132 Y184.841 E.18133
G1 X96.006 Y184.841 E1.1617
G1 X95.901 Y184.736 E.00441
G1 X95.901 Y149.297 E1.05223
G1 X96.006 Y149.192 E.00441
G1 X109.808 Y149.192 E.4098
G1 E-3.25 F10020
G1 X166.294 Y164.843 F7800
G1 E3.25 F2400
G1 F1800
G1 X166.763 Y163.496 E.04235
G1 X176.659 Y146.361 E.58751
G1 X177.572 Y145.29 E.04179
G1 X178.738 Y144.481 E.04214
G1 X180.869 Y143.914 E.06547
G1 X200.734 Y143.914 E.58982
G1 X202.852 Y144.487 E.06515
G1 X203.976 Y145.262 E.04054
G1 X204.883 Y146.308 E.04111
G1 X214.837 Y163.533 E.59069
G1 X215.394 Y165.616 E.06402
G1 X215.286 Y167.041 E.04243
G1 X214.816 Y168.388 E.04236
G1 X204.92 Y185.523 E.58751
G1 X204.007 Y186.594 E.04179
G1 X202.841 Y187.403 E.04214
G1 X200.71 Y187.97 E.06547
G1 X180.869 Y187.97 E.5891
G1 X178.738 Y187.403 E.06547
G1 X177.572 Y186.594 E.04214
G1 X176.659 Y185.523 E.04179
G1 X166.742 Y168.351 E.58878
G1 X166.185 Y166.268 E.06402
G1 X166.287 Y164.933 E.03975
G1 X166.637 Y164.958 F7800
G1 F1800
G1 X167.081 Y163.66 E.04073
G1 X176.96 Y146.554 E.58651
G1 X177.828 Y145.54 E.03963
G1 X178.915 Y144.793 E.03916
G1 X180.892 Y144.271 E.06071
G1 X200.711 Y144.271 E.58845
G1 X202.675 Y144.799 E.06038
G1 X203.754 Y145.543 E.03891
G1 X204.601 Y146.528 E.03857
G1 X214.517 Y163.692 E.58855
G1 X215.036 Y165.621 E.05931
G1 X214.94 Y166.947 E.03947
G1 X214.498 Y168.224 E.04012
G1 X204.619 Y185.33 E.58651
G1 X203.751 Y186.344 E.03963
G1 X202.664 Y187.091 E.03916
G1 X200.688 Y187.613 E.06068
G1 X180.892 Y187.613 E.58777
G1 X178.915 Y187.091 E.06071
G1 X177.828 Y186.344 E.03916
G1 X176.96 Y185.33 E.03963
G1 X167.063 Y168.192 E.5876
G1 X166.544 Y166.263 E.05931
G1 X166.631 Y165.048 E.03617
G1 X166.987 Y165.073 F7800
G1 F1800
