; generated by F3Slic3r 2.6.0-alpha4 on 2025-03-05 at 21:35:02 UTC

; 

; external perimeters extrusion width = 0.68mm
; perimeters extrusion width = 0.68mm
; infill extrusion width = 0.68mm
; solid infill extrusion width = 0.68mm
; top infill extrusion width = 0.60mm
; first layer extrusion width = 0.40mm

; external perimeters extrusion width = 0.68mm
; perimeters extrusion width = 0.68mm
; infill extrusion width = 0.68mm
; solid infill extrusion width = 0.68mm
; top infill extrusion width = 0.60mm
; first layer extrusion width = 0.40mm

M107
;TYPE:Custom
; Fusion3 F410 F3Slic3r start script
; Rev 2023.01.16
M104 S0 
G21  
G90  
T0  
G92 E0.0  
M220 S100 
M140 S60  
G32 
M190 S60  
M109 S220  
; === pause for heating ===
; reset filament monitor
M42 P63 S0
G4 P100
G4 P50
M42 P63 S1
;
G1 Z10.0 F2000  ; move up
G1 E30.0 F500  ; prime extruder
G1 X20 Y15 F9000  ; move back
G1 Z0 F1000  ; move down to begin wipe
G1 X150 E4.0 F10000  ; wipe print head (extrude material while we do this)
G92 E0.0  ; reset e count
G21 ; set units to millimeters
G90 ; use absolute coordinates
M83 ; use relative distances for extrusion
; Filament gcode
M107
;LAYER_CHANGE
;Z:0.2
;HEIGHT:0.2
G1 Z.2 F7800
G1 E-3.25 F10020
G1 X87.726 Y156.136 F7800
G1 E3.25 F2400
;TYPE:Skirt/Brim
;WIDTH:0.4
G1 F1800
G1 X136.286 Y128.852 E1.65381
G1 X139.464 Y128.037 E.09741
G1 X245.2 Y129.102 E3.1396
G1 X247.407 Y129.521 E.0667
G1 X249.677 Y131.009 E.08059
G1 X252.576 Y133.967 E.12297
G1 X253.84 Y135.824 E.0667
G1 X254.392 Y138.481 E.08057
G1 X253.584 Y218.819 E2.38546
G1 X253.164 Y221.026 E.0667
G1 X251.676 Y223.295 E.08056
G1 X248.718 Y226.195 E.12299
G1 X247.347 Y227.217 E.05077
G1 X179.447 Y264.797 E2.30422
G1 X176.369 Y265.592 E.09439
G1 X70.627 Y265.592 E3.13962
G1 X68.416 Y265.195 E.0667
G1 X66.132 Y263.73 E.08057
G1 X63.203 Y260.801 E.12299
G1 X61.92 Y258.957 E.0667
G1 X61.341 Y256.306 E.08057
G1 X61.341 Y175.963 E2.38549
G1 X61.738 Y173.753 E.06667
G1 X63.203 Y171.468 E.08059
G1 X66.132 Y168.539 E.12299
G1 X67.513 Y167.492 E.05146
G1 X87.647 Y156.18 E.68569
G1 E-3.25 F10020
G1 X87.643 Y173.217 F7800
G1 E3.25 F2400
G1 F1800
G1 X123.887 Y173.225 E1.07613
G1 X125.215 Y173.528 E.04044
G1 X126.401 Y174.171 E.04006
G1 X177.669 Y218.778 E2.01774
G1 X178.268 Y219.462 E.027
G1 X179.118 Y221.769 E.073
G1 X179.118 Y254.74 E.97895
G1 X178.817 Y255.989 E.03815
G1 X178.441 Y256.776 E.0259
G1 X176.717 Y258.452 E.07139
G1 X175.759 Y258.863 E.03095
G1 X174.73 Y259.055 E.03108
G1 X72.192 Y259.055 E3.04449
G1 X70.944 Y258.754 E.03812
G1 X70.156 Y258.377 E.02594
G1 X68.48 Y256.654 E.07137
G1 X68.07 Y255.695 E.03097
G1 X67.877 Y254.667 E.03106
G1 X67.877 Y177.529 E2.29033
G1 X68.179 Y176.281 E.03812
G1 X68.555 Y175.493 E.02592
G1 X70.278 Y173.817 E.07137
G1 X71.237 Y173.406 E.03098
G1 X72.267 Y173.214 E.03111
G1 X87.553 Y173.217 E.45386
G1 X87.553 Y173.574 F7800
G1 F1800
G1 X123.867 Y173.583 E1.07821
G1 X125.067 Y173.854 E.03653
G1 X126.182 Y174.453 E.03758
G1 X177.426 Y219.039 E2.01679
G1 X177.977 Y219.672 E.02492
G1 X178.761 Y221.8 E.06733
G1 X178.761 Y254.718 E.97738
G1 X178.475 Y255.885 E.03568
G1 X178.133 Y256.592 E.02332
G1 X176.545 Y258.138 E.0658
G1 X175.672 Y258.516 E.02825
G1 X174.713 Y258.698 E.02898
G1 X72.214 Y258.698 E3.04333
G1 X71.048 Y258.412 E.03565
G1 X70.34 Y258.07 E.02335
G1 X68.795 Y256.482 E.06578
G1 X68.416 Y255.609 E.02826
G1 X68.234 Y254.65 E.02898
G1 X68.234 Y177.551 E2.28917
G1 X68.521 Y176.385 E.03565
G1 X68.863 Y175.677 E.02335
G1 X70.45 Y174.131 E.06578
G1 X71.324 Y173.753 E.02827
G1 X72.283 Y173.571 E.02898
G1 X87.463 Y173.574 E.45071
G1 X87.463 Y173.931 F7800
G1 F1800
G1 X123.847 Y173.94 E1.08029
G1 X124.963 Y174.196 E.034
G1 X125.962 Y174.736 E.03372
G1 X177.182 Y219.301 E2.01585
G1 X177.686 Y219.881 E.02281
G1 X178.404 Y221.832 E.06173
G1 X178.404 Y254.696 E.97577
G1 X178.133 Y255.779 E.03315
G1 X177.826 Y256.408 E.02078
G1 X176.373 Y257.823 E.06022
G1 X175.548 Y258.18 E.02669
G1 X174.696 Y258.341 E.02574
G1 X72.236 Y258.341 E3.04217
G1 X71.153 Y258.07 E.03315
G1 X70.525 Y257.763 E.02075
G1 X69.109 Y256.31 E.06024
G1 X68.752 Y255.485 E.02669
G1 X68.591 Y254.633 E.02574
G1 X68.591 Y177.573 E2.28801
G1 X68.862 Y176.49 E.03315
G1 X69.17 Y175.861 E.02079
G1 X70.622 Y174.446 E.0602
G1 X71.447 Y174.089 E.02669
G1 X72.3 Y173.928 E.02577
G1 X87.373 Y173.931 E.44754
G1 X87.373 Y174.289 F7800
G1 F1800
G1 X123.827 Y174.297 E1.08237
G1 X124.816 Y174.522 E.03012
G1 X125.743 Y175.018 E.03122
G1 X176.938 Y219.561 E2.01486
G1 X177.395 Y220.09 E.02076
G1 X178.047 Y221.863 E.05609
G1 X178.047 Y254.673 E.97417
G1 X177.792 Y255.672 E.03061
G1 X177.52 Y256.222 E.01822
G1 X176.2 Y257.509 E.05474
G1 X175.461 Y257.834 E.02397
G1 X174.679 Y257.984 E.02364
G1 X72.259 Y257.984 E3.04098
G1 X71.261 Y257.729 E.03058
G1 X70.711 Y257.456 E.01823
G1 X69.423 Y256.137 E.05474
G1 X69.099 Y255.397 E.02399
G1 X68.948 Y254.616 E.02362
G1 X68.948 Y177.596 E2.28682
G1 X69.203 Y176.598 E.03058
G1 X69.476 Y176.047 E.01826
G1 X70.796 Y174.76 E.05474
G1 X71.535 Y174.435 E.02397
G1 X72.317 Y174.285 E.02364
G1 X87.283 Y174.289 E.44436
G1 X87.283 Y174.646 F7800
G1 F1800
G1 X123.807 Y174.654 E1.08444
G1 X124.671 Y174.849 E.0263
G1 X125.525 Y175.301 E.02869
G1 X176.693 Y219.822 E2.01382
G1 X177.103 Y220.299 E.01868
G1 X177.69 Y221.895 E.05049
G1 X177.69 Y254.65 E.97254
G1 X177.452 Y255.562 E.02799
G1 X177.214 Y256.035 E.01572
G1 X176.025 Y257.196 E.04934
G1 X175.371 Y257.487 E.02125
G1 X174.661 Y257.627 E.02149
G1 X72.283 Y257.627 E3.03974
G1 X71.37 Y257.389 E.02801
G1 X70.898 Y257.151 E.0157
G1 X69.736 Y255.962 E.04936
G1 X69.445 Y255.308 E.02125
G1 X69.306 Y254.598 E.02148
G1 X69.306 Y177.619 E2.28561
G1 X69.544 Y176.707 E.02799
G1 X69.781 Y176.235 E.01568
G1 X70.97 Y175.073 E.04936
G1 X71.625 Y174.782 E.02128
G1 X72.335 Y174.642 E.02149
G1 X87.193 Y174.646 E.44115
G1 X87.193 Y175.003 F7800
G1 F1800
G1 X123.787 Y175.011 E1.08652
G1 X124.526 Y175.176 E.02248
G1 X125.306 Y175.585 E.02615
G1 X176.449 Y220.083 E2.01282
G1 X176.811 Y220.506 E.01653
G1 X177.333 Y221.926 E.04492
G1 X177.333 Y254.626 E.97091
G1 X177.112 Y255.45 E.02533
G1 X176.91 Y255.846 E.0132
G1 X175.851 Y256.883 E.04401
G1 X175.245 Y257.153 E.0197
G1 X174.644 Y257.27 E.01818
G1 X72.306 Y257.27 E3.03855
G1 X71.482 Y257.049 E.02533
G1 X71.086 Y256.847 E.0132
G1 X70.049 Y255.788 E.04401
G1 X69.78 Y255.181 E.01971
G1 X69.663 Y254.581 E.01815
G1 X69.663 Y177.643 E2.28439
G1 X69.883 Y176.819 E.02532
G1 X70.086 Y176.423 E.01321
G1 X71.145 Y175.386 E.04401
G1 X71.751 Y175.116 E.0197
G1 X72.352 Y174.999 E.01818
G1 X87.103 Y175.003 E.43798
G1 X87.103 Y175.36 F7800
G1 F1800
G1 X123.768 Y175.368 E1.08863
G1 X124.384 Y175.505 E.01874
G1 X125.088 Y175.869 E.02353
G1 X176.204 Y220.343 E2.01174
G1 X176.518 Y220.713 E.01441
G1 X176.976 Y221.958 E.03939
G1 X176.976 Y254.601 E.96921
G1 X176.773 Y255.336 E.02264
G1 X176.607 Y255.656 E.0107
G1 X175.674 Y256.571 E.0388
G1 X175.154 Y256.807 E.01696
G1 X174.626 Y256.913 E.01599
G1 X72.331 Y256.913 E3.03727
G1 X71.596 Y256.71 E.02264
G1 X71.277 Y256.544 E.01068
G1 X70.361 Y255.611 E.03882
G1 X70.125 Y255.09 E.01698
G1 X70.02 Y254.563 E.01595
G1 X70.02 Y177.668 E2.28311
G1 X70.222 Y176.933 E.02263
G1 X70.389 Y176.614 E.01069
G1 X71.321 Y175.698 E.0388
G1 X71.842 Y175.462 E.01698
G1 X72.37 Y175.356 E.01599
G1 X87.013 Y175.36 E.43477
G1 X87.013 Y175.717 F7800
G1 F1800
G1 X123.749 Y175.725 E1.09074
G1 X124.243 Y175.833 E.01501
G1 X124.871 Y176.153 E.02093
G1 X175.959 Y220.603 E2.01065
G1 X176.225 Y220.919 E.01226
G1 X176.619 Y221.99 E.03388
G1 X176.619 Y254.576 E.96752
G1 X176.436 Y255.218 E.01982
G1 X176.305 Y255.463 E.00825
G1 X175.496 Y256.261 E.03374
G1 X175.06 Y256.462 E.01425
G1 X174.607 Y256.556 E.01374
G1 X72.357 Y256.556 E3.03593
G1 X71.714 Y256.373 E.01985
G1 X71.469 Y256.242 E.00825
G1 X70.672 Y255.433 E.03372
G1 X70.471 Y254.997 E.01425
G1 X70.377 Y254.544 E.01374
G1 X70.377 Y177.693 E2.28181
G1 X70.56 Y177.051 E.01982
G1 X70.691 Y176.806 E.00825
G1 X71.5 Y176.009 E.03372
G1 X71.936 Y175.807 E.01427
G1 X72.389 Y175.714 E.01373
G1 X86.923 Y175.717 E.43153
G1 X86.923 Y176.074 F7800
G1 F1800
G1 X123.73 Y176.082 E1.09285
G1 X124.104 Y176.163 E.01136
G1 X124.654 Y176.437 E.01824
G1 X175.714 Y220.863 E2.00955
G1 X175.931 Y221.124 E.01008
G1 X176.262 Y222.021 E.02839
G1 X176.262 Y254.549 E.9658
G1 X176.1 Y255.097 E.01697
G1 X176.005 Y255.268 E.00581
G1 X175.315 Y255.951 E.02883
G1 X174.963 Y256.118 E.01157
G1 X174.588 Y256.199 E.01139
G1 X72.383 Y256.199 E3.0346
G1 X71.836 Y256.036 E.01695
G1 X71.665 Y255.942 E.00579
G1 X70.981 Y255.252 E.02885
G1 X70.815 Y254.9 E.01156
G1 X70.734 Y254.524 E.01142
G1 X70.734 Y177.72 E2.28041
G1 X70.896 Y177.173 E.01694
G1 X70.99 Y177.002 E.00579
G1 X71.68 Y176.318 E.02885
G1 X72.032 Y176.152 E.01156
G1 X72.408 Y176.071 E.01142
G1 X86.833 Y176.074 E.4283
G1 X86.833 Y176.431 F7800
G1 F1800
G1 X123.711 Y176.439 E1.09496
G1 X123.968 Y176.494 E.0078
G1 X124.438 Y176.723 E.01552
G1 X175.468 Y221.122 E2.00835
G1 X175.636 Y221.327 E.00787
G1 X175.905 Y222.053 E.02299
G1 X175.905 Y254.521 E.96402
G1 X175.766 Y254.969 E.01393
G1 X175.709 Y255.068 E.00339
G1 X175.135 Y255.642 E.0241
G1 X174.83 Y255.786 E.01001
G1 X174.569 Y255.841 E.00792
G1 X72.412 Y255.841 E3.03317
G1 X71.963 Y255.702 E.01396
G1 X71.864 Y255.645 E.00339
G1 X71.291 Y255.071 E.02408
G1 X71.147 Y254.766 E.01001
G1 X71.091 Y254.506 E.0079
G1 X71.091 Y177.748 E2.27904
G1 X71.23 Y177.3 E.01393
G1 X71.287 Y177.201 E.00339
G1 X71.861 Y176.627 E.0241
G1 X72.166 Y176.483 E.01001
G1 X72.427 Y176.428 E.00792
G1 X86.743 Y176.431 E.42506
G1 X86.743 Y176.788 F7800
G1 F1800
G1 X123.693 Y176.796 E1.09709
G1 X123.836 Y176.826 E.00434
G1 X124.223 Y177.009 E.01271
G1 X175.221 Y221.381 E2.00711
G1 X175.34 Y221.529 E.00564
G1 X175.548 Y222.085 E.01763
G1 X175.548 Y254.491 E.96218
G1 X175.417 Y254.862 E.01168
G1 X174.953 Y255.333 E.01963
G1 X174.696 Y255.454 E.00843
G1 X174.551 Y255.484 E.0044
G1 X72.442 Y255.484 E3.03175
G1 X72.07 Y255.354 E.0117
G1 X71.6 Y254.89 E.01961
G1 X71.479 Y254.633 E.00843
G1 X71.448 Y254.488 E.0044
G1 X71.448 Y177.778 E2.27762
G1 X71.579 Y177.407 E.01168
G1 X72.043 Y176.937 E.01961
G1 X72.299 Y176.815 E.00842
G1 X72.445 Y176.785 E.00443
G1 X86.653 Y176.788 E.42185
G1 X86.652 Y177.145 F7800
G1 F1800
G1 X123.676 Y177.153 E1.09929
G1 X124.009 Y177.296 E.01076
G1 X174.973 Y221.639 E2.00579
G1 X175.043 Y221.728 E.00336
G1 X175.19 Y222.118 E.01237
G1 X175.19 Y254.458 E.96022
G1 X175.119 Y254.658 E.0063
G1 X174.769 Y255.024 E.01504
G1 X174.534 Y255.127 E.00762
G1 X72.475 Y255.127 E3.03026
G1 X72.274 Y255.055 E.00634
G1 X71.908 Y254.706 E.01502
G1 X71.805 Y254.471 E.00762
G1 X71.805 Y177.811 E2.27613
G1 X71.877 Y177.611 E.00631
G1 X72.226 Y177.245 E.01502
G1 X72.461 Y177.142 E.00762
G1 X86.562 Y177.145 E.41868
G1 X86.562 Y177.502 F7800
G1 F1800
G1 X123.621 Y177.51 E1.10033
G1 X123.798 Y177.586 E.00572
G1 X174.722 Y221.894 E2.00421
G1 X174.833 Y222.153 E.00837
G1 X174.833 Y254.418 E.95799
G1 X174.806 Y254.484 E.00212
G1 X174.547 Y254.743 E.01088
G1 X174.481 Y254.77 E.00212
G1 X72.514 Y254.77 E3.02753
G1 X72.449 Y254.743 E.00209
G1 X72.189 Y254.484 E.0109
G1 X72.162 Y254.418 E.00212
G1 X72.162 Y177.851 E2.27337
G1 X72.189 Y177.786 E.00209
G1 X72.449 Y177.526 E.01092
G1 X72.514 Y177.499 E.00209
G1 X86.472 Y177.502 E.41443
G1 X86.472 Y177.856 F7800
G1 F1800
G1 X123.53 Y177.856 E1.1003
G1 X123.591 Y177.879 E.00194
G1 X174.444 Y222.125 E2.00141
G1 X174.476 Y222.196 E.00231
G1 X174.476 Y254.309 E.95348
G1 X174.372 Y254.413 E.00437
G1 X72.624 Y254.413 E3.02103
G1 X72.519 Y254.309 E.00439
G1 X72.519 Y177.961 E2.26687
G1 X72.624 Y177.856 E.00441
G1 X86.382 Y177.856 E.40849
G1 E-3.25 F10020
G1 X136.275 Y171.651 F7800
G1 E3.25 F2400
G1 F1800
G1 X136.605 Y138.862 E.9736
G1 X136.928 Y137.58 E.03925
G1 X137.596 Y136.447 E.03905
G1 X138.585 Y135.484 E.04099
G1 X139.793 Y134.843 E.0406
G1 X141.039 Y134.59 E.03775
G1 X241.617 Y135.603 E2.98644
G1 X243.886 Y135.671 E.0674
G1 X244.867 Y135.952 E.0303
G1 X245.767 Y136.443 E.03044
G1 X247.076 Y137.785 E.05566
G1 X247.604 Y138.861 E.03559
G1 X247.84 Y140.04 E.0357
G1 X247.063 Y217.187 E2.29071
G1 X246.74 Y218.468 E.03922
G1 X246.072 Y219.602 E.03908
G1 X245.083 Y220.564 E.04097
G1 X243.875 Y221.206 E.04062
G1 X242.629 Y221.459 E.03775
G1 X191.031 Y220.939 E1.53209
G1 X189.317 Y220.454 E.05289
G1 X188.517 Y219.949 E.02809
G1 X137.554 Y174.713 E2.02327
G1 X136.48 Y172.823 E.06454
G1 X136.29 Y171.74 E.03265
G1 X136.639 Y171.681 F7800
G1 F1800
G1 X136.962 Y138.887 E.97374
G1 X137.267 Y137.695 E.03653
G1 X137.89 Y136.651 E.0361
G1 X138.814 Y135.76 E.03811
G1 X139.936 Y135.171 E.03762
G1 X141.053 Y134.947 E.03383
G1 X241.612 Y135.96 E2.98588
G1 X243.809 Y136.021 E.06526
G1 X244.749 Y136.289 E.02902
G1 X245.572 Y136.743 E.02791
G1 X246.769 Y137.97 E.0509
G1 X247.259 Y138.955 E.03266
G1 X247.483 Y140.056 E.03336
G1 X246.706 Y217.162 E2.28949
G1 X246.401 Y218.354 E.03653
G1 X245.778 Y219.398 E.0361
G1 X244.854 Y220.289 E.03811
G1 X243.732 Y220.878 E.03762
G1 X242.615 Y221.101 E.03382
G1 X191.059 Y220.582 E1.53084
G1 X189.441 Y220.118 E.04998
G1 X188.744 Y219.673 E.02455
G1 X137.813 Y174.466 E2.02198
G1 X136.807 Y172.676 E.06097
G1 X136.654 Y171.77 E.02728
G1 X137.004 Y171.71 F7800
G1 F1800
G1 X136.989 Y171.627 E.0025
G1 X137.319 Y138.913 E.97137
G1 X137.606 Y137.81 E.03384
G1 X138.183 Y136.856 E.0331
G1 X139.041 Y136.036 E.03524
G1 X140.077 Y135.5 E.03463
G1 X141.068 Y135.305 E.02999
G1 X241.607 Y136.317 E2.98528
G1 X243.735 Y136.371 E.0632
G1 X244.595 Y136.612 E.02652
G1 X245.376 Y137.043 E.02649
G1 X246.462 Y138.154 E.04613
G1 X246.929 Y139.093 E.03114
G1 X247.125 Y140.07 E.02959
G1 X246.349 Y217.136 E2.28831
G1 X246.063 Y218.238 E.0338
G1 X245.485 Y219.192 E.03312
G1 X244.627 Y220.013 E.03526
G1 X243.591 Y220.549 E.03463
G1 X242.6 Y220.744 E.02999
G1 X191.087 Y220.225 E1.52957
G1 X189.61 Y219.803 E.04561
G1 X188.97 Y219.397 E.0225
G1 X138.072 Y174.218 E2.0207
G1 X137.154 Y172.585 E.05562
G1 X137.019 Y171.798 E.02371
G1 X137.367 Y171.741 F7800
G1 F1800
G1 X137.347 Y171.616 E.00376
G1 X137.676 Y138.939 E.97027
G1 X137.944 Y137.928 E.03105
G1 X138.474 Y137.064 E.0301
G1 X139.267 Y136.313 E.03243
G1 X140.216 Y135.83 E.03162
G1 X141.082 Y135.662 E.02619
G1 X241.603 Y136.674 E2.98475
G1 X243.66 Y136.721 E.06109
G1 X244.478 Y136.95 E.02522
G1 X245.18 Y137.342 E.02387
G1 X246.156 Y138.34 E.04145
G1 X246.584 Y139.189 E.02823
G1 X246.768 Y140.086 E.02719
G1 X245.993 Y217.11 E2.28706
G1 X245.724 Y218.121 E.03106
G1 X245.194 Y218.985 E.0301
G1 X244.401 Y219.735 E.03241
G1 X243.452 Y220.219 E.03163
G1 X242.586 Y220.387 E.02619
G1 X191.114 Y219.869 E1.52835
G1 X189.779 Y219.487 E.04123
G1 X189.196 Y219.12 E.02045
G1 X138.332 Y173.972 E2.01933
G1 X137.481 Y172.44 E.05203
G1 X137.382 Y171.83 E.01835
G1 X137.732 Y171.772 F7800
G1 F1800
G1 X137.704 Y171.603 E.00509
G1 X138.032 Y138.966 E.96908
G1 X138.281 Y138.048 E.02824
G1 X138.764 Y137.274 E.02709
G1 X139.492 Y136.592 E.02962
G1 X140.353 Y136.16 E.0286
G1 X141.096 Y136.019 E.02245
G1 X241.598 Y137.031 E2.98419
G1 X243.588 Y137.071 E.0591
G1 X244.323 Y137.273 E.02263
G1 X244.983 Y137.641 E.02244
G1 X245.851 Y138.527 E.03683
G1 X246.24 Y139.286 E.02532
G1 X246.411 Y140.102 E.02475
G1 X245.636 Y217.083 E2.28578
G1 X245.387 Y218.001 E.02824
G1 X244.904 Y218.775 E.02709
G1 X244.176 Y219.456 E.0296
G1 X243.315 Y219.889 E.02861
G1 X242.572 Y220.03 E.02245
G1 X191.142 Y219.512 E1.5271
G1 X189.947 Y219.171 E.0369
G1 X189.422 Y218.843 E.01838
G1 X138.592 Y173.725 E2.01799
G1 X137.828 Y172.35 E.0467
G1 X137.747 Y171.86 E.01475
G1 X138.094 Y171.806 F7800
G1 F1800
G1 X138.061 Y171.593 E.0064
G1 X138.389 Y138.993 E.96799
G1 X138.618 Y138.169 E.02539
G1 X139.026 Y137.517 E.02284
G1 X139.678 Y136.898 E.02669
G1 X140.447 Y136.506 E.02563
G1 X141.111 Y136.376 E.02009
G1 X241.594 Y137.388 E2.98362
G1 X243.518 Y137.422 E.05713
G1 X244.169 Y137.596 E.02001
G1 X244.787 Y137.941 E.02101
G1 X245.547 Y138.716 E.03223
G1 X245.896 Y139.386 E.02243
G1 X246.054 Y140.119 E.02226
G1 X245.279 Y217.055 E2.28445
G1 X245.05 Y217.88 E.02542
