; generated by F3Slic3r 2.6.0-alpha4 on 2025-03-01 at 18:00:43 UTC

; 

; external perimeters extrusion width = 0.68mm
; perimeters extrusion width = 0.68mm
; infill extrusion width = 0.68mm
; solid infill extrusion width = 0.68mm
; top infill extrusion width = 0.60mm
; first layer extrusion width = 0.70mm

; external perimeters extrusion width = 0.68mm
; perimeters extrusion width = 0.68mm
; infill extrusion width = 0.68mm
; solid infill extrusion width = 0.68mm
; top infill extrusion width = 0.60mm
; first layer extrusion width = 0.70mm

M107
;TYPE:Custom
; Fusion3 F410 F3Slic3r start script
; Rev 2023.01.16
M104 S0 
G21  
G90  
T0  
G92 E0.0  
M220 S100 
M140 S60  
G32 
M190 S60  
M109 S220  
; === pause for heating ===
; reset filament monitor
M42 P63 S0
G4 P100
G4 P50
M42 P63 S1
;
G1 Z10.0 F2000  ; move up
G1 E30.0 F500  ; prime extruder
G1 X20 Y15 F9000  ; move back
G1 Z0 F1000  ; move down to begin wipe
G1 X150 E4.0 F10000  ; wipe print head (extrude material while we do this)
G92 E0.0  ; reset e count
G21 ; set units to millimeters
G90 ; use absolute coordinates
M83 ; use relative distances for extrusion
; Filament gcode
M107
;LAYER_CHANGE
;Z:0.35
;HEIGHT:0.35
G1 Z.35 F7800
G1 E-3.25 F10020
G1 X28.303 Y84.23 F7800
G1 E3.25 F2400
;TYPE:Skirt/Brim
;WIDTH:0.7
G1 F1800
G1 X30.176 Y83.759 E.17561
G1 X283.099 Y58.359 E23.11386
G1 X299.527 Y58.326 E1.49379
G1 X302.062 Y58.83 E.23502
G1 X303.9 Y59.591 E.18089
G1 X306.049 Y61.027 E.23502
G1 X320.156 Y75.134 E1.81407
G1 X321.592 Y77.283 E.23502
G1 X322.353 Y79.121 E.18089
G1 X322.857 Y81.618 E.23163
G1 X323.43 Y181.204 E9.05546
G1 X323.43 Y246.731 E5.95834
G1 X322.926 Y249.266 E.23502
G1 X322.165 Y251.104 E.18089
G1 X320.729 Y253.253 E.23502
G1 X306.622 Y267.36 E1.81407
G1 X304.473 Y268.796 E.23502
G1 X302.635 Y269.557 E.18089
G1 X300.1 Y270.061 E.23502
G1 X283.672 Y270.028 E1.49379
G1 X30.749 Y244.628 E23.11386
G1 X28.876 Y244.157 E.17561
G1 X27.038 Y243.396 E.18089
G1 X24.889 Y241.96 E.23502
G1 X10.782 Y227.853 E1.81407
G1 X9.346 Y225.704 E.23502
G1 X8.585 Y223.866 E.18089
G1 X8.081 Y221.382 E.23047
G1 X7.508 Y147.197 E6.74581
G1 X7.507 Y107.056 E3.65
G1 X8.012 Y104.521 E.23504
G1 X8.773 Y102.683 E.18089
G1 X10.209 Y100.534 E.23502
G1 X24.316 Y86.427 E1.81407
G1 X26.465 Y84.991 E.23502
G1 X28.219 Y84.265 E.17261
G1 E-3.25 F10020
G1 X31.608 Y164.901 F7800
G1 E3.25 F2400
G1 F1800
G1 X299.903 Y164.901 E24.39595
G1 X300.568 Y165.073 E.06246
G1 X301.213 Y165.337 E.06337
G1 X302.18 Y165.983 E.10574
G1 X315.359 Y179.163 E1.6948
G1 X316.005 Y180.129 E.10567
G1 X316.269 Y180.774 E.06337
G1 X316.441 Y181.439 E.06246
G1 X316.492 Y246.075 E5.87733
G1 X316.258 Y247.235 E.1076
G1 X315.878 Y248.079 E.08416
G1 X315.357 Y248.813 E.08185
G1 X302.18 Y261.99 E1.69448
G1 X301.213 Y262.636 E.10574
G1 X300.568 Y262.901 E.06341
G1 X299.903 Y263.072 E.06244
G1 X285.647 Y263.104 E1.2963
G1 X284.877 Y262.932 E.07174
G1 X284.322 Y262.702 E.05463
G1 X283.788 Y262.388 E.05633
G1 X282.718 Y261.378 E.13379
G1 X282.332 Y260.871 E.05794
G1 X281.925 Y260.006 E.08693
G1 X281.719 Y259.004 E.09302
G1 X281.719 Y237.723 E1.93507
G1 X32.066 Y237.723 E22.70084
G1 X30.907 Y237.489 E.10751
G1 X30.063 Y237.109 E.08416
G1 X29.329 Y236.588 E.08185
G1 X16.152 Y223.411 E1.69448
G1 X15.506 Y222.444 E.10574
G1 X15.242 Y221.799 E.06337
G1 X15.07 Y221.134 E.06246
G1 X15.019 Y181.918 E3.5659
G1 X15.191 Y180.931 E.0911
G1 X15.583 Y179.986 E.09303
G1 X16.151 Y179.163 E.09093
G1 X29.331 Y165.983 E1.69487
G1 X30.298 Y165.337 E.10574
G1 X30.943 Y165.073 E.06337
G1 X31.521 Y164.923 E.0543
G1 X31.678 Y165.528 F7800
G1 F1800
G1 X31.726 Y165.516 E.0045
G1 X299.785 Y165.516 E24.37449
G1 X300.39 Y165.672 E.05681
G1 X300.945 Y165.902 E.05463
G1 X301.759 Y166.446 E.08902
G1 X314.896 Y179.583 E1.68934
G1 X315.44 Y180.397 E.08902
G1 X315.67 Y180.953 E.05471
G1 X315.826 Y181.557 E.05672
G1 X315.867 Y246.045 E5.86387
G1 X315.673 Y247.014 E.08986
G1 X315.348 Y247.746 E.07283
G1 X314.895 Y248.391 E.07167
G1 X301.759 Y261.527 E1.68921
G1 X300.945 Y262.071 E.08902
G1 X300.39 Y262.301 E.05463
G1 X299.785 Y262.457 E.05681
G1 X285.746 Y262.486 E1.27656
G1 X285.089 Y262.344 E.06112
G1 X284.583 Y262.134 E.04982
G1 X284.139 Y261.87 E.04697
G1 X283.169 Y260.945 E.12188
G1 X282.853 Y260.524 E.04787
G1 X282.508 Y259.778 E.07474
G1 X282.344 Y258.973 E.0747
G1 X282.344 Y237.098 E1.98908
G1 X32.097 Y237.098 E22.75485
G1 X31.128 Y236.904 E.08986
G1 X30.396 Y236.579 E.07283
G1 X29.751 Y236.126 E.07167
G1 X16.615 Y222.991 E1.68914
G1 X16.071 Y222.176 E.0891
G1 X15.841 Y221.621 E.05463
G1 X15.685 Y221.016 E.05681
G1 X15.644 Y181.944 E3.5528
G1 X15.783 Y181.134 E.07473
G1 X16.118 Y180.309 E.08097
G1 X16.614 Y179.584 E.07988
G1 X29.752 Y166.446 E1.68947
G1 X30.566 Y165.902 E.08902
G1 X31.121 Y165.672 E.05463
G1 X31.59 Y165.551 E.04404
G1 X31.744 Y166.156 F7800
G1 F1800
G1 X31.841 Y166.131 E.00911
G1 X299.669 Y166.131 E24.35349
G1 X300.172 Y166.258 E.04717
G1 X300.677 Y166.468 E.04973
G1 X301.339 Y166.91 E.07238
G1 X314.432 Y180.003 E1.68368
G1 X314.874 Y180.665 E.07238
G1 X315.084 Y181.17 E.04973
G1 X315.211 Y181.673 E.04717
G1 X315.242 Y246.014 E5.8505
G1 X315.086 Y246.797 E.0726
G1 X314.816 Y247.417 E.06149
G1 X314.433 Y247.97 E.06117
G1 X301.339 Y261.063 E1.68374
G1 X300.677 Y261.506 E.07243
G1 X300.172 Y261.715 E.0497
G1 X299.67 Y261.842 E.04708
G1 X285.841 Y261.868 E1.25747
G1 X285.3 Y261.755 E.05025
G1 X284.844 Y261.566 E.04488
G1 X284.493 Y261.354 E.03729
G1 X283.623 Y260.515 E.1099
G1 X283.376 Y260.181 E.03777
G1 X283.092 Y259.554 E.06259
G1 X282.969 Y258.942 E.05676
G1 X282.969 Y236.474 E2.04301
G1 X32.128 Y236.474 E22.80887
G1 X31.345 Y236.317 E.07261
G1 X30.725 Y236.047 E.06149
G1 X30.173 Y235.664 E.06109
G1 X17.079 Y222.57 E1.68381
G1 X16.637 Y221.909 E.0723
G1 X16.427 Y221.403 E.04982
G1 X16.3 Y220.901 E.04708
G1 X16.269 Y181.969 E3.54007
G1 X16.376 Y181.333 E.05864
G1 X16.656 Y180.629 E.06889
G1 X17.078 Y180.004 E.06857
G1 X30.172 Y166.91 E1.68381
G1 X30.834 Y166.468 E.07238
G1 X31.339 Y166.258 E.04973
G1 X31.656 Y166.178 E.02973
G1 X31.806 Y166.783 F7800
G1 F1800
G1 X31.954 Y166.747 E.01385
G1 X299.557 Y166.747 E24.33303
G1 X299.956 Y166.845 E.03736
G1 X300.41 Y167.033 E.04468
G1 X300.919 Y167.373 E.05566
G1 X313.969 Y180.423 E1.67815
G1 X314.309 Y180.932 E.05566
G1 X314.497 Y181.387 E.04477
G1 X314.595 Y181.785 E.03727
G1 X314.617 Y245.984 E5.83759
G1 X314.498 Y246.583 E.05553
G1 X314.281 Y247.093 E.0504
G1 X313.97 Y247.549 E.05019
G1 X300.919 Y260.6 E1.67828
G1 X300.41 Y260.94 E.05566
G1 X299.956 Y261.128 E.04468
G1 X299.557 Y261.226 E.03736
G1 X285.931 Y261.249 E1.23901
G1 X285.51 Y261.165 E.03904
G1 X285.108 Y260.999 E.03955
G1 X284.852 Y260.841 E.02735
G1 X284.08 Y260.088 E.09806
G1 X283.903 Y259.844 E.02741
G1 X283.678 Y259.334 E.05069
G1 X283.593 Y258.912 E.03914
G1 X283.593 Y235.849 E2.09711
G1 X32.158 Y235.849 E22.86288
G1 X31.559 Y235.729 E.05555
G1 X31.05 Y235.512 E.05031
G1 X30.593 Y235.201 E.05026
G1 X17.542 Y222.15 E1.67828
G1 X17.202 Y221.641 E.05566
G1 X17.014 Y221.187 E.04468
G1 X16.916 Y220.789 E.03727
G1 X16.893 Y181.994 E3.52761
G1 X16.971 Y181.527 E.04305
G1 X17.197 Y180.944 E.05686
G1 X17.543 Y180.423 E.05687
G1 X30.592 Y167.373 E1.67809
G1 X31.101 Y167.033 E.05566
G1 X31.555 Y166.845 E.04468
G1 X31.718 Y166.805 E.01526
G1 X31.863 Y167.41 F7800
G1 F1800
G1 X32.061 Y167.363 E.0185
G1 X299.45 Y167.363 E24.31357
G1 X299.741 Y167.432 E.02719
G1 X300.142 Y167.599 E.0395
G1 X300.499 Y167.837 E.03901
G1 X313.505 Y180.843 E1.67249
G1 X313.743 Y181.2 E.03901
G1 X313.91 Y181.602 E.03958
G1 X313.979 Y181.892 E.02711
G1 X313.993 Y245.953 E5.82504
G1 X313.909 Y246.374 E.03904
G1 X313.743 Y246.774 E.03938
G1 X313.505 Y247.13 E.03894
G1 X300.499 Y260.136 E1.67249
G1 X300.142 Y260.374 E.03901
G1 X299.741 Y260.541 E.0395
G1 X299.45 Y260.61 E.02719
G1 X285.961 Y260.624 E1.22655
G1 X285.72 Y260.576 E.02234
G1 X285.374 Y260.432 E.03408
G1 X285.217 Y260.333 E.01688
G1 X284.541 Y259.665 E.08642
G1 X284.435 Y259.514 E.01678
G1 X284.266 Y259.12 E.03898
G1 X284.218 Y258.881 E.02217
G1 X284.218 Y235.224 E2.15112
G1 X32.189 Y235.224 E22.91689
G1 X31.768 Y235.14 E.03904
G1 X31.369 Y234.974 E.0393
G1 X31.012 Y234.736 E.03901
G1 X18.006 Y221.73 E1.67249
G1 X17.768 Y221.374 E.03894
G1 X17.601 Y220.972 E.03958
G1 X17.532 Y220.681 E.02719
G1 X17.518 Y182.018 E3.51561
G1 X17.566 Y181.721 E.02736
G1 X17.767 Y181.202 E.05061
G1 X18.006 Y180.843 E.03922
G1 X31.012 Y167.837 E1.67249
G1 X31.369 Y167.599 E.03901
G1 X31.775 Y167.431 E.03995
G1 X31.983 Y168.021 F7800
G1 F1800
G1 X32.162 Y167.98 E.0167
G1 X299.348 Y167.98 E24.29511
G1 X299.528 Y168.021 E.01679
G1 X299.875 Y168.164 E.03413
G1 X300.079 Y168.301 E.02234
G1 X313.041 Y181.263 E1.66683
G1 X313.178 Y181.467 E.02234
G1 X313.321 Y181.814 E.03413
G1 X313.362 Y181.994 E.01679
G1 X313.368 Y245.922 E5.81295
G1 X313.32 Y246.163 E.02234
G1 X313.178 Y246.506 E.03376
G1 X313.041 Y246.71 E.02234
G1 X300.079 Y259.673 E1.6669
G1 X299.875 Y259.809 E.02229
G1 X299.528 Y259.952 E.03413
G1 X299.348 Y259.993 E.01679
G1 X285.991 Y259.999 E1.21455
G1 X285.593 Y259.834 E.03918
G1 X285.008 Y259.249 E.07523
G1 X284.843 Y258.851 E.03918
G1 X284.843 Y234.599 E2.20522
G1 X32.22 Y234.599 E22.9709
G1 X31.979 Y234.551 E.02234
G1 X31.636 Y234.409 E.03376
G1 X31.432 Y234.273 E.02229
G1 X18.469 Y221.31 E1.66696
G1 X18.333 Y221.106 E.02229
G1 X18.19 Y220.759 E.03413
G1 X18.149 Y220.58 E.0167
G1 X18.143 Y182.047 E3.50379
G1 X18.175 Y181.864 E.01689
G1 X18.334 Y181.466 E.03897
G1 X18.469 Y181.263 E.02217
G1 X31.432 Y168.301 E1.6669
G1 X31.636 Y168.164 E.02234
G1 X31.9 Y168.055 E.02597
G1 X32.139 Y168.632 F7800
G1 F1800
G1 X32.25 Y168.599 E.01053
G1 X299.321 Y168.611 E24.28465
G1 X299.659 Y168.764 E.03374
G1 X312.578 Y181.683 E1.6613
G1 X312.743 Y182.082 E.03926
G1 X312.731 Y245.952 E5.80767
G1 X312.578 Y246.29 E.03374
G1 X299.607 Y259.243 E1.66683
G1 X299.261 Y259.374 E.03364
G1 X286.084 Y259.374 E1.19818
G1 X285.97 Y259.326 E.01125
G1 X285.516 Y258.872 E.05838
G1 X285.468 Y258.758 E.01125
G1 X285.468 Y233.974 E2.2536
G1 X32.19 Y233.962 E23.03046
G1 X31.852 Y233.809 E.03374
G1 X18.933 Y220.89 E1.6613
G1 X18.768 Y220.492 E.03918
G1 X18.78 Y182.021 E3.49815
G1 X18.933 Y181.683 E.03374
G1 X31.852 Y168.764 E1.6613
G1 X32.056 Y168.667 E.02054
G1 X32.295 Y169.244 F7800
G1 F1800
G1 X32.343 Y169.224 E.00473
G1 X299.168 Y169.224 E24.26229
G1 X299.282 Y169.272 E.01125
G1 X312.07 Y182.06 E1.64446
G1 X312.118 Y182.174 E.01125
G1 X312.118 Y245.799 E5.78539
G1 X312.07 Y245.914 E.01133
G1 X299.282 Y258.701 E1.64439
G1 X299.168 Y258.749 E.01125
G1 X286.276 Y258.749 E1.17226
G1 X286.093 Y258.566 E.02353
G1 X286.093 Y233.349 E2.29297
G1 X32.343 Y233.349 E23.07338
G1 X32.228 Y233.301 E.01133
G1 X19.441 Y220.514 E1.64433
G1 X19.393 Y220.399 E.01133
G1 X19.393 Y182.174 E3.47578
G1 X19.441 Y182.06 E.01125
G1 X32.216 Y169.285 E1.64279
G1 E-3.25 F10020
G1 X32.216 Y163.537 F7800
G1 E3.25 F2400
G1 F1800
G1 X31.493 Y163.537 E.06574
G1 X30.334 Y163.303 E.10751
G1 X29.49 Y162.923 E.08416
G1 X28.756 Y162.402 E.08185
G1 X15.578 Y149.224 E1.69461
G1 X15.01 Y148.402 E.09085
G1 X14.618 Y147.456 E.09311
G1 X14.446 Y146.471 E.09092
G1 X14.446 Y107.731 E3.52261
G1 X14.599 Y106.813 E.08462
G1 X14.977 Y105.861 E.09314
G1 X15.578 Y104.977 E.0972
G1 X28.759 Y91.796 E1.695
G1 X29.581 Y91.228 E.09085
G1 X30.527 Y90.837 E.09308
G1 X31.512 Y90.664 E.09094
G1 X281.146 Y90.664 E22.69911
G1 X281.146 Y69.383 E1.93507
G1 X281.352 Y68.382 E.09293
G1 X281.759 Y67.516 E.08701
G1 X282.145 Y67.009 E.05794
G1 X283.215 Y66 E.13373
G1 X283.749 Y65.685 E.05637
G1 X284.3 Y65.457 E.05422
G1 X284.995 Y65.293 E.06493
G1 X299.061 Y65.282 E1.27902
G1 X299.842 Y65.439 E.07244
G1 X300.625 Y65.744 E.07641
G1 X301.606 Y66.397 E.10716
G1 X314.784 Y79.574 E1.69455
G1 X315.304 Y80.308 E.08179
G1 X315.685 Y81.152 E.0842
G1 X315.919 Y82.312 E.1076
G1 X315.868 Y146.948 E5.87733
G1 X315.696 Y147.613 E.06246
G1 X315.432 Y148.258 E.06337
G1 X314.786 Y149.225 E.10574
G1 X301.606 Y162.405 E1.69487
G1 X300.783 Y162.973 E.09093
G1 X299.837 Y163.365 E.09311
G1 X298.852 Y163.537 E.09092
G1 X32.306 Y163.537 E24.23692
G1 X32.306 Y162.913 F7800
G1 F1800
G1 X31.524 Y162.913 E.07111
G1 X30.555 Y162.718 E.08988
G1 X29.822 Y162.393 E.07291
G1 X29.178 Y161.941 E.07154
G1 X16.041 Y148.803 E1.6894
G1 X15.545 Y148.078 E.07988
G1 X15.21 Y147.253 E.08097
G1 X15.071 Y146.444 E.07464
G1 X15.071 Y107.756 E3.51788
G1 X15.193 Y107.008 E.06891
G1 X15.516 Y106.18 E.08082
G1 X16.042 Y105.397 E.08577
G1 X29.18 Y92.259 E1.68947
G1 X29.905 Y91.764 E.07982
G1 X30.73 Y91.429 E.08097
G1 X31.539 Y91.289 E.07466
G1 X281.77 Y91.289 E22.7534
G1 X281.77 Y69.414 E1.98908
G1 X281.935 Y68.61 E.07463
G1 X282.28 Y67.863 E.07482
G1 X282.596 Y67.442 E.04787
G1 X283.566 Y66.518 E.12181
G1 X284.009 Y66.254 E.04689
G1 X284.514 Y66.045 E.0497
G1 X285.1 Y65.909 E.0547
G1 X298.968 Y65.901 E1.26101
G1 X299.691 Y66.046 E.06705
G1 X300.364 Y66.313 E.06584
G1 X301.186 Y66.861 E.08983
G1 X314.322 Y79.996 E1.68914
G1 X314.775 Y80.641 E.07167
G1 X315.1 Y81.373 E.07283
G1 X315.294 Y82.343 E.08995
G1 X315.253 Y146.83 E5.86378
G1 X315.097 Y147.435 E.05681
G1 X314.867 Y147.99 E.05463
G1 X314.323 Y148.805 E.0891
G1 X301.185 Y161.942 E1.6894
G1 X300.46 Y162.438 E.07988
G1 X299.635 Y162.773 E.08097
G1 X298.826 Y162.913 E.07466
G1 X32.396 Y162.913 E24.22637
G1 X32.396 Y162.288 F7800
G1 F1800
G1 X31.555 Y162.288 E.07647
G1 X30.772 Y162.132 E.0726
G1 X30.152 Y161.861 E.06153
G1 X29.599 Y161.478 E.06117
G1 X16.505 Y148.384 E1.68381
G1 X16.083 Y147.759 E.06857
G1 X15.803 Y147.055 E.06889
G1 X15.695 Y146.418 E.05875
G1 X15.695 Y107.783 E3.51306
G1 X15.803 Y107.147 E.05866
G1 X16.083 Y106.443 E.06889
G1 X16.505 Y105.818 E.06857
G1 X29.6 Y92.723 E1.68394
G1 X30.224 Y92.302 E.06845
G1 X30.929 Y92.022 E.06898
G1 X31.565 Y91.914 E.05866
G1 X282.395 Y91.914 E22.80787
G1 X282.395 Y69.445 E2.0431
G1 X282.519 Y68.834 E.05669
G1 X282.803 Y68.206 E.06267
G1 X283.05 Y67.873 E.0377
G1 X283.92 Y67.034 E.1099
G1 X284.271 Y66.822 E.03729
G1 X284.727 Y66.633 E.04488
G1 X285.202 Y66.527 E.04425
G1 X298.88 Y66.52 E1.24373
G1 X299.489 Y66.638 E.05641
G1 X300.103 Y66.882 E.06008
G1 X300.766 Y67.324 E.07246
G1 X313.86 Y80.418 E1.68381
G1 X314.243 Y80.97 E.06109
G1 X314.513 Y81.591 E.06157
G1 X314.669 Y82.373 E.07251
G1 X314.638 Y146.715 E5.85059
G1 X314.511 Y147.217 E.04708
G1 X314.301 Y147.723 E.04982
G1 X313.859 Y148.385 E.07238
G1 X300.765 Y161.479 E1.68381
G1 X300.14 Y161.9 E.06852
G1 X299.436 Y162.18 E.06889
G1 X298.8 Y162.288 E.05866
G1 X32.486 Y162.288 E24.21582
G1 X32.486 Y161.663 F7800
G1 F1800
G1 X31.585 Y161.663 E.08193
G1 X30.986 Y161.544 E.05553
G1 X30.476 Y161.327 E.0504
G1 X30.02 Y161.015 E.05024
G1 X16.969 Y147.965 E1.67821
G1 X16.624 Y147.444 E.05682
G1 X16.398 Y146.861 E.05686
G1 X16.32 Y146.393 E.04314
G1 X16.32 Y107.808 E3.50852
G1 X16.398 Y107.341 E.04305
G1 X16.624 Y106.758 E.05686
G1 X16.969 Y106.237 E.05682
G1 X30.018 Y93.188 E1.67802
G1 X30.539 Y92.842 E.05687
G1 X31.123 Y92.616 E.05694
G1 X31.59 Y92.539 E.04304
G1 X283.02 Y92.539 E22.86242
G1 X283.02 Y69.476 E2.09711
G1 X283.105 Y69.053 E.03923
G1 X283.33 Y68.544 E.0506
G1 X283.507 Y68.3 E.02741
G1 X284.279 Y67.546 E.09812
G1 X284.535 Y67.389 E.02731
G1 X284.939 Y67.222 E.03975
G1 X285.298 Y67.145 E.03339
G1 X298.847 Y67.145 E1.232
G1 X299.333 Y67.244 E.0451
G1 X299.838 Y67.448 E.04952
G1 X300.346 Y67.788 E.05558
G1 X313.397 Y80.838 E1.67821
G1 X313.708 Y81.295 E.05026
G1 X313.925 Y81.805 E.0504
G1 X314.044 Y82.404 E.05553
G1 X314.022 Y146.603 E5.83759
G1 X313.924 Y147.001 E.03727
G1 X313.736 Y147.455 E.04468
G1 X313.395 Y147.964 E.05571
G1 X300.346 Y161.014 E1.67809
G1 X299.825 Y161.359 E.05682
G1 X299.242 Y161.585 E.05686
G1 X298.775 Y161.663 E.04305
G1 X32.576 Y161.663 E24.20536
G1 X32.576 Y161.038 F7800
G1 F1800
G1 X31.616 Y161.038 E.08729
G1 X31.195 Y160.954 E.03904
G1 X30.795 Y160.789 E.03934
G1 X30.439 Y160.55 E.03899
G1 X17.433 Y147.544 E1.67249
G1 X17.194 Y147.186 E.03914
G1 X16.993 Y146.666 E.05069
G1 X16.945 Y146.369 E.02736
G1 X16.945 Y107.832 E3.50415
G1 X16.993 Y107.535 E.02736
