; generated by F3Slic3r 2.6.0-alpha4 on 2025-02-15 at 16:51:22 UTC

; 

; external perimeters extrusion width = 0.68mm
; perimeters extrusion width = 0.68mm
; infill extrusion width = 0.68mm
; solid infill extrusion width = 0.68mm
; top infill extrusion width = 0.60mm
; first layer extrusion width = 0.70mm

; external perimeters extrusion width = 0.68mm
; perimeters extrusion width = 0.68mm
; infill extrusion width = 0.68mm
; solid infill extrusion width = 0.68mm
; top infill extrusion width = 0.60mm
; first layer extrusion width = 0.70mm

M107
;TYPE:Custom
; Fusion3 F410 F3Slic3r start script
; Rev 2023.01.16
M104 S0 
G21  
G90  
T0  
G92 E0.0  
M220 S100 
M140 S60  
G32 
M190 S60  
M109 S220  
; === pause for heating ===
; reset filament monitor
M42 P63 S0
G4 P100
G4 P50
M42 P63 S1
;
G1 Z10.0 F2000  ; move up
G1 E30.0 F500  ; prime extruder
G1 X20 Y15 F9000  ; move back
G1 Z0 F1000  ; move down to begin wipe
G1 X150 E4.0 F10000  ; wipe print head (extrude material while we do this)
G92 E0.0  ; reset e count
G21 ; set units to millimeters
G90 ; use absolute coordinates
M83 ; use relative distances for extrusion
; Filament gcode
M107
;LAYER_CHANGE
;Z:0.35
;HEIGHT:0.35
G1 Z.35 F7800
G1 E-3.25 F10020
G1 X115.533 Y139.654 F7800
G1 E3.25 F2400
;TYPE:Skirt/Brim
;WIDTH:0.7
G1 F1800
G1 X116.17 Y139.127 E.07518
G1 X117.463 Y138.313 E.13893
G1 X118.244 Y137.927 E.07922
G1 X119.73 Y137.372 E.14424
G1 X121.212 Y137.033 E.13824
G1 X122.195 Y136.917 E.09
G1 X132.49 Y136.883 E.93613
G1 X162.753 Y137.689 E2.75278
G1 X164.318 Y137.837 E.14294
G1 X165.799 Y138.175 E.13813
G1 X167.284 Y138.728 E.14409
G1 X168.061 Y139.11 E.07873
G1 X169.348 Y139.917 E.13813
G1 X170.569 Y140.924 E.14391
G1 X177.832 Y148.186 E.93391
G1 X178.837 Y149.401 E.14338
G1 X179.651 Y150.694 E.13893
G1 X180.037 Y151.474 E.07913
G1 X180.762 Y153.593 E.20365
G1 X181.004 Y154.994 E.12928
G1 X181.083 Y156.191 E.10908
G1 X181.083 Y190.945 E3.16017
G1 X181.005 Y192.135 E.10844
G1 X180.764 Y193.534 E.12908
G1 X180.317 Y194.986 E.13814
G1 X179.66 Y196.428 E.14409
G1 X178.852 Y197.715 E.13818
G1 X177.846 Y198.936 E.14385
G1 X170.584 Y206.199 E.93391
G1 X169.368 Y207.205 E.1435
G1 X168.645 Y207.689 E.07911
G1 X167.296 Y208.404 E.13883
G1 X165.176 Y209.129 E.20373
G1 X163.344 Y209.414 E.16859
G1 X153.225 Y209.45 E.92012
G1 X122.786 Y208.642 E2.76878
G1 X121.772 Y208.567 E.09245
G1 X120.372 Y208.326 E.12917
G1 X118.92 Y207.879 E.13814
G1 X117.479 Y207.221 E.14404
G1 X116.191 Y206.414 E.13821
G1 X114.97 Y205.407 E.14391
G1 X107.707 Y198.145 E.93391
G1 X106.701 Y196.93 E.14343
G1 X106.217 Y196.207 E.07911
G1 X105.502 Y194.857 E.13891
G1 X104.777 Y192.738 E.20365
G1 X104.535 Y191.337 E.12928
G1 X104.456 Y190.14 E.10908
G1 X104.456 Y155.387 E3.16008
G1 X104.534 Y154.197 E.10844
G1 X104.775 Y152.797 E.12917
G1 X105.497 Y150.68 E.20339
G1 X106.206 Y149.337 E.13809
G1 X106.687 Y148.617 E.07873
G1 X107.693 Y147.395 E.14393
G1 X114.955 Y140.132 E.93391
G1 X115.464 Y139.711 E.06006
G1 E-3.25 F10020
G1 X120.145 Y144.82 F7800
G1 E3.25 F2400
G1 F1800
G1 X121.008 Y144.295 E.09185
G1 X122.005 Y143.948 E.09599
G1 X123.095 Y143.819 E.0998
G1 X132.483 Y143.83 E.85365
G1 X133.693 Y144.066 E.1121
G1 X134.779 Y144.57 E.10887
G1 X135.824 Y145.459 E.12475
G1 X136.553 Y146.513 E.11653
G1 X136.829 Y147.185 E.06606
G1 X136.917 Y147.536 E.0329
G1 X137.237 Y147.704 E.03286
G1 X138.104 Y148.401 E.10115
G1 X138.719 Y148.98 E.07681
G1 X139.272 Y149.564 E.07313
G1 X139.893 Y150.311 E.08833
G1 X140.164 Y150.795 E.05044
G1 X140.95 Y151.038 E.07481
G1 X142.083 Y151.735 E.12096
G1 X142.801 Y152.461 E.09285
G1 X143.094 Y152.887 E.04701
G1 X143.518 Y152.491 E.05275
G1 X144.593 Y151.842 E.11418
G1 X145.369 Y151.605 E.07378
G1 X145.55 Y151.256 E.03575
G1 X146.246 Y150.394 E.10074
G1 X146.819 Y149.787 E.0759
G1 X147.403 Y149.234 E.07313
G1 X148.151 Y148.613 E.0884
G1 X148.621 Y148.349 E.04902
G1 X148.698 Y148.033 E.02957
G1 X148.969 Y147.354 E.06648
G1 X149.632 Y146.355 E.10902
G1 X150.346 Y145.671 E.08991
G1 X151.285 Y145.09 E.10041
G1 X152.05 Y144.817 E.07386
G1 X153.16 Y144.625 E.10243
G1 X162.507 Y144.626 E.84992
G1 X163.623 Y144.775 E.10238
G1 X164.678 Y145.174 E.10256
G1 X165.599 Y145.791 E.1008
G1 X166.245 Y146.451 E.08398
G1 X166.782 Y147.258 E.08814
G1 X167.1 Y148.002 E.07357
G1 X167.187 Y148.342 E.03191
G1 X167.486 Y148.5 E.03075
G1 X168.361 Y149.201 E.10195
G1 X168.992 Y149.796 E.07886
G1 X169.526 Y150.359 E.07056
G1 X170.138 Y151.089 E.08662
G1 X170.427 Y151.601 E.05346
G1 X171.016 Y151.763 E.05555
G1 X171.783 Y152.141 E.07775
G1 X172.547 Y152.717 E.087
G1 X173.148 Y153.382 E.0815
G1 X173.625 Y154.145 E.08182
G1 X174.03 Y155.28 E.10958
G1 X174.126 Y155.959 E.06236
G1 X174.126 Y191.176 E3.20227
G1 X174.075 Y191.657 E.04398
G1 X173.682 Y192.871 E.11603
G1 X173.004 Y193.944 E.11541
G1 X172.208 Y194.704 E.10007
G1 X171.203 Y195.298 E.10615
G1 X170.435 Y195.532 E.073
G1 X170.26 Y195.868 E.03445
G1 X169.563 Y196.735 E.10115
G1 X168.984 Y197.35 E.07681
G1 X168.4 Y197.903 E.07313
G1 X167.651 Y198.524 E.08847
G1 X167.181 Y198.788 E.04902
G1 X167.107 Y199.098 E.02898
G1 X166.838 Y199.773 E.06607
G1 X166.17 Y200.783 E.11011
G1 X165.437 Y201.481 E.09204
G1 X164.609 Y202.002 E.08895
G1 X163.744 Y202.322 E.08386
G1 X162.636 Y202.513 E.10224
G1 X152.984 Y202.493 E.87765
G1 X152.307 Y202.396 E.06219
G1 X151.33 Y202.064 E.09383
G1 X150.275 Y201.411 E.11282
G1 X149.464 Y200.573 E.10604
G1 X148.907 Y199.644 E.09849
G1 X148.6 Y198.785 E.08295
G1 X148.302 Y198.627 E.03067
G1 X147.435 Y197.931 E.1011
G1 X146.82 Y197.351 E.07687
G1 X146.267 Y196.768 E.07307
G1 X145.647 Y196.02 E.08834
G1 X145.375 Y195.536 E.05048
G1 X144.597 Y195.297 E.07401
G1 X143.593 Y194.703 E.10607
G1 X142.795 Y193.939 E.10046
G1 X142.453 Y193.436 E.05531
G1 X142.018 Y193.843 E.05417
G1 X140.978 Y194.472 E.11052
G1 X140.153 Y194.764 E.07958
G1 X139.989 Y195.076 E.03205
G1 X139.293 Y195.937 E.10067
G1 X138.72 Y196.544 E.0759
G1 X138.137 Y197.097 E.07307
G1 X137.39 Y197.717 E.08827
G1 X136.906 Y197.989 E.05048
G1 X136.661 Y198.78 E.0753
G1 X135.91 Y199.977 E.12849
G1 X135.114 Y200.721 E.09907
G1 X134.141 Y201.289 E.10245
G1 X132.536 Y201.699 E.15063
G1 X122.533 Y201.662 E.90957
G1 X122.234 Y201.628 E.02736
G1 X121.299 Y201.359 E.08847
G1 X120.379 Y200.878 E.0944
G1 X119.472 Y200.091 E.10919
G1 X118.753 Y199.067 E.11377
G1 X118.447 Y198.339 E.07181
G1 X118.359 Y197.99 E.03273
G1 X118.039 Y197.822 E.03286
G1 X117.171 Y197.125 E.10122
G1 X116.546 Y196.535 E.07815
G1 X116.011 Y195.97 E.07075
G1 X115.393 Y195.23 E.08767
G1 X115.113 Y194.731 E.05203
G1 X114.342 Y194.494 E.07334
G1 X113.207 Y193.801 E.12092
G1 X112.426 Y193.001 E.10166
G1 X111.839 Y192.027 E.10341
G1 X111.502 Y191.023 E.0963
G1 X111.414 Y190.371 E.05982
G1 X111.414 Y155.153 E3.20236
G1 X111.508 Y154.477 E.06206
G1 X111.831 Y153.518 E.09201
G1 X112.4 Y152.56 E.10132
G1 X113.207 Y151.724 E.10566
G1 X114.303 Y151.051 E.11695
G1 X115.122 Y150.762 E.07897
G1 X115.28 Y150.464 E.03067
G1 X115.976 Y149.596 E.10117
G1 X116.567 Y148.97 E.07828
G1 X117.139 Y148.429 E.07159
G1 X117.886 Y147.808 E.08833
G1 X118.351 Y147.547 E.04849
G1 X118.442 Y147.188 E.03368
G1 X118.806 Y146.36 E.08224
G1 X119.378 Y145.546 E.09046
G1 X120.08 Y144.882 E.08786
G1 X120.506 Y145.338 F7800
G1 F1800
G1 X121.299 Y144.849 E.08471
G1 X122.173 Y144.551 E.08396
G1 X123.111 Y144.444 E.08585
G1 X132.453 Y144.455 E.84946
G1 X133.47 Y144.651 E.09418
G1 X134.412 Y145.078 E.09404
G1 X135.337 Y145.852 E.10967
G1 X135.988 Y146.783 E.1033
G1 X136.24 Y147.396 E.06027
G1 X136.375 Y147.972 E.05379
G1 X136.877 Y148.216 E.05075
G1 X137.703 Y148.88 E.09637
G1 X138.272 Y149.417 E.07114
G1 X138.798 Y149.971 E.06946
G1 X139.391 Y150.685 E.0844
G1 X139.738 Y151.323 E.06604
G1 X140.66 Y151.594 E.08738
G1 X141.722 Y152.246 E.11331
G1 X142.325 Y152.868 E.07877
G1 X142.983 Y153.904 E.1116
G1 X143.879 Y153.003 E.11554
G1 X144.879 Y152.399 E.10623
G1 X145.813 Y152.129 E.08841
G1 X146.062 Y151.617 E.05177
G1 X146.724 Y150.796 E.0959
G1 X147.255 Y150.234 E.0703
G1 X147.81 Y149.708 E.06953
G1 X148.525 Y149.115 E.08447
G1 X149.171 Y148.764 E.06685
G1 X149.288 Y148.238 E.049
G1 X149.537 Y147.616 E.06092
G1 X150.092 Y146.78 E.09124
G1 X150.708 Y146.182 E.07807
G1 X151.531 Y145.666 E.08833
G1 X152.187 Y145.427 E.06349
G1 X153.188 Y145.25 E.09243
G1 X162.488 Y145.251 E.84565
G1 X163.441 Y145.374 E.08737
G1 X164.365 Y145.715 E.08956
G1 X165.176 Y146.253 E.08849
G1 X165.777 Y146.866 E.07806
G1 X166.243 Y147.576 E.07722
G1 X166.513 Y148.216 E.06316
G1 X166.647 Y148.78 E.05271
G1 X167.127 Y149.013 E.04852
G1 X167.96 Y149.68 E.09703
G1 X168.545 Y150.233 E.0732
G1 X169.054 Y150.768 E.06715
G1 X169.639 Y151.466 E.08281
G1 X170.008 Y152.139 E.06979
G1 X170.77 Y152.338 E.07161
G1 X171.478 Y152.688 E.07182
G1 X172.143 Y153.194 E.07598
G1 X172.663 Y153.776 E.07097
G1 X173.075 Y154.443 E.07129
G1 X173.429 Y155.455 E.09749
G1 X173.501 Y155.98 E.04818
G1 X173.501 Y191.159 E3.19881
G1 X173.457 Y191.558 E.0365
G1 X173.13 Y192.575 E.09714
G1 X172.54 Y193.523 E.10153
G1 X171.857 Y194.185 E.08649
G1 X170.921 Y194.739 E.0989
G1 X169.99 Y195.008 E.08812
G1 X169.748 Y195.507 E.05043
G1 X169.084 Y196.334 E.09644
G1 X168.547 Y196.902 E.07108
G1 X167.992 Y197.429 E.06959
G1 X167.277 Y198.023 E.08452
G1 X166.63 Y198.374 E.06693
G1 X166.515 Y198.898 E.04878
G1 X166.296 Y199.461 E.05493
G1 X165.709 Y200.359 E.09755
G1 X165.076 Y200.97 E.08
G1 X164.304 Y201.456 E.08295
G1 X163.608 Y201.712 E.06743
G1 X162.609 Y201.888 E.09224
G1 X153.006 Y201.868 E.8732
G1 X152.48 Y201.795 E.04829
G1 X151.567 Y201.485 E.08767
G1 X150.642 Y200.903 E.09937
G1 X149.943 Y200.17 E.0921
G1 X149.462 Y199.355 E.08605
G1 X149.195 Y198.59 E.07368
G1 X149.149 Y198.353 E.02195
G1 X148.662 Y198.115 E.04929
G1 X147.836 Y197.452 E.09631
G1 X147.267 Y196.914 E.0712
G1 X146.741 Y196.361 E.0694
G1 X146.148 Y195.646 E.08447
G1 X145.801 Y195.008 E.06604
G1 X144.88 Y194.738 E.08727
G1 X143.944 Y194.184 E.0989
G1 X143.26 Y193.521 E.08662
G1 X142.562 Y192.421 E.11846
G1 X141.657 Y193.331 E.1167
G1 X140.685 Y193.92 E.10334
G1 X139.954 Y194.17 E.07025
G1 X139.721 Y194.215 E.02158
G1 X139.477 Y194.714 E.05051
G1 X138.815 Y195.535 E.0959
G1 X138.284 Y196.097 E.0703
G1 X137.73 Y196.623 E.06946
G1 X137.016 Y197.216 E.0844
G1 X136.377 Y197.563 E.06612
G1 X136.105 Y198.49 E.08785
G1 X135.449 Y199.553 E.11358
G1 X134.761 Y200.204 E.08613
G1 X133.937 Y200.697 E.08731
G1 X132.497 Y201.073 E.13533
G1 X122.554 Y201.037 E.90412
G1 X122.336 Y201.011 E.01996
G1 X121.506 Y200.769 E.07861
G1 X120.706 Y200.344 E.08237
G1 X119.914 Y199.648 E.09587
G1 X119.287 Y198.741 E.10026
G1 X119.036 Y198.129 E.06015
G1 X118.902 Y197.554 E.05369
G1 X118.399 Y197.309 E.05087
G1 X117.573 Y196.646 E.09631
G1 X116.994 Y196.098 E.07249
G1 X116.485 Y195.562 E.06721
G1 X115.893 Y194.854 E.08392
G1 X115.539 Y194.202 E.06746
G1 X114.626 Y193.936 E.08647
G1 X113.625 Y193.335 E.10617
G1 X112.9 Y192.592 E.09439
G1 X112.395 Y191.74 E.09006
G1 X112.105 Y190.857 E.08451
G1 X112.038 Y190.351 E.04641
G1 X112.039 Y155.173 E3.19872
G1 X112.11 Y154.647 E.04826
G1 X112.412 Y153.75 E.08606
G1 X112.915 Y152.915 E.08864
G1 X113.624 Y152.191 E.09214
G1 X114.595 Y151.604 E.10317
G1 X115.322 Y151.355 E.06988
G1 X115.553 Y151.31 E.0214
G1 X115.792 Y150.824 E.04925
G1 X116.455 Y149.997 E.09638
G1 X117.003 Y149.418 E.07249
G1 X117.546 Y148.903 E.06805
G1 X118.26 Y148.31 E.0844
G1 X118.899 Y147.963 E.06612
G1 X119.027 Y147.41 E.05161
G1 X119.365 Y146.641 E.07638
G1 X119.867 Y145.935 E.07877
G1 X120.441 Y145.399 E.07141
G1 X120.864 Y145.85 F7800
G1 F1800
G1 X121.538 Y145.427 E.07236
G1 X122.281 Y145.167 E.07158
G1 X123.129 Y145.069 E.07762
G1 X132.421 Y145.08 E.84492
G1 X133.31 Y145.256 E.08241
G1 X134.109 Y145.626 E.08006
G1 X134.9 Y146.3 E.09449
G1 X135.423 Y147.051 E.08322
G1 X135.652 Y147.608 E.05476
G1 X135.831 Y148.413 E.07499
G1 X136.518 Y148.729 E.06876
G1 X137.302 Y149.359 E.09145
G1 X137.825 Y149.853 E.06542
G1 X138.324 Y150.378 E.06586
G1 X138.889 Y151.058 E.08039
G1 X139.31 Y151.854 E.08188
G1 X140.376 Y152.152 E.10065
G1 X141.302 Y152.711 E.09835
G1 X141.853 Y153.279 E.07196
G1 X142.256 Y153.925 E.06923
G1 X142.566 Y154.826 E.08664
G1 X142.625 Y155.175 E.03218
G1 X143.104 Y155.22 E.04375
G1 X143.282 Y154.732 E.04723
G1 X143.687 Y154.083 E.06956
G1 X144.238 Y153.516 E.07189
G1 X145.163 Y152.958 E.09823
G1 X146.262 Y152.655 E.10366
G1 X146.574 Y151.977 E.06786
G1 X147.203 Y151.198 E.09104
G1 X147.692 Y150.681 E.06471
G1 X148.217 Y150.182 E.06586
G1 X148.898 Y149.617 E.08046
G1 X149.724 Y149.181 E.08493
G1 X149.879 Y148.443 E.06857
G1 X150.105 Y147.877 E.05542
G1 X150.554 Y147.201 E.07379
G1 X151.073 Y146.69 E.06623
G1 X151.781 Y146.239 E.07633
G1 X152.327 Y146.036 E.05297
G1 X153.217 Y145.875 E.08224
G1 X162.467 Y145.875 E.8411
G1 X163.322 Y145.989 E.07843
G1 X164.11 Y146.287 E.07661
G1 X164.753 Y146.713 E.07014
G1 X165.308 Y147.28 E.07215
G1 X165.702 Y147.889 E.06595
G1 X165.924 Y148.428 E.05301
G1 X166.105 Y149.223 E.07414
G1 X166.769 Y149.527 E.0664
G1 X167.56 Y150.16 E.09212
G1 X168.098 Y150.669 E.06734
G1 X168.581 Y151.177 E.06374
G1 X169.138 Y151.841 E.07881
G1 X169.587 Y152.679 E.08645
G1 X170.525 Y152.914 E.08793
G1 X171.173 Y153.234 E.06572
G1 X171.736 Y153.669 E.06469
G1 X172.175 Y154.167 E.06037
G1 X172.523 Y154.738 E.0608
G1 X172.827 Y155.626 E.08535
G1 X172.876 Y155.999 E.03421
G1 X172.876 Y191.14 E3.19536
G1 X172.84 Y191.454 E.02874
G1 X172.549 Y192.343 E.08506
G1 X172.074 Y193.106 E.08173
G1 X171.505 Y193.668 E.07272
G1 X170.64 Y194.179 E.09135
G1 X169.542 Y194.482 E.10357
G1 X169.235 Y195.148 E.06668
G1 X168.605 Y195.933 E.09152
G1 X168.111 Y196.455 E.06535
G1 X167.585 Y196.955 E.06599
G1 X166.904 Y197.52 E.08046
G1 X166.077 Y197.957 E.08505
G1 X165.922 Y198.698 E.06884
G1 X165.725 Y199.204 E.04937
G1 X165.25 Y199.934 E.07919
G1 X164.667 Y200.497 E.0737
G1 X164.004 Y200.907 E.07088
G1 X163.47 Y201.102 E.05169
G1 X162.581 Y201.263 E.08215
G1 X153.026 Y201.243 E.86883
G1 X152.651 Y201.193 E.0344
G1 X151.805 Y200.905 E.08126
G1 X151.013 Y200.4 E.08541
G1 X150.425 Y199.771 E.07829
G1 X150.019 Y199.07 E.07366
G1 X149.799 Y198.425 E.06197
G1 X149.727 Y197.929 E.04557
G1 X149.021 Y197.602 E.07075
G1 X148.237 Y196.972 E.09145
G1 X147.714 Y196.478 E.06542
G1 X147.215 Y195.953 E.06586
G1 X146.651 Y195.273 E.08033
G1 X146.229 Y194.477 E.08192
G1 X145.161 Y194.179 E.10082
G1 X144.296 Y193.667 E.0914
G1 X143.728 Y193.105 E.07266
G1 X143.253 Y192.341 E.0818
G1 X142.973 Y191.507 E.08
G1 X142.915 Y191.156 E.03235
G1 X142.436 Y191.111 E.04375
G1 X142.255 Y191.604 E.04775
G1 X141.849 Y192.252 E.06953
G1 X141.298 Y192.818 E.07183
G1 X140.392 Y193.366 E.09628
G1 X139.792 Y193.566 E.05751
G1 X139.297 Y193.636 E.04546
G1 X138.965 Y194.354 E.07193
G1 X138.336 Y195.133 E.09104
G1 X137.847 Y195.65 E.06471
G1 X137.323 Y196.149 E.0658
G1 X136.643 Y196.713 E.08033
G1 X135.846 Y197.135 E.082
G1 X135.547 Y198.206 E.10111
G1 X134.985 Y199.132 E.09849
G1 X134.403 Y199.691 E.07338
G1 X133.728 Y200.106 E.07205
G1 X132.456 Y200.448 E.11977
G1 X122.578 Y200.412 E.89821
G1 X122.443 Y200.395 E.01237
G1 X121.716 Y200.179 E.06896
G1 X121.037 Y199.813 E.07014
G1 X120.359 Y199.208 E.08263
G1 X119.853 Y198.473 E.08114
G1 X119.625 Y197.918 E.05456
G1 X119.445 Y197.113 E.07501
G1 X118.758 Y196.796 E.0688
G1 X117.974 Y196.166 E.09145
G1 X117.441 Y195.662 E.0667
G1 X116.958 Y195.154 E.06374
G1 X116.395 Y194.48 E.07985
G1 X115.966 Y193.671 E.08326
G1 X114.905 Y193.376 E.10014
G1 X114.038 Y192.865 E.09151
G1 X113.418 Y192.239 E.08011
G1 X112.951 Y191.452 E.08321
G1 X112.71 Y190.696 E.07215
G1 X112.663 Y190.332 E.03337
G1 X112.663 Y155.193 E3.19517
G1 X112.713 Y154.817 E.03449
G1 X112.992 Y153.983 E.07997
G1 X113.427 Y153.274 E.07564
G1 X114.037 Y152.661 E.07864
G1 X114.883 Y152.16 E.0894
G1 X115.484 Y151.96 E.0576
G1 X115.978 Y151.889 E.04538
G1 X116.305 Y151.183 E.07075
G1 X116.935 Y150.399 E.09145
G1 X117.439 Y149.865 E.06677
G1 X117.954 Y149.377 E.06451
G1 X118.633 Y148.812 E.08032
G1 X119.449 Y148.38 E.08396
G1 X119.613 Y147.631 E.06972
G1 X119.923 Y146.924 E.0702
