;FLAVOR:RepRap
;TIME:11350
;Filament used: 33.3894m
;Layer height: 0.3
;MINX:38.025
;MINY:59.13
;MINZ:0.3
;MAXX:316.975
;MAXY:279.925
;MAXZ:6.5
;TARGET_MACHINE.NAME:Fusion3 F410
;Generated with Cura_SteamEngine 5.9.1
T0
M82 ;absolute extrusion mode
; Fusion3 F410 start code
M104 S0 ; shutdown heater and prepare to print
G21  ; set units to mm
G90  ; use absolute coordinates
T0  ; select tool 0
G92 E0.0  ; reset e count
M220 S100 ; reset speed multiplier
M140 S50  ; set bed temp and do not wait
G32  ; call to run bed.g
M190 S50 ; Set bed temperature and wait
M109 S220 ; set print head temperature and wait
; === pause for heating ===
; reset filament monitor
M42 P63 S0
G4 P100
G4 P50
M42 P63 S1
G1 X350 Y0
G1 Z10.0 F2000  ; move up
G1 E10.0 F500  ; prime extruder
G92 E0.0  ; reset e count
G1 X330 Y15 F9000  ; move back
G1 Z0.3 F1000  ; move down to begin wipe
G1 X150 E4.0 F6000  ; wipe print head (extrude material while we do this)
G92 E0.0  ; reset e count

M83 ;relative extrusion mode
G1 F6000 E-4.25
;LAYER_COUNT:21
;LAYER:0
M107
G1 F300 Z0.5
G0 F6000 X39.964 Y147.262 Z0.5
;TYPE:SKIRT
G1 F300 Z0.3
G1 F6000 E4.25
G1 F4800 X38.927 Y144.784 E0.13895
G1 X38.524 Y143.845 E0.05286
G1 X38.263 Y143.102 E0.04073
G1 X38.113 Y142.413 E0.03647
G1 X38.036 Y141.56 E0.0443
G1 X38.025 Y140.893 E0.03451
G1 X38.026 Y103.975 E1.90963
G1 X38.038 Y103.218 E0.03916
G1 X38.087 Y102.573 E0.03346
G1 X38.26 Y101.72 E0.04502
G1 X38.506 Y101.005 E0.03911
G1 X38.786 Y100.423 E0.03341
G1 X39.253 Y99.695 E0.04474
G1 X39.635 Y99.233 E0.03101
G1 X39.97 Y98.878 E0.02525
G1 X52.111 Y86.733 E0.88828
G1 X52.641 Y86.223 E0.03805
G1 X53.22 Y85.738 E0.03907
G1 X53.807 Y85.354 E0.03628
G1 X54.539 Y84.996 E0.04215
G1 X55.257 Y84.753 E0.03921
G1 X55.945 Y84.61 E0.03635
G1 X56.745 Y84.541 E0.04153
G1 X57.396 Y84.53 E0.03368
G1 X218.851 Y84.53 E8.35145
G1 X221.501 Y84.492 E0.13709
G1 X224.172 Y84.379 E0.13828
G1 X226.805 Y84.191 E0.13654
G1 X229.488 Y83.926 E0.13946
G1 X232.081 Y83.594 E0.13522
G1 X234.742 Y83.178 E0.13932
G1 X237.313 Y82.699 E0.13528
G1 X239.923 Y82.138 E0.13809
G1 X242.491 Y81.508 E0.13677
G1 X245.093 Y80.792 E0.13959
G1 X247.593 Y80.026 E0.13525
G1 X250.127 Y79.171 E0.13833
G1 X252.583 Y78.265 E0.13541
G1 X255.107 Y77.251 E0.1407
G1 X257.521 Y76.202 E0.13615
G1 X259.897 Y75.087 E0.13576
G1 X262.264 Y73.896 E0.13706
G1 X264.615 Y72.627 E0.13819
G1 X266.924 Y71.295 E0.13788
G1 X269.215 Y69.885 E0.13915
G1 X271.402 Y68.452 E0.13525
G1 X273.577 Y66.937 E0.13711
G1 X275.714 Y65.359 E0.13741
G1 X277.805 Y63.721 E0.13739
G1 X279.865 Y62.009 E0.13855
G1 X280.853 Y61.14 E0.06806
G1 X281.468 Y60.613 E0.04189
G1 X282.122 Y60.127 E0.04215
G1 X282.78 Y59.755 E0.0391
G1 X283.375 Y59.504 E0.0334
G1 X284.237 Y59.265 E0.04627
G1 X285.184 Y59.148 E0.04936
G1 X285.756 Y59.13 E0.0296
G1 X297.456 Y59.13 E0.6052
G1 X298.287 Y59.143 E0.04299
G1 X298.932 Y59.192 E0.03346
G1 X299.785 Y59.365 E0.04502
G1 X300.5 Y59.611 E0.03911
G1 X301.13 Y59.918 E0.03625
G1 X301.814 Y60.362 E0.04218
G1 X302.327 Y60.792 E0.03462
G1 X302.784 Y61.228 E0.03267
G1 X314.763 Y73.205 E0.87621
G1 X315.255 Y73.713 E0.03658
G1 X315.728 Y74.269 E0.03776
G1 X316.174 Y74.949 E0.04206
G1 X316.484 Y75.579 E0.03632
G1 X316.719 Y76.238 E0.03619
G1 X316.894 Y77.034 E0.04216
G1 X316.965 Y77.861 E0.04293
G1 X316.975 Y78.517 E0.03394
G1 X316.974 Y140.852 E3.22435
G1 X316.961 Y141.595 E0.03844
G1 X316.893 Y142.379 E0.04071
G1 X316.746 Y143.079 E0.037
G1 X316.306 Y144.659 E0.08484
G1 X315.611 Y147.346 E0.14356
G1 X315.022 Y149.923 E0.13674
G1 X314.512 Y152.482 E0.13497
G1 X314.065 Y155.112 E0.13799
G1 X313.694 Y157.748 E0.13769
G1 X313.395 Y160.406 E0.13836
G1 X313.174 Y163.048 E0.13714
G1 X313.029 Y165.674 E0.13604
G1 X312.957 Y168.342 E0.13806
G1 X312.961 Y170.967 E0.13578
G1 X313.041 Y173.679 E0.14034
G1 X313.189 Y176.251 E0.13326
G1 X313.422 Y178.937 E0.13946
G1 X313.728 Y181.598 E0.13855
G1 X314.098 Y184.184 E0.13513
G1 X314.551 Y186.803 E0.13748
G1 X315.081 Y189.43 E0.13862
G1 X315.673 Y191.992 E0.13601
G1 X316.356 Y194.601 E0.1395
G1 X316.748 Y195.993 E0.0748
G1 X316.885 Y196.625 E0.03345
G1 X316.964 Y197.49 E0.04493
G1 X316.975 Y198.138 E0.03352
G1 X316.974 Y260.48 E3.22471
G1 X316.962 Y261.237 E0.03916
G1 X316.913 Y261.882 E0.03346
G1 X316.74 Y262.735 E0.04502
G1 X316.494 Y263.45 E0.03911
G1 X316.214 Y264.032 E0.03341
G1 X315.747 Y264.76 E0.04474
G1 X315.365 Y265.222 E0.03101
G1 X315.03 Y265.577 E0.02525
G1 X302.902 Y277.708 E0.8873
G1 X302.368 Y278.225 E0.03845
G1 X301.877 Y278.645 E0.03342
G1 X301.15 Y279.125 E0.04506
G1 X300.521 Y279.434 E0.03625
G1 X299.754 Y279.699 E0.04198
G1 X299.122 Y279.835 E0.03344
G1 X298.255 Y279.914 E0.04503
G1 X297.588 Y279.925 E0.03451
G1 X57.469 Y279.924 E12.42043
G1 X56.713 Y279.912 E0.03911
G1 X56.069 Y279.863 E0.03341
G1 X55.218 Y279.691 E0.04491
G1 X54.605 Y279.485 E0.03345
G1 X53.822 Y279.11 E0.04491
G1 X53.279 Y278.761 E0.03339
G1 X52.698 Y278.287 E0.03879
G1 X52.373 Y277.98 E0.02313
G1 X40.233 Y265.843 E0.88795
G1 X39.724 Y265.317 E0.03786
G1 X39.304 Y264.826 E0.03342
G1 X38.824 Y264.099 E0.04506
G1 X38.493 Y263.416 E0.03926
G1 X38.265 Y262.753 E0.03627
G1 X38.098 Y261.956 E0.04212
G1 X38.036 Y261.205 E0.03898
G1 X38.025 Y260.538 E0.03451
G1 X38.026 Y223.612 E1.91004
G1 X38.039 Y222.848 E0.03952
G1 X38.089 Y222.204 E0.03341
G1 X38.25 Y221.401 E0.04236
G1 X38.545 Y220.553 E0.04644
G1 X38.899 Y219.74 E0.04587
G1 X39.958 Y217.21 E0.14187
G1 X40.925 Y214.697 E0.13928
G1 X41.795 Y212.233 E0.13516
G1 X42.6 Y209.728 E0.1361
G1 X43.354 Y207.137 E0.13958
G1 X44.009 Y204.624 E0.13433
G1 X44.622 Y201.967 E0.14105
G1 X45.132 Y199.41 E0.13487
G1 X45.583 Y196.778 E0.13813
G1 X45.961 Y194.122 E0.13877
G1 X46.258 Y191.517 E0.13562
G1 X46.483 Y188.884 E0.13669
G1 X46.632 Y186.228 E0.1376
G1 X46.709 Y183.552 E0.13848
G1 X46.709 Y180.903 E0.13702
G1 X46.634 Y178.26 E0.13677
G1 X46.483 Y175.57 E0.13936
G1 X46.263 Y172.977 E0.13461
G1 X45.959 Y170.322 E0.13823
G1 X45.588 Y167.691 E0.13744
G1 X45.139 Y165.081 E0.13699
G1 X44.621 Y162.5 E0.13617
G1 X44.022 Y159.888 E0.13862
G1 X43.349 Y157.303 E0.13817
G1 X42.61 Y154.76 E0.13698
G1 X41.796 Y152.227 E0.13762
G1 X40.909 Y149.72 E0.13755
G1 X39.964 Y147.262 E0.13622
G0 F6000 X40.384 Y147.101
G1 F4800 X39.342 Y144.61 E0.13967
G1 X38.948 Y143.694 E0.05158
G1 X38.703 Y143.006 E0.03778
G1 X38.553 Y142.317 E0.03647
G1 X38.486 Y141.552 E0.03972
G1 X38.475 Y140.893 E0.03409
G1 X38.476 Y103.982 E1.90926
G1 X38.487 Y103.252 E0.03776
G1 X38.536 Y102.607 E0.03346
G1 X38.686 Y101.865 E0.03916
G1 X38.912 Y101.2 E0.03633
G1 X39.192 Y100.618 E0.03341
G1 X39.6 Y99.982 E0.03909
G1 X39.982 Y99.52 E0.03101
G1 X40.288 Y99.196 E0.02305
G1 X52.423 Y87.057 E0.88784
G1 X52.931 Y86.567 E0.03651
G1 X53.466 Y86.115 E0.03623
G1 X54.053 Y85.731 E0.03628
G1 X54.685 Y85.422 E0.03639
G1 X55.349 Y85.194 E0.03631
G1 X56.037 Y85.051 E0.03635
G1 X56.753 Y84.991 E0.03717
G1 X57.404 Y84.98 E0.03368
G1 X218.857 Y84.98 E8.35134
G1 X221.52 Y84.942 E0.13776
G1 X224.191 Y84.829 E0.13828
G1 X226.844 Y84.64 E0.13758
G1 X229.532 Y84.374 E0.13972
G1 X232.151 Y84.039 E0.13657
G1 X234.812 Y83.622 E0.13932
G1 X237.408 Y83.139 E0.13659
G1 X240.018 Y82.578 E0.13809
G1 X242.608 Y81.942 E0.13795
G1 X245.212 Y81.226 E0.13969
G1 X247.725 Y80.456 E0.13595
G1 X250.283 Y79.593 E0.13964
G1 X252.751 Y78.683 E0.13606
G1 X255.275 Y77.669 E0.1407
G1 X257.7 Y76.615 E0.13677
G1 X260.099 Y75.489 E0.13708
G1 X262.478 Y74.292 E0.13776
G1 X264.838 Y73.018 E0.13873
G1 X267.149 Y71.685 E0.138
G1 X269.451 Y70.268 E0.13982
G1 X271.649 Y68.828 E0.13592
G1 X273.843 Y67.3 E0.1383
G1 X275.992 Y65.713 E0.13819
G1 X278.083 Y64.075 E0.13739
G1 X280.153 Y62.355 E0.13921
G1 X281.146 Y61.482 E0.06839
G1 X281.761 Y60.955 E0.04189
G1 X282.345 Y60.518 E0.03773
G1 X282.955 Y60.17 E0.03633
G1 X283.55 Y59.919 E0.0334
G1 X284.292 Y59.712 E0.03985
G1 X285.239 Y59.595 E0.04936
G1 X285.769 Y59.58 E0.02743
G1 X297.449 Y59.58 E0.60416
G1 X298.253 Y59.592 E0.04159
G1 X298.898 Y59.641 E0.03346
G1 X299.64 Y59.791 E0.03916
G1 X300.305 Y60.017 E0.03633
G1 X300.887 Y60.297 E0.03341
G1 X301.525 Y60.707 E0.03923
G1 X302.038 Y61.137 E0.03462
G1 X302.466 Y61.546 E0.03062
G1 X314.44 Y73.519 E0.87588
G1 X314.912 Y74.005 E0.03504
G1 X315.385 Y74.561 E0.03776
G1 X315.77 Y75.148 E0.03631
G1 X316.08 Y75.778 E0.03632
G1 X316.294 Y76.387 E0.03339
G1 X316.446 Y77.073 E0.03634
G1 X316.515 Y77.868 E0.04128
G1 X316.525 Y78.517 E0.03357
G1 X316.524 Y140.844 E3.22394
G1 X316.511 Y141.587 E0.03844
G1 X316.452 Y142.287 E0.03634
G1 X316.312 Y142.958 E0.03546
G1 X315.872 Y144.538 E0.08484
G1 X315.175 Y147.233 E0.14399
G1 X314.583 Y149.823 E0.13743
G1 X314.068 Y152.407 E0.13629
G1 X313.621 Y155.037 E0.13799
G1 X313.248 Y157.685 E0.13832
G1 X312.948 Y160.356 E0.13903
G1 X312.726 Y163.01 E0.13776
G1 X312.579 Y165.662 E0.13739
G1 X312.507 Y168.33 E0.13806
G1 X312.511 Y170.98 E0.13707
G1 X312.591 Y173.692 E0.14034
G1 X312.741 Y176.29 E0.13461
G1 X312.975 Y178.988 E0.14008
G1 X313.281 Y181.649 E0.13855
G1 X313.655 Y184.261 E0.13649
G1 X314.11 Y186.892 E0.13811
G1 X314.64 Y189.519 E0.13862
G1 X315.238 Y192.106 E0.13734
G1 X315.923 Y194.723 E0.13993
G1 X316.308 Y196.088 E0.07336
G1 X316.445 Y196.72 E0.03345
G1 X316.514 Y197.498 E0.0404
G1 X316.525 Y198.138 E0.03311
G1 X316.524 Y260.473 E3.22435
G1 X316.513 Y261.203 E0.03776
G1 X316.464 Y261.848 E0.03346
G1 X316.314 Y262.59 E0.03916
G1 X316.088 Y263.255 E0.03633
G1 X315.808 Y263.837 E0.03341
G1 X315.4 Y264.473 E0.03909
G1 X315.018 Y264.935 E0.03101
G1 X314.712 Y265.259 E0.02305
G1 X302.589 Y277.385 E0.88693
G1 X302.075 Y277.883 E0.03702
G1 X301.584 Y278.303 E0.03342
G1 X300.952 Y278.721 E0.03919
G1 X300.323 Y279.03 E0.03625
G1 X299.659 Y279.259 E0.03633
G1 X299.027 Y279.395 E0.03344
G1 X298.247 Y279.464 E0.0405
G1 X297.588 Y279.475 E0.03409
G1 X57.476 Y279.474 E12.42007
G1 X56.747 Y279.463 E0.03771
G1 X56.103 Y279.414 E0.03341
G1 X55.361 Y279.264 E0.03916
G1 X54.748 Y279.058 E0.03345
G1 X54.065 Y278.731 E0.03917
G1 X53.522 Y278.382 E0.03339
G1 X53.007 Y277.96 E0.03444
G1 X52.691 Y277.662 E0.02247
G1 X40.556 Y265.53 E0.88759
G1 X40.066 Y265.024 E0.03643
G1 X39.646 Y264.533 E0.03342
G1 X39.228 Y263.901 E0.03919
G1 X38.919 Y263.27 E0.03634
G1 X38.691 Y262.607 E0.03627
G1 X38.546 Y261.919 E0.03637
G1 X38.486 Y261.197 E0.03748
G1 X38.475 Y260.538 E0.03409
G1 X38.476 Y223.619 E1.90968
G1 X38.488 Y222.883 E0.03808
G1 X38.538 Y222.239 E0.03341
G1 X38.691 Y221.491 E0.03949
G1 X38.958 Y220.733 E0.04157
G1 X39.312 Y219.92 E0.04587
G1 X40.373 Y217.384 E0.1422
G1 X41.345 Y214.859 E0.13995
G1 X42.219 Y212.383 E0.13582
G1 X43.032 Y209.854 E0.13741
G1 X43.786 Y207.263 E0.13958
G1 X44.444 Y204.737 E0.13502
G1 X45.06 Y202.068 E0.14169
G1 X45.576 Y199.486 E0.1362
G1 X46.027 Y196.854 E0.13813
G1 X46.407 Y194.185 E0.13945
G1 X46.705 Y191.568 E0.13624
G1 X46.931 Y188.922 E0.13737
G1 X47.082 Y186.241 E0.1389
G1 X47.159 Y183.565 E0.13848
G1 X47.159 Y180.903 E0.1377
G1 X47.084 Y178.247 E0.13744
G1 X46.932 Y175.545 E0.13999
G1 X46.711 Y172.939 E0.13528
G1 X46.405 Y170.259 E0.13953
G1 X46.033 Y167.628 E0.13745
G1 X45.582 Y165.005 E0.13767
G1 X45.06 Y162.399 E0.13748
G1 X44.46 Y159.787 E0.13863
G1 X43.784 Y157.19 E0.13881
G1 X43.042 Y154.635 E0.13762
G1 X42.224 Y152.089 E0.13833
G1 X41.333 Y149.57 E0.13821
G1 X40.384 Y147.101 E0.13682
G0 F6000 X40.804 Y146.94
G1 F4800 X39.757 Y144.436 E0.14039
G1 X39.361 Y143.516 E0.05181
G1 X39.142 Y142.908 E0.03343
G1 X39.001 Y142.277 E0.03344
G1 X38.936 Y141.544 E0.03806
G1 X38.925 Y140.893 E0.03368
G1 X38.926 Y103.988 E1.90895
G1 X38.936 Y103.286 E0.03632
G1 X38.985 Y102.641 E0.03346
G1 X39.113 Y102.008 E0.03341
G1 X39.318 Y101.395 E0.03343
G1 X39.598 Y100.813 E0.03341
G1 X39.947 Y100.269 E0.03343
G1 X40.329 Y99.807 E0.03101
G1 X40.606 Y99.514 E0.02086
G1 X52.736 Y87.38 E0.88748
G1 X53.223 Y86.909 E0.03504
G1 X53.714 Y86.49 E0.03339
G1 X54.253 Y86.134 E0.03341
G1 X54.833 Y85.847 E0.03347
G1 X55.443 Y85.634 E0.03342
G1 X56.075 Y85.499 E0.03343
G1 X56.761 Y85.441 E0.03561
G1 X57.412 Y85.43 E0.03368
G1 X218.863 Y85.43 E8.35124
G1 X221.539 Y85.392 E0.13843
G1 X224.21 Y85.279 E0.13828
G1 X226.883 Y85.089 E0.13861
G1 X229.576 Y84.822 E0.13998
G1 X232.221 Y84.484 E0.13793
G1 X234.882 Y84.066 E0.13933
G1 X237.503 Y83.579 E0.13789
G1 X240.113 Y83.018 E0.13809
G1 X242.725 Y82.377 E0.13912
G1 X245.331 Y81.66 E0.13981
G1 X247.857 Y80.886 E0.13666
G1 X250.439 Y80.015 E0.14095
G1 X252.919 Y79.101 E0.13672
G1 X255.443 Y78.087 E0.1407
G1 X257.879 Y77.028 E0.1374
G1 X260.301 Y75.891 E0.1384
G1 X262.692 Y74.688 E0.13845
G1 X265.061 Y73.409 E0.13926
G1 X267.374 Y72.075 E0.13811
G1 X269.687 Y70.651 E0.1405
G1 X271.896 Y69.204 E0.1366
G1 X274.109 Y67.663 E0.13949
G1 X276.27 Y66.067 E0.13896
G1 X278.361 Y64.429 E0.13739
G1 X280.441 Y62.701 E0.13987
G1 X281.439 Y61.824 E0.06872
G1 X282.054 Y61.297 E0.04189
G1 X282.57 Y60.908 E0.03343
G1 X283.13 Y60.585 E0.03344
G1 X283.725 Y60.334 E0.0334
G1 X284.347 Y60.159 E0.03342
G1 X285.294 Y60.042 E0.04936
G1 X285.78 Y60.03 E0.02515
G1 X297.443 Y60.03 E0.60328
G1 X298.219 Y60.041 E0.04014
G1 X298.864 Y60.09 E0.03346
G1 X299.497 Y60.218 E0.03341
G1 X300.11 Y60.423 E0.03343
G1 X300.692 Y60.703 E0.03341
G1 X301.236 Y61.052 E0.03343
G1 X301.749 Y61.482 E0.03462
G1 X302.155 Y61.871 E0.02908
G1 X314.117 Y73.833 E0.87504
G1 X314.589 Y74.319 E0.03504
G1 X315.01 Y74.809 E0.03342
G1 X315.367 Y75.348 E0.03344
G1 X315.655 Y75.927 E0.03345
G1 X315.869 Y76.536 E0.03339
G1 X316.006 Y77.168 E0.03345
G1 X316.065 Y77.875 E0.0367
G1 X316.075 Y78.517 E0.03321
G1 X316.074 Y140.836 E3.22352
G1 X316.062 Y141.551 E0.03699
G1 X316.011 Y142.195 E0.03342
G1 X315.871 Y142.866 E0.03546
G1 X315.436 Y144.425 E0.08372
G1 X314.739 Y147.12 E0.14399
G1 X314.144 Y149.723 E0.13812
G1 X313.624 Y152.332 E0.13761
G1 X313.177 Y154.962 E0.13799
G1 X312.802 Y157.622 E0.13895
G1 X312.501 Y160.306 E0.1397
G1 X312.278 Y162.973 E0.13844
G1 X312.129 Y165.65 E0.13869
G1 X312.057 Y168.318 E0.13806
G1 X312.061 Y170.993 E0.13837
G1 X312.141 Y173.705 E0.14034
G1 X312.293 Y176.329 E0.13596
G1 X312.528 Y179.039 E0.1407
G1 X312.834 Y181.7 E0.13855
G1 X313.212 Y184.338 E0.13785
G1 X313.669 Y186.981 E0.13874
G1 X314.199 Y189.608 E0.13862
G1 X314.803 Y192.22 E0.13867
G1 X315.49 Y194.845 E0.14035
G1 X315.868 Y196.183 E0.07192
G1 X316.005 Y196.815 E0.03345
G1 X316.064 Y197.506 E0.03587
G1 X316.075 Y198.138 E0.0327
G1 X316.074 Y260.467 E3.22404
G1 X316.064 Y261.169 E0.03632
G1 X316.015 Y261.814 E0.03346
G1 X315.887 Y262.447 E0.03341
G1 X315.682 Y263.06 E0.03343
G1 X315.402 Y263.642 E0.03341
G1 X315.053 Y264.186 E0.03343
G1 X314.671 Y264.648 E0.03101
G1 X314.394 Y264.941 E0.02086
G1 X302.276 Y277.062 E0.88656
G1 X301.782 Y277.541 E0.03559
G1 X301.291 Y277.961 E0.03342
G1 X300.752 Y278.318 E0.03344
G1 X300.174 Y278.605 E0.03338
G1 X299.564 Y278.819 E0.03344
G1 X298.932 Y278.955 E0.03344
G1 X298.239 Y279.014 E0.03598
G1 X297.588 Y279.025 E0.03368
G1 X57.482 Y279.024 E12.41976
G1 X56.781 Y279.014 E0.03626
G1 X56.137 Y278.965 E0.03341
G1 X55.504 Y278.837 E0.03341
G1 X54.891 Y278.631 E0.03345
G1 X54.308 Y278.352 E0.03343
G1 X53.765 Y278.003 E0.03339
G1 X53.315 Y277.632 E0.03017
G1 X53.009 Y277.344 E0.02174
G1 X40.879 Y265.217 E0.88722
G1 X40.408 Y264.731 E0.03501
G1 X39.988 Y264.24 E0.03342
G1 X39.631 Y263.701 E0.03344
G1 X39.344 Y263.122 E0.03343
G1 X39.131 Y262.512 E0.03342
G1 X38.994 Y261.881 E0.0334
G1 X38.936 Y261.189 E0.03592
G1 X38.925 Y260.538 E0.03368
G1 X38.926 Y223.626 E1.90932
G1 X38.937 Y222.918 E0.03663
G1 X38.987 Y222.274 E0.03341
G1 X39.116 Y221.64 E0.03347
