;FLAVOR:RepRap
;TIME:3269
;Filament used: 6.32751m
;Layer height: 0.2
;MINX:145.975
;MINY:145.975
;MINZ:0.25
;MAXX:269.025
;MAXY:209.025
;MAXZ:6.45
;TARGET_MACHINE.NAME:Fusion3 F410
;Generated with Cura_SteamEngine 5.9.0
T0
M82 ;absolute extrusion mode
; Fusion3 F410 start code
M104 S0 ; shutdown heater and prepare to print
G21  ; set units to mm
G90  ; use absolute coordinates
T0  ; select tool 0
G92 E0.0  ; reset e count
M220 S100 ; reset speed multiplier
M140 S60  ; set bed temp and do not wait
G32  ; call to run bed.g
M190 S60 ; Set bed temperature and wait
M109 S215.0 ; set print head temperature and wait
; === pause for heating ===
; reset filament monitor
M42 P63 S0
G4 P100
G4 P50
M42 P63 S1
G1 X350 Y0
G1 Z10.0 F2000  ; move up
G1 E10.0 F500  ; prime extruder
G92 E0.0  ; reset e count
G1 X330 Y15 F9000  ; move back
G1 Z0.25 F1000  ; move down to begin wipe
G1 X150 E4.0 F6000  ; wipe print head (extrude material while we do this)
G92 E0.0  ; reset e count

M83 ;relative extrusion mode
G1 F6000 E-4.25
;LAYER_COUNT:31
;LAYER:0
M107
G1 F300 Z0.45
G0 F6000 X264.076 Y208.898 Z0.45
;TYPE:SKIRT
G1 F300 Z0.25
G1 F6000 E4.25
G1 F2400 X263.058 Y209.014 E0.04416
G1 X262.57 Y209.025 E0.02104
G1 X212.719 Y209.024 E2.14883
G1 X211.937 Y209.013 E0.03371
G1 X208.888 Y208.922 E0.13149
G1 X206.281 Y208.922 E0.11238
G1 X202.724 Y209.022 E0.15339
G1 X152.728 Y209.025 E2.15508
G1 X151.974 Y209.014 E0.0325
G1 X151.329 Y208.965 E0.02788
G1 X150.478 Y208.794 E0.03742
G1 X149.865 Y208.589 E0.02786
G1 X149.132 Y208.241 E0.03498
G1 X148.448 Y207.8 E0.03508
G1 X147.951 Y207.387 E0.02785
G1 X147.43 Y206.84 E0.03256
G1 X146.915 Y206.135 E0.03763
G1 X146.555 Y205.472 E0.03252
G1 X146.314 Y204.872 E0.02787
G1 X146.091 Y204.011 E0.03834
G1 X145.986 Y203.052 E0.04158
G1 X145.975 Y202.558 E0.0213
G1 X145.976 Y152.681 E2.14995
G1 X145.988 Y151.959 E0.03113
G1 X146.053 Y151.204 E0.03266
G1 X146.196 Y150.518 E0.03021
G1 X146.458 Y149.75 E0.03498
G1 X146.738 Y149.168 E0.02784
G1 X147.176 Y148.483 E0.03505
G1 X147.7 Y147.861 E0.03506
G1 X148.26 Y147.347 E0.03277
G1 X148.83 Y146.938 E0.03024
G1 X149.541 Y146.55 E0.03491
G1 X150.195 Y146.292 E0.03031
G1 X150.937 Y146.099 E0.03305
G1 X151.941 Y145.986 E0.04355
G1 X152.408 Y145.975 E0.02014
G1 X202.205 Y145.975 E2.14651
G1 X203.064 Y145.987 E0.03703
G1 X206.112 Y146.078 E0.13144
G1 X208.72 Y146.078 E0.11242
G1 X212.281 Y145.977 E0.15356
G1 X262.281 Y145.976 E2.15526
G1 X263.034 Y145.988 E0.03246
G1 X263.734 Y146.045 E0.03027
G1 X264.533 Y146.211 E0.03518
G1 X265.246 Y146.458 E0.03253
G1 X265.928 Y146.793 E0.03275
G1 X266.559 Y147.207 E0.03253
G1 X267.138 Y147.698 E0.03272
G1 X267.648 Y148.253 E0.03249
G1 X268.028 Y148.776 E0.02787
G1 X268.448 Y149.536 E0.03743
G1 X268.707 Y150.191 E0.03036
G1 X268.9 Y150.934 E0.03309
G1 X269.014 Y151.941 E0.04368
G1 X269.025 Y152.408 E0.02014
G1 X269.025 Y202.241 E2.14806
G1 X269.014 Y203.022 E0.03367
G1 X268.966 Y203.666 E0.02784
G1 X268.795 Y204.52 E0.03754
G1 X268.59 Y205.133 E0.02786
G1 X268.215 Y205.918 E0.0375
G1 X267.833 Y206.507 E0.03026
G1 X267.388 Y207.047 E0.03016
G1 X266.843 Y207.568 E0.0325
G1 X266.139 Y208.083 E0.0376
G1 X265.574 Y208.396 E0.02784
G1 X264.767 Y208.72 E0.03748
G1 X264.076 Y208.898 E0.03076
G0 F6000 X263.964 Y208.462
G1 F2400 X263.048 Y208.564 E0.03973
G1 X262.57 Y208.575 E0.02061
G1 X212.725 Y208.574 E2.14858
G1 X211.95 Y208.563 E0.03341
G1 X208.901 Y208.472 E0.13149
G1 X206.268 Y208.472 E0.1135
G1 X202.719 Y208.573 E0.15304
G1 X152.734 Y208.575 E2.15461
G1 X152.008 Y208.565 E0.0313
G1 X151.363 Y208.516 E0.02788
G1 X150.621 Y208.367 E0.03262
G1 X150.008 Y208.162 E0.02786
G1 X149.374 Y207.862 E0.03023
G1 X148.736 Y207.454 E0.03264
G1 X148.239 Y207.041 E0.02785
G1 X147.757 Y206.531 E0.03025
G1 X147.31 Y205.919 E0.03267
G1 X146.973 Y205.304 E0.03023
G1 X146.732 Y204.704 E0.02787
G1 X146.538 Y203.961 E0.0331
G1 X146.436 Y203.042 E0.03986
G1 X146.425 Y202.558 E0.02087
G1 X146.426 Y152.688 E2.14965
G1 X146.437 Y151.996 E0.02983
G1 X146.494 Y151.296 E0.03027
G1 X146.637 Y150.61 E0.03021
G1 X146.864 Y149.945 E0.03029
G1 X147.144 Y149.363 E0.02784
G1 X147.522 Y148.771 E0.03028
G1 X148.006 Y148.191 E0.03256
G1 X148.522 Y147.713 E0.03032
G1 X149.092 Y147.304 E0.03024
G1 X149.708 Y146.968 E0.03025
G1 X150.308 Y146.728 E0.02786
G1 X151.05 Y146.535 E0.03305
G1 X151.952 Y146.436 E0.03911
G1 X152.419 Y146.425 E0.02014
G1 X202.199 Y146.425 E2.14577
G1 X203.051 Y146.437 E0.03673
G1 X206.099 Y146.528 E0.13144
G1 X208.733 Y146.528 E0.11354
G1 X212.281 Y146.427 E0.153
G1 X262.274 Y146.426 E2.15496
G1 X263 Y146.437 E0.0313
G1 X263.644 Y146.486 E0.02784
G1 X264.388 Y146.637 E0.03272
G1 X265.05 Y146.863 E0.03015
G1 X265.683 Y147.17 E0.03033
G1 X266.27 Y147.552 E0.03019
G1 X266.808 Y148.004 E0.03029
G1 X267.284 Y148.518 E0.0302
G1 X267.664 Y149.041 E0.02787
G1 X268.03 Y149.704 E0.03264
G1 X268.271 Y150.304 E0.02787
G1 X268.464 Y151.047 E0.03309
G1 X268.564 Y151.952 E0.03925
G1 X268.575 Y152.419 E0.02014
G1 X268.575 Y202.235 E2.14733
G1 X268.565 Y202.989 E0.0325
G1 X268.517 Y203.633 E0.02784
G1 X268.368 Y204.377 E0.03271
G1 X268.163 Y204.99 E0.02786
G1 X267.837 Y205.673 E0.03262
G1 X267.455 Y206.262 E0.03026
G1 X267.042 Y206.759 E0.02785
G1 X266.533 Y207.242 E0.03025
G1 X265.921 Y207.689 E0.03267
G1 X265.356 Y208.002 E0.02784
G1 X264.655 Y208.284 E0.03257
G1 X263.964 Y208.462 E0.03076
G0 F6000 X263.914 Y208.015
G1 F2400 X263.037 Y208.114 E0.03804
G1 X262.57 Y208.125 E0.02014
G1 X212.731 Y208.124 E2.14832
G1 X211.963 Y208.113 E0.03311
G1 X208.914 Y208.022 E0.13149
G1 X206.255 Y208.022 E0.11462
G1 X202.719 Y208.123 E0.15248
G1 X152.74 Y208.125 E2.15435
G1 X152.042 Y208.116 E0.03009
G1 X151.397 Y208.067 E0.02788
G1 X150.764 Y207.94 E0.02783
G1 X150.151 Y207.735 E0.02786
G1 X149.568 Y207.456 E0.02786
G1 X149.024 Y207.108 E0.02784
G1 X148.527 Y206.695 E0.02785
G1 X148.085 Y206.223 E0.02787
G1 X147.704 Y205.701 E0.02786
G1 X147.391 Y205.136 E0.02784
G1 X147.15 Y204.536 E0.02787
G1 X146.985 Y203.911 E0.02786
G1 X146.886 Y203.032 E0.03813
G1 X146.875 Y202.558 E0.02044
G1 X146.876 Y152.695 E2.14935
G1 X146.886 Y152.03 E0.02867
G1 X146.935 Y151.386 E0.02784
G1 X147.064 Y150.753 E0.02785
G1 X147.27 Y150.14 E0.02788
G1 X147.55 Y149.558 E0.02784
G1 X147.9 Y149.015 E0.02785
G1 X148.314 Y148.519 E0.02785
G1 X148.786 Y148.077 E0.02787
G1 X149.309 Y147.698 E0.02784
G1 X149.875 Y147.386 E0.02786
G1 X150.475 Y147.146 E0.02786
G1 X151.1 Y146.982 E0.02785
G1 X151.963 Y146.886 E0.03743
G1 X152.43 Y146.875 E0.02014
G1 X202.193 Y146.875 E2.14504
G1 X203.038 Y146.887 E0.03643
G1 X206.086 Y146.978 E0.13144
G1 X208.746 Y146.978 E0.11466
G1 X212.281 Y146.877 E0.15244
G1 X262.268 Y146.876 E2.1547
G1 X262.966 Y146.886 E0.03009
G1 X263.61 Y146.935 E0.02784
G1 X264.244 Y147.063 E0.02788
G1 X264.856 Y147.269 E0.02783
G1 X265.439 Y147.548 E0.02786
G1 X265.982 Y147.898 E0.02785
G1 X266.479 Y148.311 E0.02785
G1 X266.92 Y148.783 E0.02784
G1 X267.3 Y149.306 E0.02787
G1 X267.612 Y149.872 E0.02786
G1 X267.853 Y150.472 E0.02787
G1 X268.017 Y151.097 E0.02785
G1 X268.114 Y151.963 E0.03756
G1 X268.125 Y152.43 E0.02014
G1 X268.125 Y202.229 E2.14659
G1 X268.116 Y202.956 E0.03134
G1 X268.068 Y203.6 E0.02784
G1 X267.941 Y204.234 E0.02787
G1 X267.736 Y204.847 E0.02786
G1 X267.458 Y205.43 E0.02784
G1 X267.109 Y205.974 E0.02786
G1 X266.696 Y206.471 E0.02785
G1 X266.225 Y206.914 E0.02787
G1 X265.703 Y207.295 E0.02786
G1 X265.138 Y207.608 E0.02784
G1 X264.539 Y207.849 E0.02783
G1 X263.914 Y208.015 E0.02787
G1 F6000 E-4.25
G1 F300 Z0.45
;MESH:elevatorShim2.stl
G0 F6000 X202.523 Y202.523 Z0.45
;TYPE:WALL-OUTER
G1 F300 Z0.25
G1 F6000 E4.25
G1 F2400 X202.523 Y152.473 E2.15741
G1 X152.473 Y152.473 E2.15741
G1 X152.473 Y202.523 E2.15741
G1 X202.523 Y202.523 E2.15741
G1 F6000 E-4.25
G1 F300 Z0.45
G0 F6000 X178.595 Y192.913 Z0.45
G1 F300 Z0.25
G1 F6000 E4.25
G1 F2400 X178.128 Y193.047 E0.02094
G1 X177.824 Y193.095 E0.01327
G1 X177.493 Y193.113 E0.01429
G1 X177.019 Y193.085 E0.02047
G1 X176.399 Y192.908 E0.02779
G1 X175.991 Y192.692 E0.0199
G1 X175.73 Y192.516 E0.01357
G1 X175.48 Y192.303 E0.01416
G1 X175.256 Y192.064 E0.01412
G1 X175.082 Y191.832 E0.0125
G1 X174.834 Y191.413 E0.02099
G1 X174.637 Y190.819 E0.02698
G1 X174.588 Y190.382 E0.01895
G1 X174.587 Y190.084 E0.01285
G1 X174.62 Y189.726 E0.0155
G1 X174.69 Y189.42 E0.01353
G1 X174.799 Y189.097 E0.01469
G1 X174.924 Y188.827 E0.01283
G1 X175.085 Y188.565 E0.01326
G1 X175.271 Y188.319 E0.01329
G1 X175.484 Y188.093 E0.01339
G1 X175.735 Y187.876 E0.0143
G1 X175.986 Y187.707 E0.01304
G1 X176.381 Y187.49 E0.01943
G1 X176.857 Y187.356 E0.02132
G1 X177.195 Y187.299 E0.01478
G1 X177.478 Y187.283 E0.01222
G1 X177.944 Y187.304 E0.02011
G1 X178.558 Y187.472 E0.02744
G1 X178.998 Y187.699 E0.02134
G1 X179.241 Y187.86 E0.01256
G1 X179.512 Y188.089 E0.01529
G1 X179.746 Y188.338 E0.01473
G1 X179.913 Y188.567 E0.01222
G1 X180.159 Y188.977 E0.02061
G1 X180.359 Y189.576 E0.02722
G1 X180.409 Y190.023 E0.01939
G1 X180.409 Y190.316 E0.01263
G1 X180.379 Y190.655 E0.01467
G1 X180.312 Y190.954 E0.01321
G1 X180.196 Y191.304 E0.01589
G1 X180.071 Y191.57 E0.01267
G1 X179.906 Y191.847 E0.0139
G1 X179.722 Y192.081 E0.01283
G1 X179.503 Y192.316 E0.01385
G1 X179.263 Y192.519 E0.01355
G1 X179.027 Y192.679 E0.01229
G1 X178.595 Y192.913 E0.02118
G1 F6000 E-4.25
G1 F300 Z0.45
G0 F6000 X178.128 Y180.347 Z0.45
G1 F300 Z0.25
G1 F6000 E4.25
G1 F2400 X177.801 Y180.397 E0.01426
G1 X177.514 Y180.413 E0.01239
G1 X177.064 Y180.393 E0.01942
G1 X176.418 Y180.217 E0.02886
G1 X176.005 Y180.001 E0.02009
G1 X175.749 Y179.831 E0.01325
G1 X175.48 Y179.603 E0.0152
G1 X175.263 Y179.373 E0.01363
G1 X175.082 Y179.132 E0.01299
G1 X174.837 Y178.719 E0.0207
G1 X174.637 Y178.12 E0.02722
G1 X174.587 Y177.673 E0.01939
G1 X174.587 Y177.384 E0.01246
G1 X174.62 Y177.026 E0.0155
G1 X174.69 Y176.72 E0.01353
G1 X174.799 Y176.397 E0.01469
G1 X174.924 Y176.127 E0.01283
G1 X175.085 Y175.865 E0.01326
G1 X175.271 Y175.619 E0.01329
G1 X175.484 Y175.393 E0.01339
G1 X175.735 Y175.176 E0.0143
G1 X175.986 Y175.007 E0.01304
G1 X176.381 Y174.79 E0.01943
G1 X176.857 Y174.656 E0.02132
G1 X177.195 Y174.599 E0.01478
G1 X177.478 Y174.583 E0.01222
G1 X177.944 Y174.604 E0.02011
G1 X178.558 Y174.772 E0.02744
G1 X178.998 Y174.999 E0.02134
G1 X179.262 Y175.176 E0.0137
G1 X179.512 Y175.389 E0.01416
G1 X179.746 Y175.638 E0.01473
G1 X179.913 Y175.867 E0.01222
G1 X180.159 Y176.277 E0.02061
G1 X180.359 Y176.876 E0.02722
G1 X180.409 Y177.323 E0.01939
G1 X180.409 Y177.616 E0.01263
G1 X180.376 Y177.97 E0.01533
G1 X180.312 Y178.254 E0.01255
G1 X180.202 Y178.592 E0.01532
G1 X180.071 Y178.87 E0.01325
G1 X179.906 Y179.147 E0.0139
G1 X179.722 Y179.381 E0.01283
G1 X179.52 Y179.6 E0.01284
G1 X179.263 Y179.819 E0.01455
G1 X179.01 Y179.989 E0.01314
G1 X178.635 Y180.197 E0.01848
G1 X178.128 Y180.347 E0.02279
G1 F6000 E-4.25
G1 F300 Z0.45
G0 F6000 X178.128 Y167.647 Z0.45
G1 F300 Z0.25
G1 F6000 E4.25
G1 F2400 X177.801 Y167.697 E0.01426
G1 X177.514 Y167.713 E0.01239
G1 X177.064 Y167.693 E0.01942
G1 X176.418 Y167.517 E0.02886
G1 X176.005 Y167.301 E0.02009
G1 X175.749 Y167.131 E0.01325
G1 X175.48 Y166.903 E0.0152
G1 X175.263 Y166.673 E0.01363
G1 X175.082 Y166.432 E0.01299
G1 X174.837 Y166.019 E0.0207
G1 X174.637 Y165.42 E0.02722
G1 X174.587 Y164.973 E0.01939
G1 X174.587 Y164.684 E0.01246
G1 X174.617 Y164.342 E0.0148
G1 X174.69 Y164.02 E0.01423
G1 X174.799 Y163.697 E0.01469
G1 X174.915 Y163.445 E0.01196
G1 X175.092 Y163.156 E0.01461
G1 X175.28 Y162.909 E0.01338
G1 X175.476 Y162.701 E0.01232
G1 X175.745 Y162.469 E0.01531
G1 X175.969 Y162.317 E0.01167
G1 X176.378 Y162.091 E0.02014
G1 X176.869 Y161.954 E0.02197
G1 X177.195 Y161.899 E0.01425
G1 X177.499 Y161.883 E0.01312
G1 X177.977 Y161.911 E0.02064
G1 X178.597 Y162.088 E0.02779
G1 X178.985 Y162.292 E0.0189
G1 X179.262 Y162.476 E0.01433
G1 X179.512 Y162.689 E0.01416
G1 X179.746 Y162.938 E0.01473
G1 X179.902 Y163.15 E0.01135
G1 X180.161 Y163.582 E0.02171
G1 X180.359 Y164.177 E0.02703
G1 X180.408 Y164.614 E0.01895
G1 X180.409 Y164.916 E0.01302
G1 X180.376 Y165.27 E0.01533
G1 X180.312 Y165.554 E0.01255
G1 X180.202 Y165.892 E0.01532
G1 X180.071 Y166.17 E0.01325
G1 X179.906 Y166.447 E0.0139
G1 X179.722 Y166.681 E0.01283
G1 X179.52 Y166.9 E0.01284
G1 X179.263 Y167.119 E0.01455
G1 X179.01 Y167.289 E0.01314
G1 X178.635 Y167.497 E0.01848
G1 X178.128 Y167.647 E0.02279
G0 F6000 X178.242 Y168.083
;TYPE:WALL-INNER
G1 F2400 X177.894 Y168.139 E0.01519
G1 X177.533 Y168.163 E0.0156
G1 X176.975 Y168.14 E0.02407
G1 X176.253 Y167.94 E0.03229
G1 X175.762 Y167.68 E0.02395
G1 X175.496 Y167.503 E0.01377
G1 X175.202 Y167.259 E0.01647
G1 X174.919 Y166.963 E0.01765
G1 X174.736 Y166.723 E0.01301
G1 X174.414 Y166.175 E0.0274
G1 X174.201 Y165.531 E0.02924
G1 X174.14 Y165.034 E0.02158
G1 X174.139 Y164.646 E0.01672
G1 X174.172 Y164.274 E0.0161
G1 X174.263 Y163.878 E0.01751
G1 X174.39 Y163.509 E0.01682
G1 X174.544 Y163.187 E0.01539
G1 X174.733 Y162.885 E0.01536
G1 X174.952 Y162.601 E0.01546
G1 X175.199 Y162.344 E0.01536
G1 X175.493 Y162.097 E0.01655
G1 X175.768 Y161.913 E0.01426
G1 X176.207 Y161.675 E0.02153
G1 X176.726 Y161.525 E0.02329
G1 X177.092 Y161.458 E0.01604
G1 X177.52 Y161.433 E0.01848
G1 X178.023 Y161.457 E0.02171
G1 X178.745 Y161.657 E0.03229
G1 X179.253 Y161.928 E0.02482
G1 X179.489 Y162.084 E0.01219
G1 X179.784 Y162.328 E0.0165
G1 X180.108 Y162.671 E0.02034
G1 X180.299 Y162.935 E0.01405
G1 X180.571 Y163.396 E0.02307
G1 X180.806 Y164.101 E0.03203
G1 X180.856 Y164.571 E0.02037
G1 X180.857 Y164.955 E0.01655
G1 X180.824 Y165.324 E0.01597
G1 X180.734 Y165.715 E0.01729
G1 X180.62 Y166.058 E0.01558
G1 X180.476 Y166.367 E0.01469
G1 X180.291 Y166.682 E0.01575
G1 X180.071 Y166.965 E0.01545
G1 X179.846 Y167.21 E0.01434
G1 X179.544 Y167.471 E0.01721
G1 X179.228 Y167.683 E0.0164
G1 X178.784 Y167.923 E0.02176
G1 X178.242 Y168.083 E0.02436
G0 F6000 X178.342 Y168.522
G1 F2400 X177.852 Y168.596 E0.02136
G1 X177.552 Y168.613 E0.01295
G1 X176.887 Y168.581 E0.0287
G1 X176.112 Y168.368 E0.03465
G1 X175.565 Y168.086 E0.02653
G1 X175.193 Y167.839 E0.01925
G1 X174.864 Y167.56 E0.01859
G1 X174.538 Y167.206 E0.02074
G1 X174.343 Y166.946 E0.01401
G1 X174.012 Y166.388 E0.02797
G1 X173.752 Y165.603 E0.03565
G1 X173.688 Y165.021 E0.02524
G1 X173.691 Y164.608 E0.0178
G1 X173.727 Y164.206 E0.0174
G1 X173.836 Y163.736 E0.0208
G1 X173.936 Y163.436 E0.01363
G1 X174.125 Y163.007 E0.02021
G1 X174.373 Y162.614 E0.02003
G1 X174.625 Y162.292 E0.01763
G1 X174.905 Y162.003 E0.01735
G1 X175.24 Y161.725 E0.01876
G1 X175.55 Y161.52 E0.01602
G1 X176.036 Y161.25 E0.02396
G1 X176.715 Y161.067 E0.03031
G1 X177.143 Y161 E0.01867
G1 X177.541 Y160.984 E0.01717
G1 X177.969 Y161.004 E0.01847
G1 X178.218 Y161.044 E0.01087
G1 X178.915 Y161.238 E0.03119
G1 X179.501 Y161.553 E0.02868
G1 X179.843 Y161.788 E0.01789
G1 X180.075 Y161.984 E0.01309
G1 X180.432 Y162.35 E0.02204
G1 X180.684 Y162.703 E0.0187
G1 X180.998 Y163.239 E0.02678
G1 X181.248 Y164.007 E0.03481
G1 X181.304 Y164.528 E0.02259
G1 X181.305 Y164.993 E0.02004
G1 X181.265 Y165.415 E0.01827
G1 X181.161 Y165.856 E0.01953
G1 X181.038 Y166.224 E0.01673
G1 X180.863 Y166.597 E0.01776
G1 X180.634 Y166.977 E0.01912
G1 X180.415 Y167.256 E0.01529
G1 X180.133 Y167.559 E0.01784
G1 X179.768 Y167.864 E0.0205
G1 X179.446 Y168.077 E0.01664
G1 X178.964 Y168.344 E0.02375
G1 X178.342 Y168.522 E0.02789
G1 F6000 E-4.25
G1 F300 Z0.45
G0 F6000 X180.299 Y175.635 Z0.45
G1 F300 Z0.25
G1 F6000 E4.25
G1 F2400 X180.582 Y176.121 E0.02424
G1 X180.795 Y176.765 E0.02924
G1 X180.859 Y177.299 E0.02318
G1 X180.857 Y177.655 E0.01535
