;FLAVOR:RepRap
;TIME:651
;Filament used: 0.821228m
;Layer height: 0.2
;MINX:164.025
;MINY:141.948
;MINZ:0.2
;MAXX:190.975
;MAXY:209.625
;MAXZ:11
;TARGET_MACHINE.NAME:Fusion3 F410
;Generated with Cura_SteamEngine 5.9.0
T0
M82 ;absolute extrusion mode
; Fusion3 F410 start code
M104 S0 ; shutdown heater and prepare to print
G21  ; set units to mm
G90  ; use absolute coordinates
T0  ; select tool 0
G92 E0.0  ; reset e count
M220 S100 ; reset speed multiplier
M140 S60  ; set bed temp and do not wait
G32  ; call to run bed.g
M190 S60 ; Set bed temperature and wait
M109 S200 ; set print head temperature and wait
; === pause for heating ===
; reset filament monitor
M42 P63 S0
G4 P100
G4 P50
M42 P63 S1
G1 X350 Y0
G1 Z10.0 F2000  ; move up
G1 E10.0 F500  ; prime extruder
G92 E0.0  ; reset e count
G1 X330 Y15 F9000  ; move back
G1 Z0.2 F1000  ; move down to begin wipe
G1 X150 E4.0 F6000  ; wipe print head (extrude material while we do this)
G92 E0.0  ; reset e count

M83 ;relative extrusion mode
G1 F6000 E-4
;LAYER_COUNT:55
;LAYER:0
M107
G1 F300 Z0.4
G0 F6000 X177.499 Y156.109 Z0.4
;TYPE:SKIRT
G1 F300 Z0.2
G1 F6000 E4
G1 F2400 X177.702 Y155.885 E0.01109
G1 X177.921 Y155.753 E0.00938
G1 X177.666 Y155.587 E0.01116
G1 X177.501 Y155.391 E0.00939
G1 X177.298 Y155.615 E0.01109
G1 X177.079 Y155.747 E0.00938
G1 X177.334 Y155.913 E0.01116
G1 X177.499 Y156.109 E0.00939
G1 F6000 E-4
G1 F300 Z0.4
G0 F6000 X177.925 Y159.74 Z0.4
G1 F300 Z0.2
G1 F6000 E4
G1 F2400 X177.703 Y159.657 E0.00869
G1 X177.5 Y159.518 E0.00902
G1 X177.209 Y159.695 E0.01249
G1 X177.075 Y159.746 E0.00526
G1 X177.066 Y188.197 E1.04328
G1 X177.934 Y188.201 E0.03183
G1 X177.925 Y159.74 E1.04364
G0 F6000 X178.375 Y159.381
G1 F2400 X177.957 Y159.286 E0.01572
G1 X177.666 Y159.087 E0.01293
G1 X177.501 Y158.891 E0.00939
G1 X177.298 Y159.115 E0.01109
G1 X176.976 Y159.31 E0.0138
G1 X176.625 Y159.375 E0.01309
G1 X176.616 Y188.724 E1.07621
G1 X176.992 Y188.647 E0.01407
G1 X178.059 Y188.652 E0.03913
G1 X178.384 Y188.721 E0.01218
G1 X178.375 Y159.381 E1.07588
G1 F6000 E-4
G1 F300 Z0.4
G0 F6000 X188.975 Y152.025 Z0.4
G1 F300 Z0.2
G1 F6000 E4
G1 F2400 X188.975 Y184.964 E1.20785
G1 X189.226 Y185.39 E0.01813
G1 X189.421 Y185.684 E0.01294
G1 X190.198 Y187.048 E0.05756
G1 X190.427 Y188.248 E0.0448
G1 X190.598 Y188.552 E0.01279
G1 X190.975 Y190.478 E0.07197
G1 X190.975 Y195.065 E0.1682
G1 X190.58 Y196.783 E0.06464
G1 X190.44 Y197.141 E0.0141
G1 X190.175 Y198.332 E0.04474
G1 X190.04 Y198.645 E0.0125
G1 X189.936 Y199.11 E0.01747
G1 X189.975 Y199.397 E0.01062
G1 X189.975 Y202.593 E0.1172
G1 X189.576 Y204.26 E0.06285
G1 X189.209 Y205.267 E0.0393
G1 X187.966 Y207.086 E0.08079
G1 X186.523 Y208.233 E0.06759
G1 X185.408 Y208.937 E0.04835
G1 X183.316 Y209.625 E0.08075
G1 X178.267 Y209.625 E0.18514
G1 X177.599 Y209.468 E0.02516
G1 X177.121 Y209.625 E0.01845
G1 X172.057 Y209.625 E0.18569
G1 X170.39 Y209.226 E0.06285
G1 X169.383 Y208.859 E0.0393
G1 X167.564 Y207.616 E0.08079
G1 X166.417 Y206.173 E0.06759
G1 X165.713 Y205.058 E0.04835
G1 X165.025 Y202.966 E0.08075
G1 X165.025 Y199.572 E0.12446
G1 X165.071 Y199.258 E0.01164
G1 X164.973 Y198.752 E0.0189
G1 X164.801 Y198.447 E0.01284
G1 X164.573 Y197.252 E0.04461
G1 X164.402 Y196.948 E0.01279
G1 X164.025 Y195.022 E0.07197
G1 X164.025 Y190.44 E0.16802
G1 X164.441 Y188.595 E0.06935
G1 X164.572 Y188.316 E0.0113
G1 X164.871 Y187.069 E0.04702
G1 X165.188 Y186.231 E0.03285
G1 X165.823 Y185.313 E0.04093
G1 X166.025 Y184.948 E0.0153
G1 X166.025 Y152.404 E1.19337
G1 X166.483 Y150.55 E0.07003
G1 X166.803 Y149.707 E0.03306
G1 X167.787 Y148.265 E0.06402
G1 X167.919 Y148.113 E0.00738
G1 X168.127 Y147.417 E0.02664
G1 X169.682 Y145.285 E0.09676
G1 X170.778 Y144.088 E0.05951
G1 X172.864 Y142.759 E0.0907
G1 X175.304 Y141.986 E0.09386
G1 X177.308 Y141.958 E0.07349
G1 X177.455 Y141.963 E0.00539
G1 X177.971 Y141.948 E0.01893
G1 X180.509 Y142.154 E0.09337
G1 X183.167 Y143.315 E0.10636
G1 X185.006 Y144.89 E0.08879
G1 X186.179 Y146.362 E0.06902
G1 X187.105 Y148.115 E0.0727
G1 X187.184 Y148.321 E0.00809
G1 X187.654 Y148.927 E0.02812
G1 X188.295 Y149.956 E0.04445
G1 X188.975 Y152.025 E0.07986
G0 F6000 X188.525 Y152.096
G1 F2400 X188.525 Y185.088 E1.20979
G1 X188.838 Y185.619 E0.0226
G1 X189.03 Y185.907 E0.01269
G1 X189.77 Y187.206 E0.05482
G1 X189.999 Y188.405 E0.04476
G1 X190.17 Y188.709 E0.01279
G1 X190.525 Y190.523 E0.06778
G1 X190.525 Y195.012 E0.16461
G1 X190.141 Y196.682 E0.06284
G1 X190.01 Y197.003 E0.01271
G1 X189.745 Y198.193 E0.04471
G1 X189.61 Y198.506 E0.0125
G1 X189.478 Y199.096 E0.02217
G1 X189.525 Y199.397 E0.01117
G1 X189.525 Y202.539 E0.11521
G1 X189.153 Y204.106 E0.05906
G1 X188.806 Y205.059 E0.03719
G1 X187.631 Y206.778 E0.07635
G1 X186.283 Y207.852 E0.0632
G1 X185.212 Y208.528 E0.04644
G1 X183.245 Y209.175 E0.07593
G1 X178.319 Y209.175 E0.18063
G1 X177.578 Y209.001 E0.02791
G1 X177.048 Y209.175 E0.02046
G1 X172.111 Y209.175 E0.18104
G1 X170.544 Y208.803 E0.05906
G1 X169.591 Y208.456 E0.03719
G1 X167.872 Y207.281 E0.07635
G1 X166.798 Y205.933 E0.0632
G1 X166.122 Y204.862 E0.04644
G1 X165.475 Y202.895 E0.07593
G1 X165.475 Y199.572 E0.12185
G1 X165.528 Y199.252 E0.01189
G1 X165.401 Y198.595 E0.02454
G1 X165.229 Y198.29 E0.01284
G1 X165.001 Y197.095 E0.04461
G1 X164.83 Y196.791 E0.01279
G1 X164.475 Y194.977 E0.06778
G1 X164.475 Y190.49 E0.16454
G1 X164.869 Y188.742 E0.06571
G1 X165 Y188.464 E0.01127
G1 X165.309 Y187.174 E0.04864
G1 X165.588 Y186.443 E0.02869
G1 X166.208 Y185.548 E0.03992
G1 X166.4 Y185.197 E0.01467
G1 X166.475 Y185.087 E0.00488
G1 X166.475 Y152.458 E1.19648
G1 X166.904 Y150.71 E0.066
G1 X167.205 Y149.917 E0.0311
G1 X168.159 Y148.519 E0.06206
G1 X168.321 Y148.337 E0.00893
G1 X168.536 Y147.621 E0.02741
G1 X170.014 Y145.589 E0.09214
G1 X171.069 Y144.437 E0.05728
G1 X173.058 Y143.17 E0.08648
G1 X175.377 Y142.435 E0.08921
G1 X177.294 Y142.408 E0.0703
G1 X177.454 Y142.413 E0.00587
G1 X177.984 Y142.398 E0.01944
G1 X180.398 Y142.596 E0.08882
G1 X182.923 Y143.699 E0.10104
G1 X184.683 Y145.206 E0.08496
G1 X185.8 Y146.608 E0.06573
G1 X186.707 Y148.325 E0.07121
G1 X186.786 Y148.543 E0.0085
G1 X187.272 Y149.165 E0.02895
G1 X187.885 Y150.149 E0.04251
G1 X188.525 Y152.096 E0.07515
G0 F6000 X188.075 Y152.169
G1 F2400 X188.075 Y185.212 E1.21166
G1 X188.45 Y185.848 E0.02707
G1 X188.656 Y186.157 E0.01362
G1 X189.342 Y187.363 E0.05088
G1 X189.571 Y188.562 E0.04476
G1 X189.742 Y188.866 E0.01279
G1 X190.075 Y190.568 E0.06359
G1 X190.075 Y194.961 E0.16109
G1 X189.724 Y196.512 E0.05831
G1 X189.58 Y196.865 E0.01398
G1 X189.315 Y198.054 E0.04467
G1 X189.18 Y198.367 E0.0125
G1 X189.019 Y199.087 E0.02705
G1 X189.075 Y199.397 E0.01155
G1 X189.075 Y202.486 E0.11327
G1 X188.715 Y204.002 E0.05714
G1 X188.403 Y204.852 E0.0332
G1 X187.298 Y206.468 E0.07179
G1 X186.043 Y207.472 E0.05893
G1 X185.02 Y208.118 E0.04437
G1 X183.174 Y208.725 E0.07126
G1 X178.371 Y208.725 E0.17612
G1 X177.558 Y208.534 E0.03062
G1 X176.977 Y208.725 E0.02243
G1 X172.164 Y208.725 E0.17649
G1 X170.648 Y208.365 E0.05714
G1 X169.798 Y208.053 E0.0332
G1 X168.182 Y206.948 E0.07179
G1 X167.178 Y205.693 E0.05893
G1 X166.532 Y204.67 E0.04437
G1 X165.925 Y202.824 E0.07126
G1 X165.925 Y199.572 E0.11925
G1 X165.986 Y199.252 E0.01195
G1 X165.829 Y198.438 E0.0304
G1 X165.657 Y198.133 E0.01284
G1 X165.429 Y196.938 E0.04461
G1 X165.258 Y196.634 E0.01279
G1 X164.925 Y194.932 E0.06359
G1 X164.925 Y190.54 E0.16105
G1 X165.298 Y188.887 E0.06214
G1 X165.428 Y188.61 E0.01122
G1 X165.747 Y187.279 E0.05019
G1 X165.989 Y186.654 E0.02458
G1 X166.593 Y185.782 E0.0389
G1 X166.772 Y185.451 E0.0138
G1 X166.925 Y185.227 E0.00995
G1 X166.925 Y152.512 E1.19964
G1 X167.325 Y150.87 E0.06197
G1 X167.607 Y150.127 E0.02914
G1 X168.531 Y148.773 E0.06011
G1 X168.722 Y148.566 E0.01033
G1 X168.945 Y147.823 E0.02845
G1 X170.346 Y145.893 E0.08745
G1 X171.36 Y144.786 E0.05505
G1 X173.252 Y143.581 E0.08225
G1 X175.45 Y142.884 E0.08455
G1 X177.281 Y142.858 E0.06715
G1 X177.453 Y142.863 E0.00631
G1 X177.996 Y142.848 E0.01992
G1 X180.286 Y143.038 E0.08426
G1 X182.679 Y144.083 E0.09575
G1 X184.357 Y145.52 E0.08101
G1 X185.423 Y146.857 E0.0627
G1 X186.309 Y148.535 E0.06958
G1 X186.384 Y148.759 E0.00866
G1 X186.89 Y149.403 E0.03003
G1 X187.474 Y150.34 E0.04049
G1 X188.075 Y152.169 E0.0706
G0 F6000 X187.625 Y152.243
G1 F2400 X187.625 Y185.336 E1.2135
G1 X188.062 Y186.077 E0.03155
G1 X188.265 Y186.379 E0.01334
G1 X188.914 Y187.52 E0.04813
G1 X189.143 Y188.719 E0.04476
G1 X189.314 Y189.023 E0.01279
G1 X189.625 Y190.613 E0.05941
G1 X189.625 Y194.911 E0.1576
G1 X189.285 Y196.413 E0.05647
G1 X189.149 Y196.729 E0.01262
G1 X188.885 Y197.915 E0.04455
G1 X188.75 Y198.228 E0.0125
G1 X188.558 Y199.086 E0.03224
G1 X188.625 Y199.397 E0.01167
G1 X188.625 Y202.433 E0.11133
G1 X188.277 Y203.898 E0.05522
G1 X188 Y204.645 E0.02921
G1 X186.966 Y206.157 E0.06717
G1 X185.803 Y207.091 E0.0547
G1 X184.824 Y207.709 E0.04245
G1 X183.103 Y208.275 E0.06643
G1 X178.423 Y208.275 E0.17161
G1 X177.537 Y208.067 E0.03337
G1 X176.904 Y208.275 E0.02443
G1 X172.217 Y208.275 E0.17187
G1 X170.752 Y207.927 E0.05522
G1 X170.005 Y207.65 E0.02921
G1 X168.493 Y206.616 E0.06717
G1 X167.559 Y205.453 E0.0547
G1 X166.941 Y204.474 E0.04245
G1 X166.375 Y202.753 E0.06643
G1 X166.375 Y199.572 E0.11665
G1 X166.452 Y199.237 E0.0126
G1 X166.416 Y199.118 E0.00456
G1 X166.257 Y198.281 E0.03124
G1 X166.085 Y197.976 E0.01284
G1 X165.857 Y196.781 E0.04461
G1 X165.686 Y196.477 E0.01279
G1 X165.375 Y194.887 E0.05941
G1 X165.375 Y190.59 E0.15757
G1 X165.727 Y189.032 E0.05857
G1 X165.856 Y188.757 E0.01114
G1 X166.167 Y187.441 E0.04959
G1 X166.39 Y186.865 E0.02265
G1 X166.978 Y186.016 E0.03787
G1 X167.168 Y185.665 E0.01464
G1 X167.375 Y185.368 E0.01327
G1 X167.375 Y152.565 E1.20286
G1 X167.746 Y151.03 E0.05791
G1 X168.009 Y150.337 E0.02718
G1 X168.903 Y149.027 E0.05816
G1 X169.122 Y148.8 E0.01157
G1 X169.354 Y148.025 E0.02966
G1 X170.678 Y146.197 E0.08277
G1 X171.651 Y145.135 E0.05282
G1 X173.446 Y143.992 E0.07803
G1 X175.523 Y143.333 E0.0799
G1 X177.269 Y143.308 E0.06403
G1 X177.453 Y143.313 E0.00675
G1 X178.008 Y143.298 E0.02036
G1 X180.174 Y143.48 E0.07971
G1 X182.435 Y144.467 E0.09046
G1 X184.031 Y145.834 E0.07706
G1 X185.047 Y147.108 E0.05975
G1 X185.882 Y148.678 E0.06521
G1 X185.982 Y148.976 E0.01153
G1 X186.508 Y149.641 E0.03109
G1 X187.062 Y150.53 E0.03841
G1 X187.625 Y152.243 E0.06612
G0 F6000 X187.175 Y152.314
G1 F2400 X187.175 Y185.46 E1.21544
G1 X187.676 Y186.309 E0.03615
G1 X187.874 Y186.601 E0.01294
G1 X188.486 Y187.677 E0.04539
G1 X188.715 Y188.876 E0.04476
G1 X188.886 Y189.18 E0.01279
G1 X189.175 Y190.658 E0.05522
G1 X189.175 Y194.861 E0.15412
G1 X188.846 Y196.314 E0.05463
G1 X188.715 Y196.597 E0.01144
G1 X188.698 Y196.704 E0.00397
G1 X188.446 Y197.815 E0.04177
G1 X188.315 Y198.097 E0.0114
G1 X188.298 Y198.205 E0.00401
G1 X188.095 Y199.093 E0.0334
G1 X188.175 Y199.397 E0.01153
G1 X188.175 Y202.381 E0.10942
G1 X187.855 Y203.742 E0.05127
G1 X187.597 Y204.438 E0.02722
G1 X186.634 Y205.846 E0.06255
G1 X185.521 Y206.74 E0.05235
G1 X184.631 Y207.299 E0.03854
G1 X183.032 Y207.825 E0.06173
G1 X178.475 Y207.825 E0.1671
G1 X177.516 Y207.6 E0.03612
G1 X176.831 Y207.825 E0.02644
G1 X172.269 Y207.825 E0.16729
G1 X170.908 Y207.505 E0.05127
G1 X170.212 Y207.247 E0.02722
G1 X168.804 Y206.284 E0.06255
G1 X167.91 Y205.171 E0.05235
G1 X167.351 Y204.281 E0.03854
G1 X166.825 Y202.682 E0.06173
G1 X166.825 Y199.625 E0.1121
G1 X166.919 Y199.215 E0.01542
G1 X166.858 Y199.034 E0.007
G1 X166.685 Y198.124 E0.03397
G1 X166.513 Y197.819 E0.01284
G1 X166.285 Y196.624 E0.04461
G1 X166.114 Y196.32 E0.01279
G1 X165.825 Y194.842 E0.05522
G1 X165.825 Y190.64 E0.15408
G1 X166.155 Y189.179 E0.05492
G1 X166.283 Y188.907 E0.01102
G1 X166.587 Y187.603 E0.0491
G1 X166.791 Y187.076 E0.02072
G1 X167.363 Y186.25 E0.03684
G1 X167.564 Y185.879 E0.01547
G1 X167.825 Y185.511 E0.01654
G1 X167.825 Y152.62 E1.20609
G1 X168.167 Y151.19 E0.05392
G1 X168.411 Y150.547 E0.02522
G1 X169.275 Y149.281 E0.0562
G1 X169.52 Y149.038 E0.01265
G1 X169.764 Y148.226 E0.03109
G1 X171.01 Y146.501 E0.07803
G1 X171.942 Y145.484 E0.05058
G1 X173.64 Y144.403 E0.07381
G1 X175.596 Y143.782 E0.07525
G1 X177.258 Y143.758 E0.06095
G1 X177.454 Y143.763 E0.00719
G1 X178.02 Y143.748 E0.02076
G1 X180.062 Y143.922 E0.07515
G1 X182.191 Y144.851 E0.08518
G1 X183.708 Y146.15 E0.07323
G1 X184.67 Y147.357 E0.0566
G1 X185.485 Y148.889 E0.06363
G1 X185.576 Y149.188 E0.01146
G1 X186.126 Y149.879 E0.03239
G1 X186.652 Y150.723 E0.03647
G1 X187.175 Y152.314 E0.06141
G0 F6000 X186.725 Y152.385
G1 F2400 X186.725 Y185.584 E1.21738
G1 X187.289 Y186.54 E0.0407
G1 X187.483 Y186.823 E0.01258
G1 X188.058 Y187.834 E0.04265
G1 X188.287 Y189.033 E0.04476
G1 X188.458 Y189.337 E0.01279
G1 X188.725 Y190.703 E0.05104
G1 X188.725 Y194.811 E0.15064
G1 X188.418 Y196.168 E0.05102
G1 X188.278 Y196.469 E0.01217
G1 X188.259 Y196.604 E0.005
G1 X188.017 Y197.67 E0.04008
G1 X187.878 Y197.969 E0.01209
G1 X187.859 Y198.105 E0.00504
G1 X187.632 Y199.099 E0.03739
G1 X187.725 Y199.454 E0.01346
G1 X187.725 Y202.33 E0.10546
G1 X187.433 Y203.585 E0.04725
G1 X187.193 Y204.232 E0.0253
G1 X186.3 Y205.538 E0.05802
G1 X185.282 Y206.359 E0.04796
G1 X184.438 Y206.889 E0.03655
G1 X182.961 Y207.375 E0.05702
G1 X178.527 Y207.375 E0.16259
G1 X177.496 Y207.133 E0.03883
G1 X176.76 Y207.375 E0.02841
G1 X172.32 Y207.375 E0.16281
G1 X171.065 Y207.083 E0.04725
G1 X170.418 Y206.843 E0.0253
G1 X169.112 Y205.95 E0.05802
G1 X168.291 Y204.932 E0.04796
G1 X167.761 Y204.088 E0.03655
G1 X167.275 Y202.611 E0.05702
G1 X167.275 Y199.677 E0.10759
G1 X167.388 Y199.183 E0.01858
G1 X167.3 Y198.95 E0.00913
G1 X167.113 Y197.967 E0.03669
G1 X166.941 Y197.662 E0.01284
G1 X166.713 Y196.467 E0.04461
G1 X166.542 Y196.163 E0.01279
G1 X166.275 Y194.797 E0.05104
G1 X166.275 Y190.69 E0.1506
G1 X166.583 Y189.328 E0.0512
G1 X166.721 Y189.033 E0.01194
G1 X166.733 Y188.934 E0.00366
G1 X167.007 Y187.765 E0.04403
G1 X167.192 Y187.287 E0.01879
G1 X167.75 Y186.481 E0.03595
G1 X167.96 Y186.094 E0.01615
G1 X168.275 Y185.656 E0.01978
G1 X168.275 Y152.674 E1.20943
G1 X168.588 Y151.35 E0.04989
G1 X168.813 Y150.757 E0.02326
G1 X169.647 Y149.535 E0.05425
G1 X169.916 Y149.285 E0.01347
G1 X170.173 Y148.428 E0.03281
G1 X171.342 Y146.805 E0.07334
G1 X172.233 Y145.833 E0.04835
G1 X173.834 Y144.814 E0.06959
G1 X175.669 Y144.231 E0.0706
G1 X177.247 Y144.208 E0.05787
G1 X177.455 Y144.213 E0.00763
G1 X178.032 Y144.198 E0.02117
G1 X179.95 Y144.364 E0.07059
G1 X181.947 Y145.235 E0.07989
G1 X183.382 Y146.464 E0.06928
G1 X184.295 Y147.609 E0.0537
G1 X185.088 Y149.1 E0.06193
G1 X185.165 Y149.394 E0.01114
G1 X185.744 Y150.117 E0.03397
G1 X186.242 Y150.916 E0.03452
G1 X186.725 Y152.385 E0.0567
G0 F6000 X186.275 Y152.458
G1 F2400 X185.831 Y151.107 E0.05215
G1 X185.362 Y150.355 E0.0325
G1 X184.754 Y149.601 E0.03552
G1 X184.666 Y149.264 E0.01277
G1 X183.918 Y147.858 E0.0584
G1 X183.059 Y146.78 E0.05054
G1 X181.706 Y145.621 E0.06533
G1 X179.835 Y144.806 E0.07483
G1 X178.043 Y144.648 E0.06597
G1 X177.456 Y144.663 E0.02153
G1 X177.237 Y144.658 E0.00803
G1 X175.742 Y144.68 E0.05483
G1 X174.028 Y145.225 E0.06595
G1 X172.524 Y146.182 E0.06537
G1 X171.674 Y147.109 E0.04612
G1 X170.582 Y148.63 E0.06866
G1 X170.308 Y149.543 E0.03495
G1 X170.019 Y149.789 E0.01392
G1 X169.214 Y150.968 E0.05235
G1 X169.009 Y151.509 E0.02121
G1 X168.725 Y152.725 E0.04579
G1 X168.725 Y185.801 E1.21287
G1 X168.325 Y186.357 E0.02512
G1 X168.133 Y186.718 E0.01499
G1 X167.594 Y187.497 E0.03474
G1 X167.427 Y187.928 E0.01695
G1 X167.18 Y188.99 E0.03998
G1 X167.159 Y189.158 E0.00621
G1 X167.011 Y189.475 E0.01283
G1 X166.725 Y190.74 E0.04756
G1 X166.725 Y194.752 E0.14712
G1 X166.97 Y196.006 E0.04685
G1 X167.152 Y196.329 E0.0136
G1 X167.165 Y196.457 E0.00472
G1 X167.37 Y197.506 E0.03919
G1 X167.552 Y197.829 E0.0136
G1 X167.565 Y197.957 E0.00472
G1 X167.742 Y198.864 E0.03389
G1 X167.859 Y199.142 E0.01106
G1 X167.725 Y199.729 E0.02208
G1 X167.725 Y202.54 E0.10308
G1 X168.171 Y203.895 E0.05231
G1 X168.672 Y204.693 E0.03455
G1 X169.42 Y205.615 E0.04354
G1 X170.627 Y206.44 E0.05361
G1 X171.222 Y206.661 E0.02327
