; generated by F3Slic3r 2.6.0-alpha4 on 2025-01-11 at 20:09:40 UTC

; 

; external perimeters extrusion width = 0.40mm
; perimeters extrusion width = 0.40mm
; infill extrusion width = 0.45mm
; solid infill extrusion width = 0.40mm
; top infill extrusion width = 0.40mm
; support material extrusion width = 0.40mm
; first layer extrusion width = 0.40mm

M107
;TYPE:Custom
; Fusion3 F410 F3Slic3r start script
; Rev 2023.01.16
M104 S0 
G21  
G90  
T0  
G92 E0.0  
M220 S100 
M140 S100  
G32 
M190 S100  
M109 S210  
; === pause for heating ===
; reset filament monitor
M42 P63 S0
G4 P100
G4 P50
M42 P63 S1
;
G1 Z10.0 F2000  ; move up
G1 E30.0 F500  ; prime extruder
G1 X20 Y15 F9000  ; move back
G1 Z0 F1000  ; move down to begin wipe
G1 X150 E4.0 F10000  ; wipe print head (extrude material while we do this)
G92 E0.0  ; reset e count
G21 ; set units to millimeters
G90 ; use absolute coordinates
M83 ; use relative distances for extrusion
; Filament gcode
M107
;LAYER_CHANGE
;Z:0.2
;HEIGHT:0.2
G1 Z.2 F27000
G1 E-3.25 F10020
G1 X135.916 Y146.136 F27000
G1 E3.25 F2400
;TYPE:Skirt/Brim
;WIDTH:0.4
G1 F3000
G1 X137.391 Y145.289 E.0505
G1 X142.392 Y143.288 E.15993
G1 X144.647 Y142.854 E.06818
G1 X169.647 Y142.854 E.74228
G1 X171.119 Y143.035 E.04403
G1 X219.941 Y155.261 E1.49435
G1 X221.937 Y156.174 E.06517
G1 X223.478 Y157.737 E.06517
G1 X224.363 Y159.746 E.06518
G1 X224.476 Y161.937 E.06514
G1 X223.672 Y168.066 E.18354
G1 X218.135 Y206.932 E1.16563
G1 X217.437 Y209.013 E.06517
G1 X216.046 Y210.71 E.06515
G1 X214.141 Y211.801 E.06518
G1 X212.124 Y212.146 E.06076
G1 X142.121 Y212.146 E2.07848
G1 X139.962 Y211.749 E.06518
G1 X138.085 Y210.611 E.06517
G1 X136.736 Y208.88 E.06516
G1 X136.108 Y206.914 E.06128
G1 X130.663 Y167.916 E1.16913
G1 X130.705 Y165.978 E.05756
G1 X133.676 Y149.827 E.48759
G1 X134.457 Y147.775 E.06519
G1 X135.876 Y146.181 E.06336
G1 X136.151 Y146.434 F27000
G1 F3000
G1 X136.237 Y146.34 E.00378
G1 X137.524 Y145.62 E.04379
G1 X142.525 Y143.62 E.15992
G1 X144.647 Y143.211 E.06416
G1 X169.647 Y143.211 E.74228
G1 X171.033 Y143.382 E.04146
G1 X219.854 Y155.608 E1.49432
G1 X221.785 Y156.504 E.06321
G1 X223.254 Y158.045 E.06321
G1 X224.057 Y160.016 E.06319
G1 X224.122 Y161.891 E.0557
G1 X223.319 Y168.016 E.18342
G1 X217.781 Y206.882 E1.16564
G1 X217.094 Y208.896 E.06318
G1 X215.716 Y210.519 E.06322
G1 X213.84 Y211.525 E.0632
G1 X212.124 Y211.789 E.05155
G1 X142.121 Y211.789 E2.07848
G1 X140.029 Y211.393 E.06322
G1 X138.228 Y210.258 E.06321
G1 X136.967 Y208.543 E.0632
G1 X136.461 Y206.865 E.05204
G1 X131.016 Y167.867 E1.16913
G1 X131.056 Y166.043 E.05417
G1 X134.027 Y149.891 E.48762
G1 X134.796 Y147.906 E.06321
G1 X136.11 Y146.478 E.05762
G1 X136.379 Y146.735 F27000
G1 F3000
G1 X136.557 Y146.549 E.00764
G1 X137.656 Y145.952 E.03713
G1 X142.657 Y143.951 E.15993
G1 X144.647 Y143.568 E.06017
G1 X169.647 Y143.568 E.74228
G1 X170.946 Y143.728 E.03886
G1 X219.767 Y155.954 E1.49432
G1 X221.63 Y156.833 E.06116
G1 X223.024 Y158.35 E.06117
G1 X223.743 Y160.282 E.06121
G1 X223.768 Y161.844 E.04638
G1 X222.965 Y167.966 E.18333
G1 X217.428 Y206.831 E1.1656
G1 X216.75 Y208.777 E.06119
G1 X215.388 Y210.323 E.06118
G1 X213.543 Y211.241 E.06119
G1 X212.124 Y211.432 E.04251
G1 X142.121 Y211.432 E2.07848
G1 X140.098 Y211.036 E.06121
G1 X138.376 Y209.905 E.06117
G1 X137.207 Y208.209 E.06116
G1 X136.815 Y206.816 E.04297
G1 X131.37 Y167.817 E1.16916
G1 X131.407 Y166.107 E.05078
G1 X134.378 Y149.956 E.48759
G1 X135.134 Y148.039 E.06118
G1 X136.338 Y146.778 E.05177
G1 E-3.25 F10020
G1 X211.567 Y182.632 F27000
G1 E3.25 F2400
;TYPE:Perimeter
;WIDTH:0.399999
G1 F3000
G1 X211.567 Y205.518 E.67951
G1 X142.678 Y205.518 E2.0454
G1 X142.678 Y182.632 E.67951
G1 X211.507 Y182.632 E2.04362
G1 X211.924 Y182.275 F27000
;TYPE:External perimeter
G1 F3000
G1 X211.924 Y205.875 E.70071
G1 X142.321 Y205.875 E2.0666
G1 X142.321 Y182.275 E.70071
G1 X211.864 Y182.275 E2.06482
G1 X211.763 Y182.641 F27000
G1 E-3.25 F10020
G1 X210.7 Y182.775 F27000
G1 E3.25 F2400
;TYPE:Solid infill
;WIDTH:0.401485
G1 F3000
G1 X211.264 Y183.339 E.02378
G1 X211.264 Y183.846 E.01512
G1 X210.353 Y182.935 E.03841
G1 X209.846 Y182.935 E.01512
G1 X211.264 Y184.353 E.05979
G1 X211.264 Y184.86 E.01512
G1 X209.339 Y182.935 E.08117
G1 X208.832 Y182.935 E.01512
G1 X211.264 Y185.367 E.10254
G1 X211.264 Y185.874 E.01512
G1 X208.325 Y182.935 E.12392
G1 X207.818 Y182.935 E.01512
G1 X211.264 Y186.382 E.14532
G1 X211.264 Y186.889 E.01512
G1 X207.311 Y182.935 E.1667
G1 X206.804 Y182.935 E.01512
G1 X211.264 Y187.396 E.18807
G1 X211.264 Y187.903 E.01512
G1 X206.297 Y182.935 E.20945
G1 X205.789 Y182.935 E.01515
G1 X211.264 Y188.41 E.23085
G1 X211.264 Y188.917 E.01512
G1 X205.282 Y182.935 E.25223
G1 X204.775 Y182.935 E.01512
G1 X211.264 Y189.424 E.27361
G1 X211.264 Y189.931 E.01512
G1 X204.268 Y182.935 E.29498
G1 X203.761 Y182.935 E.01512
G1 X211.264 Y190.438 E.31636
G1 X211.264 Y190.945 E.01512
G1 X203.254 Y182.935 E.33774
G1 X202.747 Y182.935 E.01512
G1 X211.264 Y191.452 E.35912
G1 X211.264 Y191.96 E.01515
G1 X202.24 Y182.935 E.38051
G1 X201.733 Y182.935 E.01512
G1 X211.264 Y192.467 E.40189
G1 X211.264 Y192.974 E.01512
G1 X201.226 Y182.935 E.42327
G1 X200.719 Y182.935 E.01512
G1 X211.264 Y193.481 E.44465
G1 X211.264 Y193.988 E.01512
G1 X200.211 Y182.935 E.46604
G1 X199.704 Y182.935 E.01512
G1 X211.264 Y194.495 E.48742
G1 X211.264 Y195.002 E.01512
G1 X199.197 Y182.935 E.5088
G1 X198.69 Y182.935 E.01512
G1 X211.264 Y195.509 E.53018
G1 X211.264 Y196.016 E.01512
G1 X198.183 Y182.935 E.55155
G1 X197.676 Y182.935 E.01512
G1 X211.264 Y196.523 E.57293
G1 X211.264 Y197.03 E.01512
G1 X197.169 Y182.935 E.59431
G1 X196.662 Y182.935 E.01512
G1 X211.264 Y197.538 E.61571
G1 X211.264 Y198.045 E.01512
G1 X196.155 Y182.935 E.63708
G1 X195.648 Y182.935 E.01512
G1 X211.264 Y198.552 E.65846
G1 X211.264 Y199.059 E.01512
G1 X195.141 Y182.935 E.67984
G1 X194.634 Y182.935 E.01512
G1 X211.264 Y199.566 E.70122
G1 X211.264 Y200.073 E.01512
G1 X194.126 Y182.935 E.72262
G1 X193.619 Y182.935 E.01512
G1 X211.264 Y200.58 E.74399
G1 X211.264 Y201.087 E.01512
G1 X193.112 Y182.935 E.76537
G1 X192.605 Y182.935 E.01512
G1 X211.264 Y201.594 E.78675
G1 X211.264 Y202.101 E.01512
G1 X192.098 Y182.935 E.80812
G1 X191.591 Y182.935 E.01512
G1 X211.264 Y202.608 E.8295
G1 X211.264 Y203.115 E.01512
G1 X191.084 Y182.935 E.85088
G1 X190.577 Y182.935 E.01512
G1 X211.264 Y203.623 E.87228
G1 X211.264 Y204.13 E.01512
G1 X190.07 Y182.935 E.89366
G1 X189.563 Y182.935 E.01512
G1 X211.264 Y204.637 E.91503
G1 X211.264 Y205.144 E.01512
G1 X189.056 Y182.935 E.93641
G1 X188.548 Y182.935 E.01515
G1 X210.827 Y205.214 E.93938
G1 X210.32 Y205.214 E.01512
G1 X188.041 Y182.935 E.93938
G1 X187.534 Y182.935 E.01512
G1 X209.813 Y205.214 E.93938
G1 X209.306 Y205.214 E.01512
G1 X187.027 Y182.935 E.93938
G1 X186.52 Y182.935 E.01512
G1 X208.799 Y205.214 E.93938
G1 X208.292 Y205.214 E.01512
G1 X186.013 Y182.935 E.93938
G1 X185.506 Y182.935 E.01512
G1 X207.785 Y205.214 E.93938
G1 X207.278 Y205.214 E.01512
G1 X184.999 Y182.935 E.93938
G1 X184.492 Y182.935 E.01512
G1 X206.771 Y205.214 E.93938
G1 X206.264 Y205.214 E.01512
G1 X183.985 Y182.935 E.93938
G1 X183.478 Y182.935 E.01512
G1 X205.756 Y205.214 E.93936
G1 X205.249 Y205.214 E.01512
G1 X182.97 Y182.935 E.93938
G1 X182.463 Y182.935 E.01512
G1 X204.742 Y205.214 E.93938
G1 X204.235 Y205.214 E.01512
G1 X181.956 Y182.935 E.93938
G1 X181.449 Y182.935 E.01512
G1 X203.728 Y205.214 E.93938
G1 X203.221 Y205.214 E.01512
G1 X180.942 Y182.935 E.93938
G1 X180.435 Y182.935 E.01512
G1 X202.714 Y205.214 E.93938
G1 X202.207 Y205.214 E.01512
G1 X179.928 Y182.935 E.93938
G1 X179.421 Y182.935 E.01512
G1 X201.7 Y205.214 E.93938
G1 X201.193 Y205.214 E.01512
G1 X178.914 Y182.935 E.93938
G1 X178.407 Y182.935 E.01512
G1 X200.686 Y205.214 E.93938
G1 X200.178 Y205.214 E.01515
G1 X177.9 Y182.935 E.93936
G1 X177.393 Y182.935 E.01512
G1 X199.671 Y205.214 E.93936
G1 X199.164 Y205.214 E.01512
G1 X176.885 Y182.935 E.93938
G1 X176.378 Y182.935 E.01512
G1 X198.657 Y205.214 E.93938
G1 X198.15 Y205.214 E.01512
G1 X175.871 Y182.935 E.93938
G1 X175.364 Y182.935 E.01512
G1 X197.643 Y205.214 E.93938
G1 X197.136 Y205.214 E.01512
G1 X174.857 Y182.935 E.93938
G1 X174.35 Y182.935 E.01512
G1 X196.629 Y205.214 E.93938
G1 X196.122 Y205.214 E.01512
G1 X173.843 Y182.935 E.93938
G1 X173.336 Y182.935 E.01512
G1 X195.615 Y205.214 E.93938
G1 X195.108 Y205.214 E.01512
G1 X172.829 Y182.935 E.93938
G1 X172.322 Y182.935 E.01512
G1 X194.601 Y205.214 E.93938
G1 X194.093 Y205.214 E.01515
G1 X171.815 Y182.935 E.93936
G1 X171.307 Y182.935 E.01515
G1 X193.586 Y205.214 E.93938
G1 X193.079 Y205.214 E.01512
G1 X170.8 Y182.935 E.93938
G1 X170.293 Y182.935 E.01512
G1 X192.572 Y205.214 E.93938
G1 X192.065 Y205.214 E.01512
G1 X169.786 Y182.935 E.93938
G1 X169.279 Y182.935 E.01512
G1 X191.558 Y205.214 E.93938
G1 X191.051 Y205.214 E.01512
G1 X168.772 Y182.935 E.93938
G1 X168.265 Y182.935 E.01512
G1 X190.544 Y205.214 E.93938
G1 X190.037 Y205.214 E.01512
G1 X167.758 Y182.935 E.93938
G1 X167.251 Y182.935 E.01512
G1 X189.53 Y205.214 E.93938
G1 X189.023 Y205.214 E.01512
G1 X166.744 Y182.935 E.93938
G1 X166.237 Y182.935 E.01512
G1 X188.515 Y205.214 E.93936
G1 X188.008 Y205.214 E.01512
G1 X165.73 Y182.935 E.93936
G1 X165.222 Y182.935 E.01515
G1 X187.501 Y205.214 E.93938
G1 X186.994 Y205.214 E.01512
G1 X164.715 Y182.935 E.93938
G1 X164.208 Y182.935 E.01512
G1 X186.487 Y205.214 E.93938
G1 X185.98 Y205.214 E.01512
G1 X163.701 Y182.935 E.93938
G1 X163.194 Y182.935 E.01512
G1 X185.473 Y205.214 E.93938
G1 X184.966 Y205.214 E.01512
G1 X162.687 Y182.935 E.93938
G1 X162.18 Y182.935 E.01512
G1 X184.459 Y205.214 E.93938
G1 X183.952 Y205.214 E.01512
G1 X161.673 Y182.935 E.93938
G1 X161.166 Y182.935 E.01512
G1 X183.445 Y205.214 E.93938
G1 X182.937 Y205.214 E.01515
G1 X160.659 Y182.935 E.93936
G1 X160.152 Y182.935 E.01512
G1 X182.43 Y205.214 E.93936
G1 X181.923 Y205.214 E.01512
G1 X159.644 Y182.935 E.93938
G1 X159.137 Y182.935 E.01512
G1 X181.416 Y205.214 E.93938
G1 X180.909 Y205.214 E.01512
G1 X158.63 Y182.935 E.93938
G1 X158.123 Y182.935 E.01512
G1 X180.402 Y205.214 E.93938
G1 X179.895 Y205.214 E.01512
G1 X157.616 Y182.935 E.93938
G1 X157.109 Y182.935 E.01512
G1 X179.388 Y205.214 E.93938
G1 X178.881 Y205.214 E.01512
G1 X156.602 Y182.935 E.93938
G1 X156.095 Y182.935 E.01512
G1 X178.374 Y205.214 E.93938
G1 X177.867 Y205.214 E.01512
G1 X155.588 Y182.935 E.93938
G1 X155.081 Y182.935 E.01512
G1 X177.36 Y205.214 E.93938
G1 X176.852 Y205.214 E.01515
G1 X154.574 Y182.935 E.93936
G1 X154.067 Y182.935 E.01512
G1 X176.345 Y205.214 E.93936
G1 X175.838 Y205.214 E.01512
G1 X153.559 Y182.935 E.93938
G1 X153.052 Y182.935 E.01512
G1 X175.331 Y205.214 E.93938
G1 X174.824 Y205.214 E.01512
G1 X152.545 Y182.935 E.93938
G1 X152.038 Y182.935 E.01512
G1 X174.317 Y205.214 E.93938
G1 X173.81 Y205.214 E.01512
G1 X151.531 Y182.935 E.93938
G1 X151.024 Y182.935 E.01512
G1 X173.303 Y205.214 E.93938
G1 X172.796 Y205.214 E.01512
G1 X150.517 Y182.935 E.93938
G1 X150.01 Y182.935 E.01512
G1 X172.289 Y205.214 E.93938
G1 X171.782 Y205.214 E.01512
G1 X149.503 Y182.935 E.93938
G1 X148.996 Y182.935 E.01512
G1 X171.274 Y205.214 E.93936
G1 X170.767 Y205.214 E.01512
G1 X148.489 Y182.935 E.93936
G1 X147.981 Y182.935 E.01515
G1 X170.26 Y205.214 E.93938
G1 X169.753 Y205.214 E.01512
G1 X147.474 Y182.935 E.93938
G1 X146.967 Y182.935 E.01512
G1 X169.246 Y205.214 E.93938
G1 X168.739 Y205.214 E.01512
G1 X146.46 Y182.935 E.93938
G1 X145.953 Y182.935 E.01512
G1 X168.232 Y205.214 E.93938
G1 X167.725 Y205.214 E.01512
G1 X145.446 Y182.935 E.93938
G1 X144.939 Y182.935 E.01512
G1 X167.218 Y205.214 E.93938
G1 X166.711 Y205.214 E.01512
G1 X144.432 Y182.935 E.93938
G1 X143.925 Y182.935 E.01512
G1 X166.204 Y205.214 E.93938
G1 X165.697 Y205.214 E.01512
G1 X143.418 Y182.935 E.93938
G1 X142.981 Y182.935 E.01303
G1 X142.981 Y183.006 E.00212
G1 X165.189 Y205.214 E.93639
G1 X164.682 Y205.214 E.01512
G1 X142.981 Y183.513 E.91501
G1 X142.981 Y184.02 E.01512
G1 X164.175 Y205.214 E.89363
G1 X163.668 Y205.214 E.01512
G1 X142.981 Y184.527 E.87226
G1 X142.981 Y185.034 E.01512
G1 X163.161 Y205.214 E.85088
G1 X162.654 Y205.214 E.01512
G1 X142.981 Y185.541 E.8295
G1 X142.981 Y186.048 E.01512
G1 X162.147 Y205.214 E.80812
G1 X161.64 Y205.214 E.01512
G1 X142.981 Y186.556 E.78673
G1 X142.981 Y187.063 E.01512
G1 X161.133 Y205.214 E.76535
G1 X160.626 Y205.214 E.01512
G1 X142.981 Y187.57 E.74397
G1 X142.981 Y188.077 E.01512
G1 X160.119 Y205.214 E.72259
G1 X159.611 Y205.214 E.01515
G1 X142.981 Y188.584 E.7012
G1 X142.981 Y189.091 E.01512
G1 X159.104 Y205.214 E.67982
G1 X158.597 Y205.214 E.01512
G1 X142.981 Y189.598 E.65844
G1 X142.981 Y190.105 E.01512
G1 X158.09 Y205.214 E.63706
G1 X157.583 Y205.214 E.01512
G1 X142.981 Y190.612 E.61569
G1 X142.981 Y191.119 E.01512
G1 X157.076 Y205.214 E.59431
G1 X156.569 Y205.214 E.01512
G1 X142.981 Y191.626 E.57293
G1 X142.981 Y192.134 E.01515
G1 X156.062 Y205.214 E.55153
G1 X155.555 Y205.214 E.01512
G1 X142.981 Y192.641 E.53016
G1 X142.981 Y193.148 E.01512
G1 X155.048 Y205.214 E.50878
G1 X154.541 Y205.214 E.01512
G1 X142.981 Y193.655 E.4874
G1 X142.981 Y194.162 E.01512
G1 X154.034 Y205.214 E.46602
G1 X153.526 Y205.214 E.01515
G1 X142.981 Y194.669 E.44462
G1 X142.981 Y195.176 E.01512
G1 X153.019 Y205.214 E.42325
G1 X152.512 Y205.214 E.01512
G1 X142.981 Y195.683 E.40187
G1 X142.981 Y196.19 E.01512
G1 X152.005 Y205.214 E.38049
G1 X151.498 Y205.214 E.01512
G1 X142.981 Y196.697 E.35912
G1 X142.981 Y197.204 E.01512
G1 X150.991 Y205.214 E.33774
G1 X150.484 Y205.214 E.01512
G1 X142.981 Y197.711 E.31636
G1 X142.981 Y198.219 E.01515
G1 X149.977 Y205.214 E.29496
G1 X149.47 Y205.214 E.01512
G1 X142.981 Y198.726 E.27358
G1 X142.981 Y199.233 E.01512
G1 X148.963 Y205.214 E.25221
G1 X148.456 Y205.214 E.01512
G1 X142.981 Y199.74 E.23083
G1 X142.981 Y200.247 E.01512
G1 X147.948 Y205.214 E.20943
G1 X147.441 Y205.214 E.01512
G1 X142.981 Y200.754 E.18805
G1 X142.981 Y201.261 E.01512
G1 X146.934 Y205.214 E.16668
G1 X146.427 Y205.214 E.01512
G1 X142.981 Y201.768 E.1453
G1 X142.981 Y202.275 E.01512
G1 X145.92 Y205.214 E.12392
G1 X145.413 Y205.214 E.01512
G1 X142.981 Y202.782 E.10254
G1 X142.981 Y203.289 E.01512
G1 X144.906 Y205.214 E.08117
G1 X144.399 Y205.214 E.01512
G1 X142.981 Y203.797 E.05977
G1 X142.981 Y204.304 E.01512
G1 X143.892 Y205.214 E.03839
G1 X143.385 Y205.214 E.01512
G1 X142.82 Y204.65 E.0238
G1 E-3.25 F10020
G1 X176.789 Y175.603 F27000
G1 E3.25 F2400
;TYPE:Perimeter
;WIDTH:0.399999
G1 F3000
G1 X176.885 Y175.634 E.003
G1 X206.606 Y175.634 E.88245
G1 X214.696 Y177.675 E.24773
G1 X214.33 Y178.465 E.02585
G1 X206.438 Y176.553 E.2411
G1 X206.237 Y176.52 E.00605
G1 X176.079 Y176.52 E.89543
G1 X166.234 Y166.676 E.41337
G1 X166.061 Y166.56 E.00618
G1 X165.856 Y166.52 E.0062
G1 X139.568 Y166.52 E.78052
G1 X141.783 Y165.634 E.07083
G1 X166.445 Y165.634 E.73225
G1 X175.949 Y175.138 E.39907
G1 X176.049 Y175.217 E.00378
G1 X176.574 Y175.536 E.01824
G1 X176.731 Y175.585 E.00488
G1 X176.84 Y175.251 F27000
;TYPE:External perimeter
G1 F3000
G1 X176.885 Y175.277 E.00154
G1 X206.651 Y175.277 E.88379
G1 X215.202 Y177.434 E.26184
G1 X214.531 Y178.881 E.04736
G1 X206.237 Y176.877 E.25335
G1 X175.931 Y176.877 E.89982
G1 X165.982 Y166.929 E.41774
G1 X165.856 Y166.877 E.00405
G1 X137.714 Y166.877 E.83557
G1 X141.714 Y165.277 E.12791
G1 X166.592 Y165.277 E.73866
G1 X176.201 Y174.885 E.40346
G1 X176.787 Y175.222 E.02007
G1 X176.836 Y175.303 F27000
G1 E-3.25 F10020
G1 X213.529 Y177.528 F27000
G1 E3.25 F2400
;TYPE:Solid infill
;WIDTH:0.400703
G1 F3000
G1 X214.097 Y178.096 E.0239
G1 X213.43 Y177.935 E.02041
G1 X213.074 Y177.579 E.01498
G1 X212.397 Y177.408 E.02077
G1 X212.762 Y177.773 E.01536
G1 X212.094 Y177.611 E.02045
G1 X211.72 Y177.237 E.01574
G1 X211.044 Y177.066 E.02074
G1 X211.426 Y177.449 E.01609
G1 X210.758 Y177.287 E.02045
G1 X210.367 Y176.896 E.01645
G1 X209.69 Y176.725 E.02077
G1 X210.091 Y177.126 E.01687
G1 X209.423 Y176.964 E.02045
G1 X209.013 Y176.554 E.01725
G1 X208.337 Y176.383 E.02074
G1 X208.755 Y176.802 E.01761
G1 X208.087 Y176.64 E.02045
G1 X207.66 Y176.213 E.01796
