;FLAVOR:RepRap
;TIME:2712
;Filament used: 5.34901m
;Layer height: 0.2
;MINX:160.633
;MINY:149.929
;MINZ:0.25
;MAXX:226.823
;MAXY:230.926
;MAXZ:28.45
;TARGET_MACHINE.NAME:Fusion3 F410
;Generated with Cura_SteamEngine 5.9.0
T0
M82 ;absolute extrusion mode
; Fusion3 F410 start code
M104 S0 ; shutdown heater and prepare to print
G21  ; set units to mm
G90  ; use absolute coordinates
T0  ; select tool 0
G92 E0.0  ; reset e count
M220 S100 ; reset speed multiplier
M140 S55  ; set bed temp and do not wait
G32  ; call to run bed.g
M190 S55 ; Set bed temperature and wait
M109 S230 ; set print head temperature and wait
; === pause for heating ===
; reset filament monitor
M42 P63 S0
G4 P100
G4 P50
M42 P63 S1
G1 X350 Y0
G1 Z10.0 F2000  ; move up
G1 E10.0 F500  ; prime extruder
G92 E0.0  ; reset e count
G1 X330 Y15 F9000  ; move back
G1 Z0.25 F1000  ; move down to begin wipe
G1 X150 E4.0 F6000  ; wipe print head (extrude material while we do this)
G92 E0.0  ; reset e count

M83 ;relative extrusion mode
G1 F6000 E-4.25
;LAYER_COUNT:142
;LAYER:0
M107
G1 F300 Z0.45
G0 F6000 X206.837 Y230.874 Z0.45
;TYPE:SKIRT
G1 F300 Z0.25
G1 F6000 E4.25
G1 F2400 X180.907 Y230.926 E1.11772
G1 X178.63 Y230.238 E0.10253
G1 X177.91 Y229.813 E0.03604
G1 X176.604 Y228.795 E0.07138
G1 X175.32 Y227.537 E0.07748
G1 X174.233 Y225.828 E0.08731
G1 X173.83 Y224.547 E0.05789
G1 X163.057 Y213.775 E0.65669
G1 X161.796 Y211.425 E0.11496
G1 X161.568 Y209.786 E0.07133
G1 X161.517 Y162.342 E2.04508
G1 X161.452 Y162.214 E0.00619
G1 X160.871 Y160.688 E0.07038
G1 X160.633 Y159.004 E0.07331
G1 X160.745 Y157.131 E0.08088
G1 X161.457 Y155.294 E0.08492
G1 X162.124 Y154.022 E0.06191
G1 X164.068 Y151.992 E0.12116
G1 X166.544 Y150.498 E0.12465
G1 X169.065 Y149.986 E0.11089
G1 X177.103 Y149.982 E0.34648
G1 X177.743 Y149.929 E0.02768
G1 X183.075 Y149.943 E0.22984
G1 X183.455 Y149.982 E0.01647
G1 X203.207 Y149.981 E0.85141
G1 X203.846 Y149.929 E0.02764
G1 X209.467 Y149.967 E0.2423
G1 X209.583 Y149.981 E0.00504
G1 X218.444 Y149.986 E0.38195
G1 X220.883 Y150.512 E0.10755
G1 X223.438 Y152.021 E0.12791
G1 X225.158 Y153.891 E0.10952
G1 X226.152 Y155.635 E0.08653
G1 X226.583 Y157.094 E0.06558
G1 X226.823 Y158.437 E0.05881
G1 X226.574 Y160.521 E0.09047
G1 X226.338 Y161.511 E0.04387
G1 X225.925 Y162.303 E0.0385
G1 X225.926 Y210.612 E2.08237
G1 X225.23 Y212.926 E0.10416
G1 X224.795 Y213.654 E0.03656
G1 X223.785 Y214.932 E0.07021
G1 X214.153 Y224.583 E0.58774
G1 X214.024 Y225.118 E0.02372
G1 X213.724 Y225.921 E0.03695
G1 X212.712 Y227.5 E0.08084
G1 X210.826 Y229.385 E0.11494
G1 X208.476 Y230.646 E0.11496
G1 X206.837 Y230.874 E0.07133
G0 F6000 X206.775 Y230.428
G1 F2400 X180.974 Y230.476 E1.11216
G1 X178.811 Y229.822 E0.09741
G1 X178.186 Y229.458 E0.03118
G1 X176.919 Y228.474 E0.06915
G1 X175.674 Y227.254 E0.07514
G1 X174.643 Y225.634 E0.08277
G1 X174.226 Y224.307 E0.05996
G1 X163.422 Y213.504 E0.65858
G1 X162.231 Y211.285 E0.10856
G1 X162.014 Y209.724 E0.06793
G1 X161.967 Y162.228 E2.04732
G1 X161.873 Y162.054 E0.00852
G1 X161.31 Y160.575 E0.06822
G1 X161.085 Y158.983 E0.06931
G1 X161.19 Y157.229 E0.07574
G1 X161.856 Y155.503 E0.07975
G1 X162.494 Y154.286 E0.05923
G1 X164.351 Y152.347 E0.11573
G1 X166.71 Y150.923 E0.11878
G1 X169.11 Y150.436 E0.10556
G1 X177.118 Y150.432 E0.34519
G1 X177.742 Y150.379 E0.02699
G1 X183.029 Y150.391 E0.2279
G1 X183.428 Y150.432 E0.01729
G1 X203.22 Y150.431 E0.85314
G1 X203.843 Y150.379 E0.02695
G1 X209.413 Y150.414 E0.2401
G1 X209.554 Y150.431 E0.00612
G1 X218.395 Y150.436 E0.38109
G1 X220.718 Y150.937 E0.10244
G1 X223.151 Y152.374 E0.1218
G1 X224.792 Y154.158 E0.10448
G1 X225.734 Y155.811 E0.08201
G1 X226.151 Y157.222 E0.06342
G1 X226.368 Y158.449 E0.05371
G1 X226.136 Y160.416 E0.08538
G1 X225.912 Y161.354 E0.04157
G1 X225.475 Y162.193 E0.04078
G1 X225.476 Y210.545 E2.08422
G1 X224.814 Y212.745 E0.09903
G1 X224.441 Y213.376 E0.0316
G1 X223.466 Y214.614 E0.06793
G1 X213.744 Y224.355 E0.59323
G1 X213.602 Y224.961 E0.02683
G1 X213.319 Y225.719 E0.03488
G1 X212.358 Y227.218 E0.07675
G1 X210.555 Y229.02 E0.10988
G1 X208.336 Y230.211 E0.10856
G1 X206.775 Y230.428 E0.06793
G0 F6000 X206.713 Y229.982
G1 F2400 X181.041 Y230.026 E1.1066
G1 X178.993 Y229.407 E0.09222
G1 X178.413 Y229.069 E0.02894
G1 X177.234 Y228.152 E0.06438
G1 X176.026 Y226.969 E0.07288
G1 X175.053 Y225.44 E0.07812
G1 X174.696 Y224.302 E0.05141
G1 X174.657 Y224.102 E0.00878
G1 X163.787 Y213.233 E0.6626
G1 X162.666 Y211.145 E0.10215
G1 X162.46 Y209.662 E0.06454
G1 X162.417 Y162.107 E2.04987
G1 X162.294 Y161.894 E0.0106
G1 X161.749 Y160.462 E0.06605
G1 X161.537 Y158.962 E0.0653
G1 X161.635 Y157.326 E0.07065
G1 X162.255 Y155.712 E0.07453
G1 X162.864 Y154.55 E0.05655
G1 X164.634 Y152.702 E0.1103
G1 X166.876 Y151.349 E0.11288
G1 X169.156 Y150.886 E0.10029
G1 X177.134 Y150.882 E0.34389
G1 X177.741 Y150.829 E0.02626
G1 X182.983 Y150.839 E0.22596
G1 X183.402 Y150.882 E0.01816
G1 X203.236 Y150.881 E0.85495
G1 X203.84 Y150.829 E0.02613
G1 X209.359 Y150.861 E0.2379
G1 X209.525 Y150.881 E0.00721
G1 X218.346 Y150.886 E0.38023
G1 X220.553 Y151.362 E0.09732
G1 X222.864 Y152.727 E0.11569
G1 X224.426 Y154.425 E0.09945
G1 X225.317 Y155.988 E0.07755
G1 X225.719 Y157.349 E0.06117
G1 X225.913 Y158.461 E0.04866
G1 X225.698 Y160.312 E0.08032
G1 X225.487 Y161.196 E0.03918
G1 X225.025 Y162.083 E0.04311
G1 X225.026 Y210.478 E2.08607
G1 X224.398 Y212.564 E0.0939
G1 X224.087 Y213.098 E0.02664
G1 X223.147 Y214.296 E0.06564
G1 X213.334 Y224.128 E0.59878
G1 X213.18 Y224.804 E0.02989
G1 X212.914 Y225.517 E0.0328
G1 X212.004 Y226.936 E0.07266
G1 X210.284 Y228.655 E0.10482
G1 X208.196 Y229.776 E0.10215
G1 X206.713 Y229.982 E0.06454
G1 F6000 E-4.25
G1 F300 Z0.45
G0 F6000 X208.053 Y229.341 Z0.45
G1 F300 Z0.25
G1 F6000 E4.25
G1 F2400 X206.651 Y229.536 E0.06102
G1 X181.108 Y229.576 E1.10104
G1 X179.175 Y228.992 E0.08704
G1 X178.64 Y228.68 E0.0267
G1 X177.549 Y227.831 E0.05959
G1 X176.38 Y226.686 E0.07053
G1 X175.463 Y225.246 E0.07359
G1 X175.138 Y224.216 E0.04656
G1 X175.073 Y223.882 E0.01467
G1 X164.154 Y212.964 E0.66559
G1 X163.101 Y211.002 E0.09598
G1 X162.906 Y209.6 E0.06102
G1 X162.867 Y161.979 E2.05271
G1 X162.715 Y161.734 E0.01243
G1 X162.188 Y160.349 E0.06388
G1 X161.989 Y158.941 E0.0613
G1 X162.08 Y157.422 E0.06559
G1 X162.654 Y155.921 E0.06927
G1 X163.234 Y154.814 E0.05387
G1 X164.917 Y153.057 E0.10488
G1 X167.042 Y151.774 E0.107
G1 X169.201 Y151.336 E0.09496
G1 X177.152 Y151.332 E0.34273
G1 X177.74 Y151.279 E0.02545
G1 X182.937 Y151.287 E0.22402
G1 X183.375 Y151.332 E0.01898
G1 X203.254 Y151.331 E0.85689
G1 X203.838 Y151.279 E0.02527
G1 X209.305 Y151.308 E0.23566
G1 X209.496 Y151.331 E0.00829
G1 X218.297 Y151.336 E0.37937
G1 X220.388 Y151.787 E0.09221
G1 X222.577 Y153.08 E0.10959
G1 X224.06 Y154.692 E0.09442
G1 X224.899 Y156.164 E0.07303
G1 X225.287 Y157.477 E0.05902
G1 X225.458 Y158.476 E0.04369
G1 X225.26 Y160.208 E0.07514
G1 X225.062 Y161.038 E0.03678
G1 X224.575 Y161.973 E0.04544
G1 X224.576 Y210.411 E2.08793
G1 X223.983 Y212.382 E0.08872
G1 X223.698 Y212.871 E0.0244
G1 X222.828 Y213.978 E0.06069
G1 X212.924 Y223.902 E0.60436
G1 X212.758 Y224.647 E0.0329
G1 X212.509 Y225.315 E0.03073
G1 X211.65 Y226.654 E0.06857
G1 X210.015 Y228.288 E0.09964
G1 X208.053 Y229.341 E0.09598
G0 F6000 X207.913 Y228.906
G1 F2400 X206.589 Y229.09 E0.05762
G1 X181.175 Y229.126 E1.09548
G1 X179.357 Y228.577 E0.08186
G1 X178.867 Y228.291 E0.02446
G1 X177.864 Y227.51 E0.0548
G1 X176.734 Y226.403 E0.06819
G1 X175.874 Y225.053 E0.069
G1 X175.58 Y224.13 E0.04176
G1 X175.489 Y223.662 E0.02055
G1 X164.519 Y212.693 E0.6687
G1 X163.536 Y210.862 E0.08958
G1 X163.352 Y209.538 E0.05762
G1 X163.317 Y161.841 E2.05599
G1 X163.136 Y161.574 E0.0139
G1 X162.627 Y160.236 E0.06171
G1 X162.441 Y158.92 E0.05729
G1 X162.525 Y157.52 E0.06046
G1 X163.053 Y156.13 E0.06409
G1 X163.604 Y155.078 E0.05119
G1 X165.2 Y153.412 E0.09945
G1 X167.208 Y152.2 E0.1011
G1 X169.247 Y151.786 E0.08968
G1 X177.173 Y151.782 E0.34165
G1 X177.739 Y151.729 E0.0245
G1 X182.891 Y151.735 E0.22208
G1 X183.349 Y151.782 E0.01985
G1 X203.273 Y151.781 E0.85883
G1 X203.836 Y151.729 E0.02437
G1 X209.251 Y151.755 E0.23342
G1 X209.467 Y151.781 E0.00938
G1 X218.248 Y151.786 E0.37851
G1 X220.223 Y152.212 E0.08709
G1 X222.29 Y153.433 E0.10348
G1 X223.694 Y154.959 E0.08938
G1 X224.481 Y156.34 E0.06852
G1 X224.855 Y157.605 E0.05686
G1 X225.004 Y158.49 E0.03868
G1 X224.822 Y160.104 E0.07001
G1 X224.637 Y160.88 E0.03439
G1 X224.125 Y161.863 E0.04778
G1 X224.126 Y210.344 E2.08978
G1 X223.568 Y212.2 E0.08354
G1 X223.309 Y212.644 E0.02216
G1 X222.509 Y213.66 E0.05574
G1 X212.512 Y223.677 E0.61003
G1 X212.336 Y224.49 E0.03586
G1 X212.104 Y225.113 E0.02866
G1 X211.296 Y226.372 E0.06448
G1 X209.744 Y227.923 E0.09458
G1 X207.913 Y228.906 E0.08958
G0 F6000 X207.77 Y228.471
G1 F2400 X206.527 Y228.644 E0.0541
G1 X181.242 Y228.676 E1.08991
G1 X179.539 Y228.162 E0.07668
G1 X179.094 Y227.902 E0.02222
G1 X178.142 Y227.156 E0.05213
G1 X177.088 Y226.12 E0.06371
G1 X176.284 Y224.858 E0.0645
G1 X176.022 Y224.044 E0.03686
G1 X175.905 Y223.442 E0.02643
G1 X164.886 Y212.424 E0.67169
G1 X163.971 Y210.719 E0.08341
G1 X163.798 Y209.476 E0.0541
G1 X163.767 Y161.703 E2.05926
G1 X163.539 Y161.366 E0.01754
G1 X163.066 Y160.123 E0.05733
G1 X162.893 Y158.899 E0.05329
G1 X162.97 Y157.617 E0.05536
G1 X163.474 Y156.29 E0.06119
G1 X163.973 Y155.343 E0.04614
G1 X165.483 Y153.767 E0.09408
G1 X167.374 Y152.625 E0.09522
G1 X169.292 Y152.236 E0.08436
G1 X177.197 Y152.232 E0.34075
G1 X177.739 Y152.179 E0.02347
G1 X182.845 Y152.183 E0.22009
G1 X183.322 Y152.232 E0.02067
G1 X203.295 Y152.231 E0.86094
G1 X203.834 Y152.179 E0.02334
G1 X209.197 Y152.202 E0.23117
G1 X209.438 Y152.231 E0.01046
G1 X218.199 Y152.236 E0.37764
G1 X220.058 Y152.637 E0.08198
G1 X222.003 Y153.786 E0.09738
G1 X223.328 Y155.226 E0.08435
G1 X224.063 Y156.516 E0.064
G1 X224.423 Y157.733 E0.05471
G1 X224.55 Y158.503 E0.03364
G1 X224.384 Y160 E0.06492
G1 X224.212 Y160.722 E0.03199
G1 X223.675 Y161.753 E0.05011
G1 X223.676 Y210.277 E2.09163
G1 X223.152 Y212.02 E0.07845
G1 X222.955 Y212.366 E0.01716
G1 X222.19 Y213.342 E0.05345
G1 X212.1 Y223.452 E0.61569
G1 X211.914 Y224.333 E0.03881
G1 X211.699 Y224.911 E0.02658
G1 X210.942 Y226.09 E0.06039
G1 X209.475 Y227.556 E0.0894
G1 X207.77 Y228.471 E0.08341
G0 F6000 X207.63 Y228.036
G1 F2400 X206.465 Y228.198 E0.0507
G1 X181.309 Y228.226 E1.08435
G1 X179.718 Y227.746 E0.07163
G1 X179.371 Y227.547 E0.01724
G1 X178.458 Y226.835 E0.04991
G1 X177.441 Y225.835 E0.06148
G1 X176.695 Y224.664 E0.05985
G1 X176.464 Y223.958 E0.03202
G1 X176.321 Y223.222 E0.03232
G1 X165.251 Y212.153 E0.6748
G1 X164.406 Y210.579 E0.07701
G1 X164.244 Y209.414 E0.0507
G1 X164.217 Y161.565 E2.06254
G1 X163.942 Y161.158 E0.02117
G1 X163.505 Y160.01 E0.05295
G1 X163.345 Y158.878 E0.04928
G1 X163.415 Y157.713 E0.05031
G1 X163.872 Y156.5 E0.05587
G1 X164.342 Y155.608 E0.04346
G1 X165.766 Y154.122 E0.08872
G1 X167.54 Y153.051 E0.08932
G1 X169.338 Y152.686 E0.07908
G1 X177.224 Y152.682 E0.33993
G1 X177.739 Y152.629 E0.02232
G1 X182.799 Y152.631 E0.21811
G1 X183.296 Y152.682 E0.02154
G1 X203.32 Y152.681 E0.86314
G1 X203.832 Y152.629 E0.02218
G1 X209.143 Y152.649 E0.22893
G1 X209.409 Y152.681 E0.01155
G1 X218.15 Y152.686 E0.37678
G1 X219.893 Y153.062 E0.07686
G1 X221.716 Y154.139 E0.09127
G1 X222.962 Y155.493 E0.07932
G1 X223.647 Y156.694 E0.0596
G1 X223.979 Y157.806 E0.05002
G1 X224.096 Y158.516 E0.03102
G1 X223.946 Y159.896 E0.05984
G1 X223.787 Y160.564 E0.0296
G1 X223.225 Y161.643 E0.05244
G1 X223.226 Y210.211 E2.09353
G1 X222.736 Y211.842 E0.07341
G1 X222.6 Y212.089 E0.01215
G1 X221.871 Y213.024 E0.05111
G1 X211.688 Y223.227 E0.62136
G1 X211.474 Y224.24 E0.04463
G1 X211.295 Y224.707 E0.02156
G1 X210.588 Y225.808 E0.0564
G1 X209.204 Y227.191 E0.08434
G1 X207.63 Y228.036 E0.07701
G0 F6000 X207.487 Y227.601
G1 F2400 X206.403 Y227.752 E0.04718
G1 X181.376 Y227.776 E1.07879
G1 X179.896 Y227.33 E0.06663
G1 X179.648 Y227.192 E0.01223
G1 X178.735 Y226.48 E0.04991
G1 X177.793 Y225.55 E0.05706
G1 X177.105 Y224.471 E0.05516
G1 X176.906 Y223.872 E0.02721
G1 X176.737 Y223.002 E0.0382
G1 X165.618 Y211.884 E0.67778
G1 X164.841 Y210.436 E0.07083
G1 X164.69 Y209.352 E0.04718
G1 X164.667 Y161.76 E2.05146
G1 X164.682 Y161.45 E0.01338
G1 X164.345 Y160.95 E0.02599
G1 X163.944 Y159.897 E0.04857
G1 X163.797 Y158.857 E0.04527
G1 X163.86 Y157.809 E0.04526
G1 X164.27 Y156.71 E0.05056
G1 X164.711 Y155.873 E0.04078
G1 X166.049 Y154.477 E0.08335
G1 X167.706 Y153.476 E0.08345
G1 X169.383 Y153.136 E0.07376
G1 X177.244 Y153.132 E0.33885
G1 X177.739 Y153.079 E0.02146
G1 X182.753 Y153.079 E0.21613
G1 X183.269 Y153.132 E0.02236
G1 X203.339 Y153.131 E0.86512
G1 X203.83 Y153.079 E0.02128
G1 X209.141 Y153.099 E0.22893
G1 X209.378 Y153.131 E0.01031
G1 X218.101 Y153.136 E0.37601
G1 X219.728 Y153.487 E0.07175
G1 X221.429 Y154.492 E0.08516
G1 X222.596 Y155.76 E0.07428
G1 X223.23 Y156.872 E0.05518
G1 X223.535 Y157.879 E0.04535
G1 X223.642 Y158.53 E0.02844
G1 X223.508 Y159.792 E0.0547
G1 X223.361 Y160.408 E0.0273
G1 X222.834 Y161.423 E0.0493
G1 X222.763 Y161.527 E0.00543
G1 X222.775 Y161.879 E0.01518
G1 X222.776 Y210.145 E2.08051
G1 X222.319 Y211.667 E0.0685
G1 X222.244 Y211.813 E0.00708
G1 X221.552 Y212.706 E0.0487
G1 X211.274 Y223.004 E0.62716
G1 X211.054 Y224.079 E0.0473
G1 X210.892 Y224.501 E0.01948
G1 X210.234 Y225.526 E0.0525
G1 X208.935 Y226.824 E0.07916
G1 X207.487 Y227.601 E0.07083
G0 F6000 X207.347 Y227.166
G1 F2400 X206.341 Y227.306 E0.04378
G1 X181.443 Y227.326 E1.07323
G1 X180.071 Y226.913 E0.06176
G1 X179.925 Y226.837 E0.00709
G1 X179.012 Y226.125 E0.04991
G1 X178.145 Y225.265 E0.05264
G1 X177.514 Y224.276 E0.05057
G1 X177.348 Y223.786 E0.0223
G1 X177.153 Y222.782 E0.04409
G1 X165.983 Y211.613 E0.68089
G1 X165.276 Y210.296 E0.06443
G1 X165.136 Y209.29 E0.04378
G1 X165.117 Y161.76 E2.04879
G1 X165.138 Y161.323 E0.01886
G1 X164.749 Y160.745 E0.03003
G1 X164.383 Y159.784 E0.04433
G1 X164.249 Y158.836 E0.04127
G1 X164.305 Y157.905 E0.0402
G1 X164.692 Y156.867 E0.04775
G1 X165.079 Y156.139 E0.03554
G1 X166.332 Y154.832 E0.07805
G1 X167.872 Y153.902 E0.07755
G1 X169.429 Y153.586 E0.06848
G1 X177.267 Y153.582 E0.33786
G1 X177.739 Y153.529 E0.02047
G1 X182.753 Y153.529 E0.21613
G1 X183.249 Y153.582 E0.0215
G1 X203.362 Y153.581 E0.86697
G1 X203.829 Y153.529 E0.02025
G1 X209.081 Y153.545 E0.22639
G1 X209.348 Y153.581 E0.01161
G1 X218.052 Y153.586 E0.37519
G1 X219.563 Y153.912 E0.06663
G1 X221.142 Y154.845 E0.07906
G1 X222.23 Y156.027 E0.06925
G1 X222.813 Y157.05 E0.05075
G1 X223.104 Y158.01 E0.04324
G1 X223.188 Y158.54 E0.02313
G1 X223.07 Y159.688 E0.04975
G1 X222.936 Y160.251 E0.02495
G1 X222.435 Y161.215 E0.04683
G1 X222.308 Y161.387 E0.00922
G1 X222.325 Y161.879 E0.02122
G1 X222.326 Y210.079 E2.07767
G1 X221.888 Y211.538 E0.06566
G1 X221.233 Y212.388 E0.04626
G1 X210.86 Y222.781 E0.63295
G1 X210.613 Y223.989 E0.05315
G1 X210.489 Y224.295 E0.01423
G1 X209.88 Y225.244 E0.04861
G1 X208.664 Y226.459 E0.0741
G1 X207.347 Y227.166 E0.06443
G0 F6000 X207.204 Y226.731
G1 F2400 X206.279 Y226.86 E0.04026
G1 X181.51 Y226.876 E1.06767
G1 X180.201 Y226.482 E0.05893
G1 X179.329 Y225.805 E0.04759
G1 X178.495 Y224.978 E0.05063
G1 X177.923 Y224.081 E0.04586
G1 X177.79 Y223.7 E0.01739
G1 X177.612 Y222.784 E0.04022
G1 X177.606 Y222.599 E0.00798
G1 X166.35 Y211.344 E0.68613
G1 X165.711 Y210.153 E0.05826
G1 X165.582 Y209.228 E0.04026
G1 X165.567 Y161.76 E2.04611
G1 X165.594 Y161.195 E0.02438
G1 X165.153 Y160.54 E0.03404
G1 X164.822 Y159.671 E0.04008
G1 X164.701 Y158.815 E0.03726
