;FLAVOR:RepRap
;TIME:3125
;Filament used: 5.57363m
;Layer height: 0.2
;MINX:127.907
;MINY:159.675
;MINZ:0.2
;MAXX:227.06
;MAXY:220.527
;MAXZ:12.8
;TARGET_MACHINE.NAME:Fusion3 F410
;Generated with Cura_SteamEngine 5.9.0
T0
M82 ;absolute extrusion mode
; Fusion3 F410 start code
M104 S0 ; shutdown heater and prepare to print
G21  ; set units to mm
G90  ; use absolute coordinates
T0  ; select tool 0
G92 E0.0  ; reset e count
M220 S100 ; reset speed multiplier
M140 S110  ; set bed temp and do not wait
G32  ; call to run bed.g
M190 S110 ; Set bed temperature and wait
M109 S270 ; set print head temperature and wait
; === pause for heating ===
; reset filament monitor
M42 P63 S0
G4 P100
G4 P50
M42 P63 S1
G1 X350 Y0
G1 Z10.0 F2000  ; move up
G1 E10.0 F500  ; prime extruder
G92 E0.0  ; reset e count
G1 X330 Y15 F9000  ; move back
G1 Z0.2 F1000  ; move down to begin wipe
G1 X150 E4.0 F6000  ; wipe print head (extrude material while we do this)
G92 E0.0  ; reset e count

M83 ;relative extrusion mode
G1 F6000 E-4
;LAYER_COUNT:64
;LAYER:0
M107
G1 F300 Z0.4
G0 F6000 X216.391 Y210.333 Z0.4
;TYPE:SKIRT
G1 F300 Z0.2
G1 F6000 E4
G1 F2400 X216.235 Y210.396 E0.00617
G1 X138.765 Y210.397 E2.84077
G1 X138.532 Y210.331 E0.00888
G1 X138.416 Y210.242 E0.00536
G1 X138.262 Y209.947 E0.0122
G1 X138.143 Y205.358 E0.16833
G1 X137.855 Y170.495 E1.27845
G1 X137.99 Y170.072 E0.01628
G1 X138.236 Y169.78 E0.014
G1 X138.728 Y169.613 E0.01905
G1 X216.273 Y169.613 E2.84352
G1 X216.693 Y169.752 E0.01622
G1 X216.983 Y170 E0.01399
G1 X217.146 Y170.49 E0.01894
G1 X216.857 Y205.361 E1.27874
G1 X216.742 Y209.905 E0.16668
G1 X216.673 Y210.061 E0.00625
G1 X216.391 Y210.333 E0.01437
G1 F6000 E-4
G1 F300 Z0.4
G0 F6000 X217.612 Y220.438 Z0.4
G1 F300 Z0.2
G1 F6000 E4
G1 F2400 X216.369 Y220.527 E0.0457
G1 X137.828 Y220.477 E2.88004
G1 X136.673 Y220.305 E0.04282
G1 X134.906 Y219.788 E0.06751
G1 X133.546 Y219.151 E0.05507
G1 X132.5 Y218.478 E0.04561
G1 X131.1 Y217.329 E0.06641
G1 X129.787 Y215.565 E0.08064
G1 X129.002 Y214.096 E0.06108
G1 X128.684 Y213.244 E0.03335
G1 X128.177 Y210.942 E0.08644
G1 X128.145 Y210.528 E0.01523
G1 X128.097 Y190.38 E0.73882
G1 X128.292 Y189.541 E0.03159
G1 X128.28 Y184.554 E0.18287
G1 X128.765 Y182.582 E0.07447
G1 X129.048 Y181.851 E0.02874
G1 X130.136 Y180.324 E0.06875
G1 X130.285 Y180.155 E0.00826
G1 X130.254 Y176.564 E0.13168
G1 X129.593 Y175.802 E0.03699
G1 X128.821 Y174.405 E0.05853
G1 X128.707 Y174.032 E0.0143
G1 X128.49 Y173.629 E0.01678
G1 X127.907 Y171.443 E0.08296
G1 X128.096 Y169.363 E0.07659
G1 X128.51 Y167.478 E0.07077
G1 X129.058 Y165.876 E0.06209
G1 X130.432 Y163.67 E0.0953
G1 X132.472 Y161.77 E0.10223
G1 X134.593 Y160.606 E0.08872
G1 X136.548 Y160.012 E0.07492
G1 X139.108 Y159.733 E0.09443
G1 X141.233 Y159.996 E0.07852
G1 X142.237 Y160.473 E0.04076
G1 X143.052 Y160.751 E0.03158
G1 X144.605 Y161.799 E0.0687
G1 X144.773 Y161.963 E0.00861
G1 X210.259 Y161.963 E2.40133
G1 X211.031 Y161.303 E0.03724
G1 X212.48 Y160.529 E0.06024
G1 X212.793 Y160.434 E0.01199
G1 X213.134 Y160.252 E0.01417
G1 X215.327 Y159.675 E0.08315
G1 X217.225 Y159.829 E0.06983
G1 X219.176 Y160.239 E0.0731
G1 X220.938 Y160.843 E0.0683
G1 X223.099 Y162.202 E0.09361
G1 X225.055 Y164.287 E0.10483
G1 X226.158 Y166.514 E0.09113
G1 X226.883 Y168.701 E0.08449
G1 X227.06 Y170.59 E0.06957
G1 X226.762 Y172.433 E0.06846
G1 X226.483 Y173.38 E0.0362
G1 X226.112 Y174.004 E0.02662
G1 X225.993 Y174.286 E0.01122
G1 X225.433 Y175.385 E0.04523
G1 X224.752 Y176.169 E0.03808
G1 X224.719 Y180.184 E0.14723
G1 X225.013 Y180.465 E0.01491
G1 X226.043 Y182.158 E0.07267
G1 X226.72 Y184.217 E0.07948
G1 X226.706 Y190.4 E0.22673
G1 X226.902 Y191.259 E0.03231
G1 X226.821 Y210.835 E0.71784
G1 X226.669 Y212.165 E0.04909
G1 X225.91 Y214.513 E0.09049
G1 X224.611 Y216.506 E0.08723
G1 X222.943 Y218.276 E0.08918
G1 X220.922 Y219.433 E0.08539
G1 X219.363 Y220.138 E0.06274
G1 X217.612 Y220.438 E0.06514
G0 F6000 X217.536 Y219.994
G1 F2400 X216.369 Y220.077 E0.0429
G1 X137.893 Y220.032 E2.87766
G1 X136.798 Y219.873 E0.04057
G1 X135.097 Y219.38 E0.06494
G1 X133.737 Y218.743 E0.05507
G1 X132.786 Y218.13 E0.04149
G1 X131.428 Y217.015 E0.06443
G1 X130.148 Y215.296 E0.07859
G1 X129.423 Y213.936 E0.05651
G1 X129.123 Y213.146 E0.03099
G1 X128.626 Y210.907 E0.0841
G1 X128.594 Y210.493 E0.01523
G1 X128.547 Y190.43 E0.7357
G1 X128.742 Y189.591 E0.03159
G1 X128.73 Y184.608 E0.18272
G1 X129.185 Y182.745 E0.07032
G1 X129.448 Y182.066 E0.0267
G1 X130.503 Y180.585 E0.06668
G1 X130.736 Y180.325 E0.0128
G1 X130.703 Y176.394 E0.14415
G1 X129.963 Y175.542 E0.04138
G1 X129.237 Y174.227 E0.05508
G1 X129.124 Y173.857 E0.01419
G1 X128.911 Y173.462 E0.01646
G1 X128.362 Y171.403 E0.07814
G1 X128.536 Y169.46 E0.07153
G1 X128.95 Y167.575 E0.07077
G1 X129.468 Y166.069 E0.0584
G1 X130.783 Y163.958 E0.0912
G1 X132.737 Y162.138 E0.09792
G1 X134.767 Y161.024 E0.08491
G1 X136.643 Y160.454 E0.0719
G1 X139.102 Y160.186 E0.0907
G1 X141.105 Y160.434 E0.07401
G1 X142.066 Y160.89 E0.03901
G1 X142.85 Y161.158 E0.03038
G1 X144.353 Y162.172 E0.06648
G1 X144.577 Y162.413 E0.01207
G1 X210.424 Y162.413 E2.41456
G1 X211.285 Y161.678 E0.04151
G1 X212.651 Y160.948 E0.05679
G1 X212.964 Y160.853 E0.01199
G1 X213.301 Y160.673 E0.01401
G1 X215.365 Y160.13 E0.07826
G1 X217.189 Y160.278 E0.0671
G1 X219.03 Y160.665 E0.06898
G1 X220.743 Y161.252 E0.0664
G1 X222.811 Y162.553 E0.08959
G1 X224.68 Y164.545 E0.10016
G1 X225.731 Y166.656 E0.08647
G1 X226.44 Y168.794 E0.0826
G1 X226.607 Y170.576 E0.06563
G1 X226.33 Y172.306 E0.06425
G1 X226.067 Y173.199 E0.03414
G1 X225.708 Y173.802 E0.02573
G1 X225.578 Y174.111 E0.01229
G1 X225.058 Y175.131 E0.04198
G1 X224.303 Y175.999 E0.04218
G1 X224.267 Y180.376 E0.16051
G1 X224.661 Y180.752 E0.01997
G1 X225.632 Y182.348 E0.0685
G1 X226.27 Y184.288 E0.07489
G1 X226.256 Y190.451 E0.22599
G1 X226.452 Y191.31 E0.03231
G1 X226.374 Y210.784 E0.7141
G1 X226.227 Y212.07 E0.04746
G1 X225.501 Y214.316 E0.08656
G1 X224.257 Y216.224 E0.08352
G1 X222.659 Y217.92 E0.08545
G1 X220.736 Y219.023 E0.08129
G1 X219.231 Y219.704 E0.06057
G1 X217.536 Y219.994 E0.06306
G0 F6000 X217.46 Y219.55
G1 F2400 X216.369 Y219.627 E0.04011
G1 X137.956 Y219.586 E2.87535
G1 X136.922 Y219.44 E0.03829
G1 X135.287 Y218.972 E0.06236
G1 X133.98 Y218.364 E0.05286
G1 X133.072 Y217.782 E0.03955
G1 X131.755 Y216.701 E0.06248
G1 X130.545 Y215.083 E0.07409
G1 X129.844 Y213.776 E0.05439
G1 X129.544 Y212.986 E0.03099
G1 X129.075 Y210.872 E0.0794
G1 X129.043 Y210.458 E0.01523
G1 X128.997 Y190.48 E0.73258
G1 X129.192 Y189.641 E0.03159
G1 X129.18 Y184.66 E0.18265
G1 X129.605 Y182.907 E0.06614
G1 X129.847 Y182.282 E0.02458
G1 X130.87 Y180.846 E0.06465
G1 X131.187 Y180.498 E0.01726
G1 X131.152 Y176.224 E0.15673
G1 X130.335 Y175.283 E0.0457
G1 X129.653 Y174.048 E0.05173
G1 X129.541 Y173.684 E0.01397
G1 X129.333 Y173.297 E0.01611
G1 X128.817 Y171.362 E0.07343
G1 X128.976 Y169.557 E0.06644
G1 X129.39 Y167.672 E0.07077
G1 X129.876 Y166.265 E0.05458
G1 X131.134 Y164.246 E0.08723
G1 X133.002 Y162.506 E0.09361
G1 X134.941 Y161.442 E0.0811
G1 X136.738 Y160.896 E0.06887
G1 X139.096 Y160.639 E0.08698
G1 X140.98 Y160.872 E0.06961
G1 X141.9 Y161.309 E0.03735
G1 X142.647 Y161.564 E0.02894
G1 X144.059 Y162.517 E0.06247
G1 X144.381 Y162.863 E0.01733
G1 X210.589 Y162.863 E2.4278
G1 X211.539 Y162.053 E0.04578
G1 X212.822 Y161.367 E0.05335
G1 X213.135 Y161.272 E0.01199
G1 X213.468 Y161.094 E0.01385
G1 X215.403 Y160.585 E0.07337
G1 X217.153 Y160.727 E0.06438
G1 X218.884 Y161.091 E0.06486
G1 X220.548 Y161.661 E0.0645
G1 X222.523 Y162.904 E0.08557
G1 X224.306 Y164.804 E0.09555
G1 X225.328 Y166.857 E0.08409
G1 X225.997 Y168.886 E0.07834
G1 X226.154 Y170.563 E0.06176
G1 X225.898 Y172.179 E0.06
G1 X225.651 Y173.018 E0.03207
G1 X225.306 Y173.598 E0.02475
G1 X225.177 Y173.906 E0.01224
G1 X224.681 Y174.878 E0.04001
G1 X223.854 Y175.829 E0.04621
G1 X223.815 Y180.568 E0.17378
G1 X224.309 Y181.039 E0.02503
G1 X225.221 Y182.538 E0.06434
G1 X225.82 Y184.359 E0.07029
G1 X225.806 Y190.502 E0.22526
G1 X226.002 Y191.361 E0.03231
G1 X225.927 Y210.733 E0.71036
G1 X225.785 Y211.975 E0.04584
G1 X225.092 Y214.119 E0.08262
G1 X223.901 Y215.946 E0.07997
G1 X222.377 Y217.563 E0.08148
G1 X220.551 Y218.613 E0.07724
G1 X219.101 Y219.269 E0.05836
G1 X217.46 Y219.55 E0.06105
G0 F6000 X217.384 Y219.106
G1 F2400 X216.369 Y219.177 E0.03731
G1 X138.017 Y219.14 E2.87311
G1 X137.045 Y219.007 E0.03597
G1 X135.476 Y218.563 E0.05979
G1 X134.222 Y217.984 E0.05065
G1 X133.358 Y217.434 E0.03756
G1 X132.082 Y216.386 E0.06055
G1 X130.941 Y214.869 E0.06961
G1 X130.265 Y213.616 E0.05221
G1 X129.965 Y212.826 E0.03099
G1 X129.524 Y210.837 E0.07471
G1 X129.492 Y210.423 E0.01523
G1 X129.447 Y190.53 E0.72946
G1 X129.642 Y189.691 E0.03159
G1 X129.63 Y184.715 E0.18247
G1 X130.025 Y183.07 E0.06204
G1 X130.248 Y182.495 E0.02262
G1 X131.203 Y181.149 E0.06052
G1 X131.638 Y180.671 E0.0237
G1 X131.601 Y176.054 E0.16931
G1 X130.705 Y175.023 E0.05009
G1 X130.07 Y173.872 E0.0482
G1 X129.958 Y173.51 E0.0139
G1 X129.755 Y173.131 E0.01577
G1 X129.272 Y171.321 E0.06869
G1 X129.416 Y169.654 E0.06136
G1 X129.83 Y167.769 E0.07077
G1 X130.285 Y166.46 E0.05082
G1 X131.485 Y164.534 E0.08321
G1 X133.267 Y162.874 E0.0893
G1 X135.115 Y161.86 E0.0773
G1 X136.833 Y161.338 E0.06584
G1 X139.09 Y161.092 E0.08325
G1 X140.852 Y161.31 E0.0651
G1 X141.729 Y161.726 E0.03559
G1 X142.445 Y161.971 E0.02775
G1 X143.765 Y162.862 E0.0584
G1 X144.185 Y163.313 E0.0226
G1 X210.755 Y163.313 E2.44108
G1 X211.796 Y162.426 E0.05015
G1 X212.993 Y161.786 E0.04977
G1 X213.306 Y161.691 E0.01199
G1 X213.634 Y161.516 E0.01363
G1 X215.442 Y161.04 E0.06856
G1 X217.061 Y161.168 E0.05955
G1 X218.738 Y161.517 E0.06281
G1 X220.353 Y162.07 E0.0626
G1 X222.235 Y163.255 E0.08155
G1 X223.934 Y165.065 E0.09103
G1 X224.901 Y166.998 E0.07926
G1 X225.554 Y168.977 E0.07642
G1 X225.701 Y170.547 E0.05782
G1 X225.466 Y172.052 E0.05586
G1 X225.235 Y172.837 E0.03001
G1 X224.903 Y173.395 E0.02381
G1 X224.776 Y173.701 E0.01215
G1 X224.303 Y174.628 E0.03816
G1 X223.405 Y175.66 E0.05016
G1 X223.363 Y180.759 E0.18698
G1 X223.956 Y181.324 E0.03003
G1 X224.809 Y182.725 E0.06015
G1 X225.37 Y184.432 E0.06589
G1 X225.356 Y190.553 E0.22445
G1 X225.552 Y191.412 E0.03231
G1 X225.48 Y210.682 E0.70662
G1 X225.343 Y211.88 E0.04422
G1 X224.683 Y213.922 E0.07869
G1 X223.545 Y215.668 E0.07642
G1 X222.096 Y217.205 E0.07746
G1 X220.365 Y218.203 E0.07327
G1 X218.969 Y218.835 E0.05619
G1 X217.384 Y219.106 E0.05896
G0 F6000 X217.308 Y218.662
G1 F2400 X216.369 Y218.727 E0.03451
G1 X138.078 Y218.694 E2.87088
G1 X137.106 Y218.561 E0.03597
G1 X135.665 Y218.154 E0.05491
G1 X134.411 Y217.575 E0.05065
G1 X133.644 Y217.086 E0.03336
G1 X132.408 Y216.071 E0.05865
G1 X131.301 Y214.599 E0.06754
G1 X130.686 Y213.456 E0.04759
G1 X130.386 Y212.666 E0.03099
G1 X129.973 Y210.802 E0.07001
G1 X129.941 Y210.388 E0.01523
G1 X129.897 Y190.58 E0.72635
G1 X130.092 Y189.741 E0.03159
G1 X130.08 Y184.769 E0.18232
G1 X130.463 Y183.175 E0.06011
G1 X130.647 Y182.71 E0.01834
G1 X131.536 Y181.452 E0.05649
G1 X132.089 Y180.844 E0.03014
G1 X132.049 Y175.828 E0.18394
G1 X131.847 Y175.651 E0.00985
G1 X131.077 Y174.764 E0.04307
G1 X130.486 Y173.694 E0.04482
G1 X130.375 Y173.336 E0.01374
G1 X130.177 Y172.965 E0.01542
G1 X129.727 Y171.279 E0.06399
G1 X129.856 Y169.751 E0.05623
G1 X130.27 Y167.866 E0.07077
G1 X130.694 Y166.654 E0.04708
G1 X131.836 Y164.822 E0.07916
G1 X133.532 Y163.242 E0.085
G1 X135.289 Y162.278 E0.07349
G1 X136.928 Y161.78 E0.06281
G1 X139.084 Y161.545 E0.07953
G1 X140.727 Y161.748 E0.06071
G1 X141.563 Y162.145 E0.03394
G1 X142.242 Y162.377 E0.02631
G1 X143.471 Y163.207 E0.05438
G1 X143.989 Y163.763 E0.02787
G1 X210.969 Y163.763 E2.45611
G1 X211.114 Y163.599 E0.00803
G1 X212.053 Y162.799 E0.04523
G1 X213.164 Y162.205 E0.0462
G1 X213.477 Y162.11 E0.01199
G1 X213.801 Y161.937 E0.01347
G1 X215.481 Y161.495 E0.0637
G1 X216.969 Y161.609 E0.05472
G1 X218.646 Y161.958 E0.06281
G1 X220.155 Y162.478 E0.05853
G1 X221.947 Y163.606 E0.07765
G1 X223.561 Y165.325 E0.08646
G1 X224.474 Y167.139 E0.07447
G1 X225.111 Y169.068 E0.07449
G1 X225.248 Y170.532 E0.05392
G1 X225.034 Y171.925 E0.05168
G1 X224.819 Y172.656 E0.02794
G1 X224.501 Y173.191 E0.02282
G1 X224.375 Y173.497 E0.01213
G1 X223.928 Y174.374 E0.0361
G1 X222.956 Y175.49 E0.05427
G1 X222.911 Y180.95 E0.20022
G1 X223.603 Y181.609 E0.03504
G1 X224.398 Y182.915 E0.05607
G1 X224.92 Y184.503 E0.0613
G1 X224.906 Y190.604 E0.22372
G1 X225.102 Y191.463 E0.03231
G1 X225.033 Y210.631 E0.70288
G1 X224.901 Y211.785 E0.04259
G1 X224.274 Y213.725 E0.07476
G1 X223.189 Y215.39 E0.07287
G1 X221.815 Y216.847 E0.07344
G1 X220.179 Y217.793 E0.0693
G1 X218.837 Y218.401 E0.05403
G1 X217.308 Y218.662 E0.05688
G0 F6000 X217.276 Y218.213
G1 F2400 X216.369 Y218.277 E0.03334
G1 X138.139 Y218.248 E2.86864
G1 X137.167 Y218.115 E0.03597
G1 X135.854 Y217.745 E0.05002
G1 X134.6 Y217.166 E0.05065
G1 X133.929 Y216.738 E0.02918
G1 X132.735 Y215.758 E0.05664
G1 X131.697 Y214.385 E0.06312
G1 X131.107 Y213.296 E0.04542
G1 X130.807 Y212.506 E0.03099
G1 X130.422 Y210.767 E0.06531
G1 X130.39 Y210.353 E0.01523
G1 X130.347 Y190.63 E0.72323
G1 X130.542 Y189.791 E0.03159
G1 X130.53 Y184.823 E0.18217
G1 X130.882 Y183.34 E0.05589
G1 X131.046 Y182.925 E0.01636
G1 X131.869 Y181.755 E0.05245
G1 X132.422 Y181.147 E0.03014
G1 X132.541 Y181.049 E0.00565
G1 X132.497 Y175.618 E0.19916
G1 X132.187 Y175.356 E0.01488
G1 X131.447 Y174.504 E0.04138
G1 X130.903 Y173.518 E0.04129
G1 X130.792 Y173.159 E0.01378
G1 X130.598 Y172.797 E0.01506
G1 X130.182 Y171.237 E0.0592
G1 X130.296 Y169.848 E0.0511
G1 X130.71 Y167.963 E0.07077
G1 X131.102 Y166.851 E0.04324
G1 X132.187 Y165.11 E0.07522
G1 X133.797 Y163.61 E0.08069
G1 X135.463 Y162.696 E0.06968
G1 X137.023 Y162.222 E0.05979
G1 X139.078 Y161.998 E0.0758
G1 X140.602 Y162.186 E0.05631
G1 X141.397 Y162.564 E0.03228
G1 X142.039 Y162.783 E0.02487
G1 X143.177 Y163.552 E0.05036
G1 X143.793 Y164.213 E0.03313
G1 X211.18 Y164.213 E2.47103
G1 X211.406 Y163.942 E0.01294
G1 X212.31 Y163.172 E0.04354
G1 X213.335 Y162.624 E0.04262
G1 X213.648 Y162.529 E0.01199
G1 X213.968 Y162.358 E0.0133
G1 X215.521 Y161.95 E0.05888
G1 X216.877 Y162.05 E0.04986
G1 X218.554 Y162.399 E0.06281
G1 X219.957 Y162.885 E0.05445
G1 X221.659 Y163.957 E0.07376
G1 X223.19 Y165.587 E0.082
G1 X224.047 Y167.28 E0.06958
G1 X224.668 Y169.159 E0.07257
G1 X224.795 Y170.518 E0.05005
G1 X224.589 Y171.857 E0.04968
G1 X224.404 Y172.474 E0.02362
G1 X224.1 Y172.985 E0.0218
G1 X223.974 Y173.293 E0.0122
G1 X223.553 Y174.119 E0.034
G1 X222.635 Y175.177 E0.05136
G1 X222.508 Y175.283 E0.00607
G1 X222.459 Y181.141 E0.21482
G1 X223.25 Y181.894 E0.04005
G1 X223.987 Y183.105 E0.05198
G1 X224.47 Y184.574 E0.0567
G1 X224.456 Y190.655 E0.22299
G1 X224.652 Y191.514 E0.03231
G1 X224.586 Y210.58 E0.69914
G1 X224.459 Y211.69 E0.04097
G1 X223.865 Y213.528 E0.07083
G1 X222.833 Y215.112 E0.06932
G1 X221.532 Y216.492 E0.06955
G1 X219.993 Y217.383 E0.06521
G1 X218.701 Y217.968 E0.05201
G1 X217.276 Y218.213 E0.05302
G0 F6000 X217.2 Y217.769
G1 F2400 X216.369 Y217.827 E0.03055
G1 X138.2 Y217.802 E2.8664
G1 X137.228 Y217.669 E0.03597
G1 X136.043 Y217.336 E0.04514
G1 X134.789 Y216.757 E0.05065
G1 X134.214 Y216.39 E0.02501
G1 X133.061 Y215.444 E0.05469
G1 X132.092 Y214.17 E0.05869
G1 X131.528 Y213.136 E0.04319
G1 X131.228 Y212.346 E0.03099
G1 X130.871 Y210.732 E0.06061
G1 X130.839 Y210.318 E0.01523
G1 X130.797 Y190.68 E0.72011
G1 X130.992 Y189.841 E0.03159
G1 X130.98 Y184.875 E0.1821
G1 X131.301 Y183.505 E0.0516
G1 X131.445 Y183.14 E0.01439
G1 X132.202 Y182.058 E0.04842
G1 X132.755 Y181.45 E0.03014
G1 X132.993 Y181.282 E0.01068
G1 X132.945 Y175.404 E0.21555
G1 X132.527 Y175.061 E0.01983
G1 X131.819 Y174.245 E0.03962
G1 X131.319 Y173.34 E0.03791
G1 X131.209 Y172.985 E0.01363
G1 X131.02 Y172.631 E0.01472
G1 X130.637 Y171.197 E0.05443
G1 X130.736 Y169.945 E0.04605
G1 X131.15 Y168.06 E0.07077
G1 X131.509 Y167.048 E0.03938
G1 X132.538 Y165.398 E0.07131
G1 X134.062 Y163.978 E0.07638
G1 X135.637 Y163.114 E0.06587
G1 X137.118 Y162.664 E0.05676
G1 X139.072 Y162.451 E0.07208
G1 X140.474 Y162.624 E0.0518
