;FLAVOR:RepRap
;TIME:4882
;Filament used: 8.47009m
;Layer height: 0.2
;MINX:144.473
;MINY:143.972
;MINZ:0.25
;MAXX:210.463
;MAXY:203.773
;MAXZ:40.85
;TARGET_MACHINE.NAME:Fusion3 F410
;Generated with Cura_SteamEngine 5.9.1
T0
M82 ;absolute extrusion mode
; Fusion3 F410 start code
M104 S0 ; shutdown heater and prepare to print
G21  ; set units to mm
G90  ; use absolute coordinates
T0  ; select tool 0
G92 E0.0  ; reset e count
M220 S100 ; reset speed multiplier
M140 S55  ; set bed temp and do not wait
G32  ; call to run bed.g
M190 S55 ; Set bed temperature and wait
M109 S220.0 ; set print head temperature and wait
; === pause for heating ===
; reset filament monitor
M42 P63 S0
G4 P100
G4 P50
M42 P63 S1
G1 X350 Y0
G1 Z10.0 F2000  ; move up
G1 E10.0 F500  ; prime extruder
G92 E0.0  ; reset e count
G1 X330 Y15 F9000  ; move back
G1 Z0.25 F1000  ; move down to begin wipe
G1 X150 E4.0 F6000  ; wipe print head (extrude material while we do this)
G92 E0.0  ; reset e count

M83 ;relative extrusion mode
G1 F6000 E-4.25
;LAYER_COUNT:204
;LAYER:0
M107
G1 F300 Z0.45
G0 F6000 X203.139 Y203.773 Z0.45
;TYPE:SKIRT
G1 F300 Z0.25
G1 F6000 E4.25
G1 F2400 X151.856 Y203.714 E2.21056
G1 X150.946 Y203.573 E0.03969
G1 X149.026 Y202.753 E0.08999
G1 X147.826 Y202.073 E0.05945
G1 X146.397 Y200.645 E0.08708
G1 X145.272 Y198.928 E0.08848
G1 X144.473 Y196.363 E0.1158
G1 X144.919 Y183.794 E0.54213
G1 X145.445 Y178.826 E0.21534
G1 X146.027 Y177.128 E0.07737
G1 X147.214 Y175.241 E0.09609
G1 X148.739 Y173.995 E0.08489
G1 X150.5 Y173.04 E0.08635
G1 X150.804 Y172.94 E0.01379
G1 X152.715 Y172.67 E0.08319
G1 X162.066 Y172.619 E0.40308
G1 X163.098 Y172.67 E0.04454
G1 X166.214 Y172.638 E0.13432
G1 X168.336 Y172.662 E0.09147
G1 X170.421 Y172.708 E0.0899
G1 X173.843 Y172.596 E0.14758
G1 X175.716 Y173.052 E0.08309
G1 X176.881 Y173.459 E0.05319
G1 X177.24 Y173.521 E0.0157
G1 X177.776 Y173.522 E0.0231
G1 X178.114 Y173.463 E0.01479
G1 X179.856 Y172.854 E0.07955
G1 X181.445 Y172.614 E0.06927
G1 X184.571 Y172.707 E0.13481
G1 X186.739 Y172.662 E0.09347
G1 X188.962 Y172.638 E0.09583
G1 X191.911 Y172.67 E0.12712
G1 X192.937 Y172.619 E0.04428
G1 X202.682 Y172.643 E0.42006
G1 X204.429 Y173.047 E0.07729
G1 X206.407 Y174.004 E0.09472
G1 X207.829 Y175.403 E0.08599
G1 X209.024 Y177.136 E0.09074
G1 X209.575 Y179.034 E0.08519
G1 X210.082 Y183.819 E0.20741
G1 X210.463 Y195.283 E0.49443
G1 X210.289 Y197.412 E0.09208
G1 X209.583 Y199.139 E0.08042
G1 X208.499 Y200.81 E0.08586
G1 X206.993 Y202.148 E0.08684
G1 X205.41 Y203.108 E0.0798
G1 X203.139 Y203.773 E0.102
G0 F6000 X203.074 Y203.323
G1 F2400 X151.925 Y203.269 E2.20479
G1 X151.069 Y203.136 E0.03734
G1 X149.248 Y202.361 E0.08531
G1 X148.099 Y201.71 E0.05692
G1 X146.748 Y200.36 E0.08233
G1 X145.684 Y198.736 E0.08369
G1 X144.926 Y196.302 E0.10989
G1 X145.369 Y183.81 E0.53881
G1 X145.886 Y178.928 E0.21162
G1 X146.436 Y177.323 E0.07313
G1 X147.555 Y175.544 E0.09059
G1 X148.991 Y174.371 E0.07993
G1 X150.715 Y173.436 E0.08454
G1 X150.867 Y173.386 E0.0069
G1 X152.778 Y173.116 E0.08319
G1 X162.068 Y173.069 E0.40045
G1 X163.097 Y173.12 E0.04441
G1 X166.209 Y173.088 E0.13415
G1 X168.326 Y173.112 E0.09126
G1 X170.426 Y173.158 E0.09054
G1 X173.798 Y173.048 E0.14543
G1 X175.567 Y173.477 E0.07846
G1 X176.768 Y173.897 E0.05484
G1 X177.199 Y173.971 E0.01885
G1 X177.812 Y173.972 E0.02642
G1 X178.232 Y173.899 E0.01838
G1 X179.967 Y173.292 E0.07923
G1 X181.471 Y173.065 E0.06556
G1 X184.567 Y173.157 E0.13351
G1 X186.744 Y173.112 E0.09386
G1 X188.957 Y173.088 E0.0954
G1 X191.912 Y173.12 E0.12738
G1 X192.936 Y173.069 E0.04419
G1 X202.632 Y173.093 E0.41795
G1 X204.277 Y173.473 E0.07278
G1 X206.143 Y174.376 E0.08936
G1 X207.484 Y175.696 E0.08111
G1 X208.612 Y177.331 E0.08562
G1 X209.133 Y179.124 E0.08048
G1 X209.632 Y183.834 E0.20416
G1 X210.014 Y195.246 E0.49219
G1 X209.846 Y197.307 E0.08913
G1 X209.181 Y198.933 E0.07572
G1 X208.155 Y200.514 E0.08124
G1 X206.726 Y201.784 E0.08241
G1 X205.228 Y202.692 E0.07551
G1 X203.074 Y203.323 E0.09675
G0 F6000 X203.01 Y202.873
G1 F2400 X151.994 Y202.824 E2.19905
G1 X151.192 Y202.699 E0.03499
G1 X149.47 Y201.969 E0.08062
G1 X148.372 Y201.347 E0.0544
G1 X147.099 Y200.075 E0.07757
G1 X146.096 Y198.544 E0.07889
G1 X145.379 Y196.241 E0.10397
G1 X145.819 Y183.826 E0.53549
G1 X146.327 Y179.03 E0.20789
G1 X146.845 Y177.518 E0.06889
G1 X147.896 Y175.847 E0.08509
G1 X149.243 Y174.747 E0.07496
G1 X150.93 Y173.832 E0.08273
G1 X152.841 Y173.562 E0.08319
G1 X162.07 Y173.519 E0.39782
G1 X163.096 Y173.57 E0.04428
G1 X166.204 Y173.538 E0.13398
G1 X168.316 Y173.562 E0.09104
G1 X170.431 Y173.608 E0.09119
G1 X173.754 Y173.5 E0.14331
G1 X175.419 Y173.902 E0.07383
G1 X176.652 Y174.333 E0.0563
G1 X177.163 Y174.421 E0.02235
G1 X177.849 Y174.422 E0.02957
G1 X178.348 Y174.335 E0.02183
G1 X180.076 Y173.731 E0.0789
G1 X181.497 Y173.516 E0.06195
G1 X184.563 Y173.607 E0.13222
G1 X186.749 Y173.562 E0.09425
G1 X188.952 Y173.538 E0.09497
G1 X191.913 Y173.57 E0.12764
G1 X192.935 Y173.519 E0.04411
G1 X202.582 Y173.543 E0.41584
G1 X204.125 Y173.899 E0.06826
G1 X205.879 Y174.748 E0.084
G1 X207.142 Y175.991 E0.07639
G1 X208.2 Y177.525 E0.08033
G1 X208.691 Y179.214 E0.07582
G1 X209.182 Y183.849 E0.20091
G1 X209.565 Y195.21 E0.49
G1 X209.403 Y197.201 E0.08611
G1 X208.779 Y198.727 E0.07107
G1 X207.811 Y200.218 E0.07663
G1 X206.459 Y201.42 E0.07798
G1 X205.045 Y202.277 E0.07127
G1 X203.01 Y202.873 E0.0914
G0 F6000 X202.946 Y202.423
G1 F2400 X152.064 Y202.379 E2.19328
G1 X151.316 Y202.262 E0.03263
G1 X149.692 Y201.577 E0.07598
G1 X148.645 Y200.984 E0.05187
G1 X147.45 Y199.79 E0.07282
G1 X146.508 Y198.352 E0.0741
G1 X145.832 Y196.18 E0.09805
G1 X146.269 Y183.842 E0.53216
G1 X146.768 Y179.132 E0.20416
G1 X147.254 Y177.713 E0.06465
G1 X148.237 Y176.15 E0.07959
G1 X149.497 Y175.121 E0.07012
G1 X151.073 Y174.267 E0.07727
G1 X152.904 Y174.008 E0.07971
G1 X162.072 Y173.969 E0.39519
G1 X163.095 Y174.02 E0.04415
G1 X166.199 Y173.988 E0.13381
G1 X168.306 Y174.012 E0.09083
G1 X170.436 Y174.058 E0.09184
G1 X173.707 Y173.952 E0.14107
G1 X175.27 Y174.327 E0.06929
G1 X176.534 Y174.769 E0.05772
G1 X177.127 Y174.871 E0.02594
G1 X177.885 Y174.872 E0.03267
G1 X178.466 Y174.771 E0.02542
G1 X180.187 Y174.169 E0.07859
G1 X181.523 Y173.967 E0.05824
G1 X184.559 Y174.057 E0.13092
G1 X186.754 Y174.012 E0.09464
G1 X188.947 Y173.988 E0.09454
G1 X191.914 Y174.02 E0.1279
G1 X192.934 Y173.969 E0.04402
G1 X202.528 Y173.993 E0.41355
G1 X203.977 Y174.327 E0.0641
G1 X205.615 Y175.12 E0.07845
G1 X206.797 Y176.284 E0.07151
G1 X207.788 Y177.72 E0.07521
G1 X208.249 Y179.304 E0.07111
G1 X208.732 Y183.864 E0.19766
G1 X209.116 Y195.174 E0.4878
G1 X208.96 Y197.095 E0.08308
G1 X208.377 Y198.521 E0.06641
G1 X207.467 Y199.922 E0.07201
G1 X206.192 Y201.056 E0.07355
G1 X204.862 Y201.862 E0.06704
G1 X202.946 Y202.423 E0.08606
G0 F6000 X202.881 Y201.973
G1 F2400 X152.134 Y201.934 E2.18746
G1 X151.44 Y201.825 E0.03028
G1 X149.867 Y201.162 E0.07358
G1 X148.919 Y200.622 E0.04703
G1 X147.801 Y199.505 E0.06812
G1 X146.92 Y198.16 E0.06931
G1 X146.285 Y196.119 E0.09214
G1 X146.719 Y183.858 E0.52884
G1 X147.209 Y179.234 E0.20043
G1 X147.663 Y177.908 E0.06041
G1 X148.578 Y176.453 E0.07409
G1 X149.751 Y175.495 E0.06528
G1 X151.218 Y174.701 E0.0719
G1 X152.906 Y174.458 E0.07351
G1 X162.074 Y174.419 E0.39519
G1 X163.094 Y174.47 E0.04402
G1 X166.194 Y174.438 E0.13363
G1 X168.296 Y174.462 E0.09061
G1 X170.441 Y174.508 E0.09248
G1 X173.661 Y174.404 E0.13887
G1 X175.122 Y174.752 E0.06474
G1 X176.418 Y175.205 E0.05918
G1 X177.09 Y175.321 E0.0294
G1 X177.922 Y175.322 E0.03586
G1 X178.582 Y175.207 E0.02888
G1 X180.296 Y174.608 E0.07826
G1 X181.549 Y174.418 E0.05463
G1 X184.555 Y174.507 E0.12963
G1 X186.759 Y174.462 E0.09502
G1 X188.942 Y174.438 E0.0941
G1 X191.916 Y174.47 E0.1282
G1 X192.933 Y174.419 E0.04389
G1 X202.474 Y174.443 E0.41127
G1 X203.829 Y174.755 E0.05994
G1 X205.351 Y175.492 E0.07289
G1 X206.452 Y176.577 E0.06663
G1 X207.376 Y177.915 E0.07009
G1 X207.807 Y179.394 E0.0664
G1 X208.282 Y183.879 E0.19441
G1 X208.667 Y195.138 E0.4856
G1 X208.517 Y196.989 E0.08005
G1 X207.975 Y198.315 E0.06175
G1 X207.123 Y199.626 E0.0674
G1 X205.925 Y200.692 E0.06912
G1 X204.68 Y201.446 E0.06274
G1 X202.881 Y201.973 E0.0808
G0 F6000 X202.817 Y201.523
G1 F2400 X152.204 Y201.489 E2.18168
G1 X151.562 Y201.388 E0.02801
G1 X150.09 Y200.771 E0.0688
G1 X149.193 Y200.26 E0.0445
G1 X148.152 Y199.22 E0.06343
G1 X147.332 Y197.968 E0.06451
G1 X146.738 Y196.058 E0.08622
G1 X147.169 Y183.874 E0.52552
G1 X147.65 Y179.336 E0.19671
G1 X148.072 Y178.103 E0.05618
G1 X148.919 Y176.756 E0.06859
G1 X150.005 Y175.869 E0.06044
G1 X151.363 Y175.135 E0.06654
G1 X152.908 Y174.908 E0.06731
G1 X162.076 Y174.869 E0.39519
G1 X163.092 Y174.92 E0.04385
G1 X166.189 Y174.888 E0.1335
G1 X168.286 Y174.912 E0.0904
G1 X170.445 Y174.958 E0.09309
G1 X173.615 Y174.856 E0.13671
G1 X174.973 Y175.177 E0.06015
G1 X176.3 Y175.641 E0.0606
G1 X177.053 Y175.771 E0.03294
G1 X177.959 Y175.772 E0.03905
G1 X178.7 Y175.643 E0.03242
G1 X180.407 Y175.046 E0.07795
G1 X181.575 Y174.869 E0.05092
G1 X184.551 Y174.957 E0.12834
G1 X186.764 Y174.912 E0.09541
G1 X188.937 Y174.888 E0.09367
G1 X191.918 Y174.92 E0.1285
G1 X192.932 Y174.869 E0.04376
G1 X202.42 Y174.893 E0.40898
G1 X203.681 Y175.183 E0.05577
G1 X205.089 Y175.865 E0.06744
G1 X206.105 Y176.867 E0.06151
G1 X206.964 Y178.111 E0.06516
G1 X207.365 Y179.484 E0.06166
G1 X207.832 Y183.894 E0.19116
G1 X208.217 Y195.153 E0.4856
G1 X208.075 Y196.881 E0.07474
G1 X207.573 Y198.109 E0.05719
G1 X206.779 Y199.33 E0.06278
G1 X205.658 Y200.328 E0.0647
G1 X204.497 Y201.031 E0.0585
G1 X202.817 Y201.523 E0.07546
G0 F6000 X202.753 Y201.073
G1 F2400 X152.274 Y201.044 E2.1759
G1 X151.682 Y200.951 E0.02583
G1 X150.313 Y200.38 E0.06394
G1 X149.467 Y199.898 E0.04197
G1 X148.503 Y198.935 E0.05873
G1 X147.744 Y197.776 E0.05972
G1 X147.191 Y195.997 E0.0803
G1 X147.619 Y183.89 E0.5222
G1 X148.091 Y179.438 E0.19298
G1 X148.482 Y178.296 E0.05203
G1 X149.259 Y177.06 E0.06293
G1 X150.259 Y176.244 E0.05563
G1 X151.507 Y175.569 E0.06116
G1 X152.91 Y175.358 E0.06116
G1 X162.078 Y175.319 E0.39519
G1 X163.09 Y175.37 E0.04368
G1 X166.184 Y175.338 E0.13337
G1 X168.276 Y175.362 E0.09018
G1 X170.449 Y175.408 E0.09369
G1 X173.571 Y175.308 E0.13464
G1 X174.824 Y175.602 E0.05548
G1 X176.182 Y176.077 E0.06201
G1 X177.016 Y176.221 E0.03648
G1 X177.996 Y176.222 E0.04224
G1 X178.818 Y176.079 E0.03596
G1 X180.518 Y175.484 E0.07764
G1 X181.601 Y175.32 E0.04722
G1 X184.547 Y175.407 E0.12704
G1 X186.769 Y175.362 E0.0958
G1 X188.932 Y175.338 E0.09324
G1 X191.92 Y175.37 E0.12881
G1 X192.931 Y175.319 E0.04363
G1 X202.366 Y175.343 E0.4067
G1 X203.533 Y175.611 E0.05161
G1 X204.827 Y176.238 E0.06198
G1 X205.758 Y177.157 E0.05639
G1 X206.552 Y178.307 E0.06024
G1 X206.923 Y179.574 E0.05691
G1 X207.382 Y183.909 E0.18791
G1 X207.767 Y195.168 E0.4856
G1 X207.633 Y196.772 E0.06938
G1 X207.171 Y197.903 E0.05266
G1 X206.435 Y199.034 E0.05817
G1 X205.391 Y199.964 E0.06027
G1 X204.314 Y200.616 E0.05427
G1 X202.753 Y201.073 E0.07011
G0 F6000 X202.689 Y200.623
G1 F2400 X152.344 Y200.599 E2.17013
G1 X151.804 Y200.514 E0.02356
G1 X150.536 Y199.989 E0.05916
G1 X149.741 Y199.536 E0.03944
G1 X148.854 Y198.65 E0.05404
G1 X148.156 Y197.584 E0.05492
G1 X147.644 Y195.936 E0.07439
G1 X148.069 Y183.906 E0.51888
G1 X148.532 Y179.54 E0.18925
G1 X148.892 Y178.489 E0.04789
G1 X149.599 Y177.364 E0.05727
G1 X150.513 Y176.618 E0.05086
G1 X151.652 Y176.002 E0.05582
G1 X152.912 Y175.808 E0.05495
G1 X162.08 Y175.769 E0.39519
G1 X163.088 Y175.82 E0.04351
G1 X166.179 Y175.788 E0.13325
G1 X168.267 Y175.812 E0.09001
G1 X170.454 Y175.858 E0.09429
G1 X173.528 Y175.76 E0.13257
G1 X174.675 Y176.027 E0.05076
G1 X176.064 Y176.513 E0.06343
G1 X176.979 Y176.671 E0.04002
G1 X178.033 Y176.672 E0.04543
G1 X178.936 Y176.515 E0.03951
G1 X180.629 Y175.922 E0.07732
G1 X181.627 Y175.771 E0.04351
G1 X184.543 Y175.857 E0.12575
G1 X186.774 Y175.812 E0.09619
G1 X188.927 Y175.788 E0.09281
G1 X191.922 Y175.82 E0.12911
G1 X192.93 Y175.769 E0.04351
G1 X202.312 Y175.793 E0.40441
G1 X203.385 Y176.039 E0.04745
G1 X204.564 Y176.611 E0.05649
G1 X205.411 Y177.447 E0.0513
G1 X206.14 Y178.502 E0.05528
G1 X206.481 Y179.666 E0.05228
G1 X206.932 Y183.924 E0.18457
G1 X207.317 Y195.183 E0.4856
G1 X207.191 Y196.663 E0.06403
G1 X206.77 Y197.694 E0.048
G1 X206.091 Y198.737 E0.05365
G1 X205.121 Y199.602 E0.05602
G1 X204.131 Y200.201 E0.04988
G1 X202.689 Y200.623 E0.06476
G0 F6000 X202.625 Y200.173
G1 F2400 X152.414 Y200.154 E2.16435
G1 X151.924 Y200.077 E0.02138
G1 X150.759 Y199.598 E0.0543
G1 X150.015 Y199.174 E0.03691
G1 X149.203 Y198.363 E0.04947
G1 X148.568 Y197.393 E0.04997
G1 X148.097 Y195.876 E0.06847
G1 X148.519 Y183.922 E0.5156
G1 X148.973 Y179.642 E0.18553
G1 X149.302 Y178.682 E0.04374
G1 X149.939 Y177.668 E0.05162
G1 X150.767 Y176.992 E0.04608
G1 X151.799 Y176.434 E0.05057
G1 X152.914 Y176.258 E0.04866
G1 X162.082 Y176.219 E0.39519
G1 X163.086 Y176.27 E0.04333
G1 X166.174 Y176.238 E0.13312
G1 X168.258 Y176.262 E0.08984
G1 X170.459 Y176.308 E0.0949
G1 X173.486 Y176.212 E0.13054
G1 X174.526 Y176.452 E0.04601
G1 X175.946 Y176.949 E0.06485
G1 X176.942 Y177.121 E0.04357
G1 X178.07 Y177.122 E0.04862
G1 X179.054 Y176.951 E0.04305
G1 X180.74 Y176.36 E0.07701
G1 X181.653 Y176.222 E0.0398
G1 X184.539 Y176.307 E0.12446
G1 X186.779 Y176.262 E0.09657
G1 X188.922 Y176.238 E0.09238
G1 X191.924 Y176.27 E0.12941
G1 X192.929 Y176.219 E0.04338
G1 X202.258 Y176.243 E0.40213
G1 X203.235 Y176.467 E0.04321
G1 X204.302 Y176.985 E0.05113
G1 X205.064 Y177.737 E0.04615
G1 X205.728 Y178.697 E0.05031
G1 X206.039 Y179.758 E0.04766
G1 X206.482 Y183.939 E0.18123
G1 X206.867 Y195.198 E0.4856
G1 X206.749 Y196.554 E0.05867
G1 X206.368 Y197.488 E0.04348
G1 X205.749 Y198.439 E0.04891
G1 X204.851 Y199.24 E0.05187
G1 X203.948 Y199.786 E0.04549
G1 X202.625 Y200.173 E0.05942
G0 F6000 X202.561 Y199.723
G1 F2400 X152.484 Y199.709 E2.15858
G1 X152.046 Y199.64 E0.01911
G1 X150.982 Y199.207 E0.04952
G1 X150.289 Y198.812 E0.03438
G1 X149.554 Y198.078 E0.04478
G1 X148.979 Y197.2 E0.04524
G1 X148.55 Y195.816 E0.06246
G1 X148.969 Y183.938 E0.51232
G1 X149.414 Y179.744 E0.1818
G1 X149.712 Y178.875 E0.0396
G1 X150.28 Y177.97 E0.04606
G1 X151.018 Y177.368 E0.04105
G1 X151.944 Y176.867 E0.04538
G1 X152.984 Y176.703 E0.04538
G1 X162.084 Y176.669 E0.39226
G1 X163.084 Y176.72 E0.04316
G1 X166.169 Y176.688 E0.13299
G1 X168.249 Y176.712 E0.08966
G1 X170.464 Y176.758 E0.0955
G1 X173.442 Y176.664 E0.12843
G1 X174.377 Y176.877 E0.04134
G1 X175.828 Y177.385 E0.06627
G1 X176.905 Y177.571 E0.04711
G1 X178.107 Y177.572 E0.05181
G1 X179.172 Y177.387 E0.04659
G1 X180.85 Y176.799 E0.07664
G1 X181.68 Y176.673 E0.03619
G1 X184.535 Y176.757 E0.12312
G1 X186.784 Y176.712 E0.09696
G1 X188.917 Y176.688 E0.09195
G1 X191.926 Y176.72 E0.12971
G1 X192.928 Y176.669 E0.04325
G1 X202.204 Y176.693 E0.39984
G1 X203.085 Y176.895 E0.03896
G1 X204.038 Y177.358 E0.04567
G1 X204.72 Y178.03 E0.04127
G1 X205.316 Y178.892 E0.04517
G1 X205.597 Y179.85 E0.04303
G1 X206.032 Y183.954 E0.17789
G1 X206.417 Y195.213 E0.4856
G1 X206.307 Y196.445 E0.05332
G1 X205.966 Y197.282 E0.03896
G1 X205.407 Y198.141 E0.04418
G1 X204.581 Y198.878 E0.04772
G1 X203.765 Y199.371 E0.04109
G1 X202.561 Y199.723 E0.05407
G0 F6000 X202.497 Y199.273
G1 F2400 X152.554 Y199.264 E2.1528
G1 X152.167 Y199.203 E0.01689
G1 X151.152 Y198.79 E0.04723
G1 X150.563 Y198.45 E0.02932
G1 X149.903 Y197.791 E0.0402
G1 X149.391 Y197.009 E0.04029
G1 X149.003 Y195.756 E0.05654
G1 X149.419 Y183.954 E0.50904
G1 X149.856 Y179.844 E0.17816
