;FLAVOR:RepRap
;TIME:3444
;Filament used: 6.40023m
;Layer height: 0.2
;MINX:144.775
;MINY:137.794
;MINZ:0.25
;MAXX:210.225
;MAXY:203.244
;MAXZ:42.45
;TARGET_MACHINE.NAME:Fusion3 F410
;Generated with Cura_SteamEngine 5.9.1
T0
M82 ;absolute extrusion mode
; Fusion3 F410 start code
M104 S0 ; shutdown heater and prepare to print
G21  ; set units to mm
G90  ; use absolute coordinates
T0  ; select tool 0
G92 E0.0  ; reset e count
M220 S100 ; reset speed multiplier
M140 S55  ; set bed temp and do not wait
G32  ; call to run bed.g
M190 S55 ; Set bed temperature and wait
M109 S220.0 ; set print head temperature and wait
; === pause for heating ===
; reset filament monitor
M42 P63 S0
G4 P100
G4 P50
M42 P63 S1
G1 X350 Y0
G1 Z10.0 F2000  ; move up
G1 E10.0 F500  ; prime extruder
G92 E0.0  ; reset e count
G1 X330 Y15 F9000  ; move back
G1 Z0.25 F1000  ; move down to begin wipe
G1 X150 E4.0 F6000  ; wipe print head (extrude material while we do this)
G92 E0.0  ; reset e count

M83 ;relative extrusion mode
G1 F6000 E-4.25
;LAYER_COUNT:212
;LAYER:0
M107
G1 F300 Z0.45
G0 F6000 X201.773 Y203.066 Z0.45
;TYPE:SKIRT
G1 F300 Z0.25
G1 F6000 E4.25
G1 F2400 X199.947 Y203.244 E0.07908
G1 X154.358 Y203.205 E1.96512
G1 X152.853 Y202.99 E0.06553
G1 X151.587 Y202.624 E0.05681
G1 X150.04 Y201.96 E0.07257
G1 X148.828 Y201.135 E0.0632
G1 X147.592 Y200.021 E0.07172
G1 X146.75 Y199.002 E0.05698
G1 X145.741 Y197.403 E0.0815
G1 X145.192 Y195.815 E0.07243
G1 X144.876 Y194.301 E0.06667
G1 X144.775 Y192.968 E0.05762
G1 X144.826 Y147.201 E1.97279
G1 X144.989 Y146.054 E0.04994
G1 X145.394 Y144.609 E0.06469
G1 X146.068 Y143.028 E0.07408
G1 X147.239 Y141.403 E0.08634
G1 X147.953 Y140.645 E0.04489
G1 X149.008 Y139.723 E0.0604
G1 X150.888 Y138.688 E0.09251
G1 X152.188 Y138.221 E0.05954
G1 X153.998 Y137.847 E0.07967
G1 X154.441 Y137.811 E0.01916
G1 X199.947 Y137.794 E1.96154
G1 X201.649 Y137.957 E0.0737
G1 X203.469 Y138.43 E0.08106
G1 X204.817 Y138.996 E0.06302
G1 X206.623 Y140.272 E0.09532
G1 X207.511 Y141.123 E0.05302
G1 X208.488 Y142.391 E0.069
G1 X209.369 Y143.982 E0.07839
G1 X209.665 Y144.746 E0.03532
G1 X210.152 Y146.943 E0.097
G1 X210.225 Y148.07 E0.04868
G1 X210.174 Y193.745 E1.96883
G1 X209.904 Y195.445 E0.0742
G1 X209.47 Y196.8 E0.06133
G1 X208.885 Y198.025 E0.05852
G1 X208.078 Y199.316 E0.06563
G1 X206.948 Y200.478 E0.06987
G1 X205.624 Y201.518 E0.07257
G1 X204.321 Y202.254 E0.06451
G1 X203.199 Y202.705 E0.05212
G1 X201.773 Y203.066 E0.06341
G0 F6000 X201.664 Y202.629
G1 F2400 X199.947 Y202.794 E0.07435
G1 X154.358 Y202.755 E1.96512
G1 X152.977 Y202.557 E0.06014
G1 X151.764 Y202.21 E0.05438
G1 X150.256 Y201.563 E0.07073
G1 X149.081 Y200.763 E0.06127
G1 X147.939 Y199.734 E0.06626
G1 X147.097 Y198.715 E0.05698
G1 X146.15 Y197.208 E0.07672
G1 X145.633 Y195.723 E0.06778
G1 X145.317 Y194.209 E0.06667
G1 X145.225 Y192.968 E0.05364
G1 X145.272 Y147.264 E1.97008
G1 X145.435 Y146.117 E0.04994
G1 X145.808 Y144.785 E0.05962
G1 X146.462 Y143.251 E0.07188
G1 X147.567 Y141.712 E0.08167
G1 X148.281 Y140.954 E0.04489
G1 X149.267 Y140.095 E0.05637
G1 X151.041 Y139.111 E0.08744
G1 X152.28 Y138.662 E0.05681
G1 X154.034 Y138.296 E0.07723
G1 X154.477 Y138.26 E0.01916
G1 X199.947 Y138.244 E1.95999
G1 X201.606 Y138.405 E0.07185
G1 X203.295 Y138.845 E0.07523
G1 X204.595 Y139.391 E0.06078
G1 X206.363 Y140.64 E0.09331
G1 X207.198 Y141.447 E0.05006
G1 X208.095 Y142.61 E0.06331
G1 X208.949 Y144.145 E0.07572
G1 X209.245 Y144.909 E0.03532
G1 X209.703 Y146.972 E0.09109
G1 X209.775 Y148.07 E0.04743
G1 X209.729 Y193.676 E1.96585
G1 X209.475 Y195.308 E0.07119
G1 X209.041 Y196.663 E0.06133
G1 X208.503 Y197.786 E0.05368
G1 X207.721 Y199.037 E0.06359
G1 X206.625 Y200.164 E0.06776
G1 X205.347 Y201.163 E0.06992
G1 X204.153 Y201.836 E0.05908
G1 X203.031 Y202.287 E0.05212
G1 X201.664 Y202.629 E0.06074
G0 F6000 X201.62 Y202.181
G1 F2400 X199.947 Y202.344 E0.07246
G1 X154.358 Y202.305 E1.96512
G1 X153.1 Y202.124 E0.05478
G1 X151.941 Y201.796 E0.05192
G1 X150.472 Y201.166 E0.0689
G1 X149.334 Y200.391 E0.05935
G1 X148.286 Y199.447 E0.0608
G1 X147.444 Y198.428 E0.05698
G1 X146.559 Y197.014 E0.0719
G1 X146.074 Y195.631 E0.06317
G1 X145.758 Y194.117 E0.06667
G1 X145.675 Y192.968 E0.04966
G1 X145.718 Y147.327 E1.96736
G1 X145.881 Y146.18 E0.04994
G1 X146.222 Y144.962 E0.05452
G1 X146.857 Y143.473 E0.06978
G1 X147.895 Y142.021 E0.07694
G1 X148.609 Y141.263 E0.04489
G1 X149.526 Y140.466 E0.05237
G1 X151.259 Y139.505 E0.08542
G1 X152.373 Y139.102 E0.05106
G1 X154.07 Y138.745 E0.07475
G1 X154.513 Y138.709 E0.01916
G1 X199.947 Y138.694 E1.95844
G1 X201.494 Y138.841 E0.06698
G1 X203.121 Y139.26 E0.07242
G1 X204.375 Y139.787 E0.05863
G1 X206.05 Y140.964 E0.08824
G1 X206.885 Y141.771 E0.05006
G1 X207.702 Y142.83 E0.05765
G1 X208.529 Y144.308 E0.073
G1 X208.825 Y145.072 E0.03532
G1 X209.254 Y147.002 E0.08522
G1 X209.325 Y148.07 E0.04614
G1 X209.284 Y193.607 E1.96288
G1 X209.03 Y195.239 E0.07119
G1 X208.635 Y196.469 E0.05569
G1 X208.121 Y197.547 E0.05148
G1 X207.364 Y198.758 E0.06156
G1 X206.302 Y199.85 E0.06566
G1 X205.071 Y200.808 E0.06724
G1 X203.985 Y201.418 E0.05369
G1 X202.863 Y201.869 E0.05212
G1 X201.62 Y202.181 E0.05524
G0 F6000 X201.576 Y201.733
G1 F2400 X199.947 Y201.894 E0.07056
G1 X154.358 Y201.855 E1.96512
G1 X153.221 Y201.691 E0.04952
G1 X152.118 Y201.382 E0.04938
G1 X150.688 Y200.769 E0.06707
G1 X149.587 Y200.019 E0.05742
G1 X148.632 Y199.159 E0.0554
G1 X147.826 Y198.189 E0.05436
G1 X146.966 Y196.814 E0.06991
G1 X146.515 Y195.539 E0.0583
G1 X146.199 Y194.025 E0.06667
G1 X146.125 Y192.968 E0.04567
G1 X146.164 Y147.39 E1.96465
G1 X146.327 Y146.243 E0.04994
G1 X146.636 Y145.139 E0.04942
G1 X147.252 Y143.695 E0.06767
G1 X148.223 Y142.33 E0.07221
G1 X148.937 Y141.572 E0.04489
G1 X149.785 Y140.837 E0.04837
G1 X151.477 Y139.899 E0.08339
G1 X152.466 Y139.542 E0.04532
G1 X154.106 Y139.194 E0.07227
G1 X154.549 Y139.158 E0.01916
G1 X199.947 Y139.144 E1.95689
G1 X201.383 Y139.277 E0.06216
G1 X202.947 Y139.675 E0.06957
G1 X204.155 Y140.183 E0.05649
G1 X205.737 Y141.288 E0.08318
G1 X206.572 Y142.095 E0.05006
G1 X207.31 Y143.051 E0.05206
G1 X208.109 Y144.471 E0.07023
G1 X208.405 Y145.235 E0.03532
G1 X208.805 Y147.032 E0.07936
G1 X208.875 Y148.07 E0.04484
G1 X208.839 Y193.539 E1.95995
G1 X208.601 Y195.103 E0.06819
G1 X208.228 Y196.276 E0.05306
G1 X207.739 Y197.308 E0.04923
G1 X207.007 Y198.479 E0.05953
G1 X205.979 Y199.536 E0.06356
G1 X204.849 Y200.416 E0.06174
G1 X203.817 Y201 E0.05111
G1 X202.695 Y201.451 E0.05212
G1 X201.576 Y201.733 E0.04974
G0 F6000 X201.531 Y201.285
G1 F2400 X199.947 Y201.444 E0.06862
G1 X154.421 Y201.409 E1.9624
G1 X153.341 Y201.257 E0.04701
G1 X152.295 Y200.968 E0.04678
G1 X150.904 Y200.372 E0.06523
G1 X149.84 Y199.647 E0.0555
G1 X148.977 Y198.87 E0.05006
G1 X148.208 Y197.95 E0.05169
G1 X147.373 Y196.615 E0.06787
G1 X146.956 Y195.447 E0.05346
G1 X146.64 Y193.933 E0.06667
G1 X146.575 Y192.968 E0.04169
G1 X146.61 Y147.452 E1.96197
G1 X146.761 Y146.363 E0.04739
G1 X147.05 Y145.316 E0.04682
G1 X147.648 Y143.914 E0.0657
G1 X148.551 Y142.639 E0.06735
G1 X149.265 Y141.881 E0.04489
G1 X150.041 Y141.21 E0.04422
G1 X151.695 Y140.293 E0.08152
G1 X152.56 Y139.982 E0.03962
G1 X154.142 Y139.643 E0.06974
G1 X154.585 Y139.607 E0.01916
G1 X199.947 Y139.594 E1.95534
G1 X201.273 Y139.713 E0.05739
G1 X202.773 Y140.09 E0.06667
G1 X203.934 Y140.578 E0.05429
G1 X205.424 Y141.612 E0.07818
G1 X206.259 Y142.419 E0.05006
G1 X206.918 Y143.273 E0.0465
G1 X207.689 Y144.634 E0.06743
G1 X207.985 Y145.398 E0.03532
G1 X208.356 Y147.063 E0.07353
G1 X208.425 Y148.07 E0.04351
G1 X208.394 Y193.473 E1.9571
G1 X208.172 Y194.967 E0.06511
G1 X207.799 Y196.14 E0.05306
G1 X207.357 Y197.069 E0.04435
G1 X206.65 Y198.2 E0.05749
G1 X205.656 Y199.222 E0.06145
G1 X204.626 Y200.025 E0.0563
G1 X203.649 Y200.582 E0.04848
G1 X202.527 Y201.033 E0.05212
G1 X201.531 Y201.285 E0.04429
G0 F6000 X201.485 Y200.837
G1 F2400 X199.947 Y200.994 E0.06664
G1 X154.482 Y200.963 E1.95978
G1 X153.459 Y200.823 E0.04451
G1 X152.472 Y200.554 E0.0441
G1 X151.12 Y199.975 E0.0634
G1 X150.093 Y199.275 E0.05357
G1 X149.279 Y198.537 E0.04736
G1 X148.589 Y197.711 E0.04639
G1 X147.78 Y196.418 E0.06575
G1 X147.397 Y195.355 E0.0487
G1 X147.081 Y193.841 E0.06667
G1 X147.025 Y192.968 E0.03771
G1 X147.056 Y147.512 E1.95939
G1 X147.195 Y146.481 E0.04484
G1 X147.464 Y145.493 E0.04414
G1 X148.044 Y144.134 E0.06369
G1 X148.879 Y142.947 E0.06256
G1 X149.559 Y142.222 E0.04285
G1 X150.3 Y141.582 E0.04221
G1 X151.849 Y140.716 E0.0765
G1 X152.655 Y140.422 E0.03698
G1 X154.178 Y140.092 E0.06717
G1 X154.621 Y140.056 E0.01916
G1 X199.947 Y140.044 E1.95378
G1 X201.232 Y140.161 E0.05562
G1 X202.599 Y140.505 E0.06076
G1 X203.715 Y140.974 E0.05218
G1 X205.111 Y141.936 E0.07308
G1 X205.946 Y142.743 E0.05006
G1 X206.526 Y143.495 E0.04094
G1 X207.297 Y144.856 E0.06743
G1 X207.564 Y145.558 E0.03237
G1 X207.907 Y147.094 E0.06784
G1 X207.975 Y148.07 E0.04217
G1 X207.949 Y193.409 E1.95434
G1 X207.743 Y194.832 E0.06198
G1 X207.392 Y195.948 E0.05043
G1 X206.975 Y196.83 E0.04205
G1 X206.291 Y197.924 E0.05562
G1 X205.378 Y198.868 E0.05661
G1 X204.402 Y199.635 E0.05351
G1 X203.481 Y200.164 E0.04578
G1 X202.359 Y200.615 E0.05212
G1 X201.485 Y200.837 E0.03887
G1 F6000 E-4.25
G1 F300 Z0.45
G0 F6000 X202.191 Y200.197 Z0.45
G1 F300 Z0.25
G1 F6000 E4.25
G1 F2400 X201.439 Y200.389 E0.03345
G1 X199.947 Y200.544 E0.06466
G1 X154.542 Y200.517 E1.95719
G1 X153.575 Y200.388 E0.04205
G1 X152.649 Y200.14 E0.04132
G1 X151.338 Y199.579 E0.06147
G1 X150.347 Y198.903 E0.05171
G1 X149.623 Y198.247 E0.04211
G1 X148.97 Y197.472 E0.04368
G1 X148.188 Y196.222 E0.06356
G1 X147.838 Y195.263 E0.044
G1 X147.522 Y193.749 E0.06667
G1 X147.475 Y192.968 E0.03373
G1 X147.502 Y147.571 E1.95684
G1 X147.63 Y146.597 E0.04235
G1 X147.878 Y145.67 E0.04136
G1 X148.44 Y144.354 E0.06168
G1 X149.208 Y143.254 E0.05783
G1 X149.853 Y142.563 E0.04075
G1 X150.559 Y141.953 E0.04022
G1 X152.069 Y141.109 E0.07457
G1 X152.751 Y140.862 E0.03127
G1 X154.214 Y140.541 E0.06456
G1 X154.657 Y140.505 E0.01916
G1 X199.947 Y140.494 E1.95223
G1 X201.191 Y140.609 E0.05385
G1 X202.425 Y140.92 E0.05486
G1 X203.5 Y141.372 E0.05027
G1 X204.8 Y142.261 E0.06789
G1 X205.591 Y143.019 E0.04722
G1 X206.135 Y143.718 E0.03818
G1 X206.876 Y145.016 E0.06443
G1 X207.143 Y145.718 E0.03237
G1 X207.458 Y147.126 E0.06219
G1 X207.525 Y148.07 E0.04079
G1 X207.499 Y193.409 E1.95434
G1 X207.313 Y194.699 E0.05618
G1 X206.985 Y195.756 E0.04771
G1 X206.568 Y196.638 E0.04205
G1 X205.935 Y197.645 E0.05127
G1 X205.099 Y198.515 E0.05201
G1 X204.176 Y199.246 E0.05075
G1 X203.313 Y199.746 E0.04299
G1 X202.191 Y200.197 E0.05212
G0 F6000 X202.023 Y199.779
G1 F2400 X201.33 Y199.952 E0.03079
G1 X199.947 Y200.094 E0.05993
G1 X154.6 Y200.071 E1.95469
G1 X153.689 Y199.953 E0.0396
G1 X152.826 Y199.726 E0.03847
G1 X151.556 Y199.183 E0.05954
G1 X150.601 Y198.531 E0.04984
G1 X149.966 Y197.955 E0.03695
G1 X149.352 Y197.233 E0.04085
G1 X148.594 Y196.021 E0.06162
G1 X148.261 Y195.109 E0.04185
G1 X147.971 Y193.722 E0.06108
G1 X147.925 Y192.968 E0.03256
G1 X147.948 Y147.628 E1.95439
G1 X148.065 Y146.711 E0.03985
G1 X148.292 Y145.847 E0.03851
G1 X148.836 Y144.572 E0.05975
G1 X149.538 Y143.56 E0.05309
G1 X150.147 Y142.904 E0.03858
G1 X150.82 Y142.323 E0.03832
G1 X152.225 Y141.531 E0.06952
G1 X152.849 Y141.301 E0.02867
G1 X154.25 Y140.99 E0.06186
G1 X154.693 Y140.954 E0.01916
G1 X199.947 Y140.944 E1.95068
G1 X201.149 Y141.057 E0.05204
G1 X202.251 Y141.335 E0.04899
G1 X203.284 Y141.769 E0.0483
G1 X204.49 Y142.587 E0.06281
G1 X205.237 Y143.297 E0.04442
G1 X205.745 Y143.942 E0.03539
G1 X206.455 Y145.176 E0.06137
G1 X206.722 Y145.878 E0.03237
G1 X207.009 Y147.158 E0.05654
G1 X207.075 Y148.07 E0.03941
G1 X207.049 Y193.409 E1.95434
G1 X206.883 Y194.567 E0.05043
G1 X206.578 Y195.565 E0.04498
G1 X206.187 Y196.399 E0.0397
G1 X205.581 Y197.363 E0.04908
G1 X204.774 Y198.203 E0.05021
G1 X203.949 Y198.858 E0.04541
G1 X203.145 Y199.328 E0.04014
G1 X202.023 Y199.779 E0.05212
G0 F6000 X201.914 Y199.342
G1 F2400 X201.221 Y199.515 E0.03079
G1 X199.947 Y199.644 E0.0552
G1 X154.656 Y199.624 E1.95227
G1 X153.801 Y199.517 E0.03714
G1 X153.003 Y199.312 E0.03551
G1 X151.774 Y198.787 E0.05761
G1 X150.855 Y198.159 E0.04798
G1 X150.309 Y197.663 E0.0318
G1 X149.695 Y196.941 E0.04085
G1 X149.002 Y195.825 E0.05663
G1 X148.684 Y194.955 E0.03993
G1 X148.42 Y193.694 E0.05553
G1 X148.375 Y192.968 E0.03135
G1 X148.395 Y147.683 E1.95202
G1 X148.501 Y146.823 E0.03735
G1 X148.706 Y146.024 E0.03556
G1 X149.232 Y144.791 E0.05778
G1 X149.869 Y143.865 E0.04845
G1 X150.441 Y143.245 E0.03636
G1 X151.081 Y142.693 E0.03643
G1 X152.381 Y141.953 E0.06448
G1 X153.005 Y141.723 E0.02867
G1 X154.286 Y141.439 E0.05656
G1 X154.729 Y141.403 E0.01916
G1 X199.947 Y141.394 E1.94913
G1 X201.106 Y141.505 E0.05019
G1 X202.077 Y141.75 E0.04317
G1 X203.07 Y142.167 E0.04642
G1 X204.181 Y142.914 E0.05771
G1 X204.885 Y143.578 E0.04171
G1 X205.356 Y144.168 E0.03254
G1 X206.034 Y145.336 E0.05821
G1 X206.301 Y146.038 E0.03237
G1 X206.56 Y147.191 E0.05094
G1 X206.625 Y148.07 E0.03799
G1 X206.599 Y193.409 E1.95434
G1 X206.452 Y194.437 E0.04476
G1 X206.17 Y195.375 E0.04222
G1 X205.806 Y196.159 E0.03726
G1 X205.225 Y197.083 E0.04705
G1 X204.449 Y197.891 E0.04829
G1 X203.67 Y198.505 E0.04276
G1 X202.976 Y198.911 E0.03466
G1 X201.914 Y199.342 E0.0494
G0 F6000 X201.805 Y198.905
G1 F2400 X201.112 Y199.078 E0.03079
G1 X199.947 Y199.194 E0.05047
G1 X154.71 Y199.177 E1.94995
G1 X153.913 Y199.081 E0.0346
G1 X153.115 Y198.876 E0.03551
G1 X151.992 Y198.391 E0.05273
G1 X151.156 Y197.824 E0.04354
G1 X150.652 Y197.371 E0.02921
G1 X150.038 Y196.649 E0.04085
G1 X149.409 Y195.628 E0.05169
G1 X149.107 Y194.801 E0.03795
G1 X148.869 Y193.666 E0.04999
G1 X148.825 Y192.968 E0.03015
G1 X148.842 Y147.736 E1.94973
G1 X148.937 Y146.935 E0.03477
G1 X149.142 Y146.136 E0.03556
G1 X149.628 Y145.01 E0.05286
G1 X150.201 Y144.169 E0.04387
G1 X150.735 Y143.586 E0.03408
G1 X151.344 Y143.061 E0.03466
G1 X152.539 Y142.374 E0.05942
G1 X153.104 Y142.162 E0.02601
G1 X154.322 Y141.888 E0.05381
G1 X154.765 Y141.852 E0.01916
G1 X199.947 Y141.844 E1.94758
G1 X201.062 Y141.953 E0.04829
G1 X201.903 Y142.165 E0.03739
G1 X202.855 Y142.565 E0.04451
G1 X203.874 Y143.243 E0.05276
G1 X204.535 Y143.861 E0.03901
G1 X204.968 Y144.396 E0.02967
G1 X205.613 Y145.496 E0.05497
G1 X205.88 Y146.198 E0.03237
G1 X206.111 Y147.225 E0.04537
G1 X206.175 Y148.07 E0.03653
G1 X206.153 Y193.347 E1.95167
G1 X206.02 Y194.31 E0.0419
G1 X205.761 Y195.187 E0.03942
G1 X205.425 Y195.919 E0.03472
G1 X204.867 Y196.806 E0.04517
G1 X204.17 Y197.538 E0.04357
G1 X203.391 Y198.152 E0.04276
G1 X202.805 Y198.495 E0.02927
G1 X201.805 Y198.905 E0.04659
G0 F6000 X201.696 Y198.468
G1 F2400 X201.003 Y198.641 E0.03079
G1 X199.947 Y198.744 E0.04574
G1 X154.762 Y198.73 E1.94771
G1 X154.025 Y198.645 E0.03198
G1 X153.227 Y198.44 E0.03551
G1 X152.209 Y197.995 E0.04789
G1 X151.455 Y197.487 E0.03919
G1 X150.995 Y197.079 E0.0265
G1 X150.381 Y196.357 E0.04085
G1 X149.817 Y195.433 E0.04666
G1 X149.53 Y194.647 E0.03607
G1 X149.318 Y193.637 E0.04448
G1 X149.275 Y192.968 E0.0289
G1 X149.289 Y147.787 E1.94753
G1 X149.373 Y147.047 E0.0321
G1 X149.578 Y146.248 E0.03556
G1 X150.023 Y145.23 E0.04789
G1 X150.534 Y144.472 E0.0394
G1 X151.029 Y143.927 E0.03174
G1 X151.607 Y143.429 E0.03289
G1 X152.7 Y142.794 E0.05449
G1 X153.204 Y142.601 E0.02326
G1 X154.358 Y142.337 E0.05103
G1 X154.801 Y142.301 E0.01916
G1 X199.947 Y142.294 E1.94602
G1 X201.017 Y142.401 E0.04635
G1 X201.79 Y142.601 E0.03442
G1 X202.64 Y142.963 E0.03982
