; generated by F3Slic3r 2.6.0-alpha4 on 2025-02-07 at 22:27:11 UTC

; 

; external perimeters extrusion width = 0.68mm
; perimeters extrusion width = 0.68mm
; infill extrusion width = 0.68mm
; solid infill extrusion width = 0.68mm
; top infill extrusion width = 0.60mm
; first layer extrusion width = 0.70mm

M107
;TYPE:Custom
; Fusion3 F410 F3Slic3r start script
; Rev 2023.01.16
M104 S0 
G21  
G90  
T0  
G92 E0.0  
M220 S100 
M140 S60  
G32 
M190 S60  
M109 S220  
; === pause for heating ===
; reset filament monitor
M42 P63 S0
G4 P100
G4 P50
M42 P63 S1
;
G1 Z10.0 F2000  ; move up
G1 E30.0 F500  ; prime extruder
G1 X20 Y15 F9000  ; move back
G1 Z0 F1000  ; move down to begin wipe
G1 X150 E4.0 F10000  ; wipe print head (extrude material while we do this)
G92 E0.0  ; reset e count
G21 ; set units to millimeters
G90 ; use absolute coordinates
M83 ; use relative distances for extrusion
; Filament gcode
M107
;LAYER_CHANGE
;Z:0.35
;HEIGHT:0.35
G1 Z.35 F7800
G1 E-3.25 F10020
G1 X149.101 Y130.586 F7800
G1 E3.25 F2400
;TYPE:Skirt/Brim
;WIDTH:0.7
G1 F1800
G1 X151.387 Y128.996 E.2532
G1 X154.17 Y128.388 E.25903
G1 X181.327 Y128.387 E2.46937
G1 X183.862 Y128.891 E.23502
G1 X186.402 Y130.586 E.27766
G1 X187.918 Y132.926 E.25353
G1 X188.434 Y135.491 E.23791
G1 X188.429 Y157.393 E1.99154
G1 X187.929 Y186.684 E2.66381
G1 X187.833 Y187.702 E.09298
G1 X187.625 Y188.612 E.08488
G1 X186.442 Y190.924 E.23615
G1 X184.55 Y192.671 E.23416
G1 X183.09 Y193.342 E.14611
G1 X181.676 Y193.685 E.1323
G1 X180.751 Y193.749 E.08431
G1 X154.751 Y193.749 E2.36417
G1 X153.721 Y193.669 E.09394
G1 X152.71 Y193.444 E.09418
G1 X150.398 Y192.261 E.23615
G1 X148.651 Y190.37 E.2341
G1 X147.98 Y188.91 E.14611
G1 X147.63 Y187.44 E.1374
G1 X147.074 Y157.393 E2.73263
G1 X147.068 Y135.497 E1.99099
G1 X147.665 Y132.735 E.25695
G1 X149.051 Y130.661 E.22682
G1 E-3.25 F10020
G1 X155.293 Y136.612 F7800
G1 E3.25 F2400
;TYPE:Perimeter
;WIDTH:0.7
G1 F1800
G1 X180.21 Y136.613 E2.26569
G1 X180.205 Y157.138 E1.86633
G1 X180.192 Y157.457 E.02903
G1 X180.118 Y157.979 E.04794
G1 X179.942 Y158.479 E.0482
G1 X179.691 Y158.941 E.04781
G1 X179.356 Y159.341 E.04744
G1 X178.964 Y159.683 E.0473
G1 X177.698 Y160.437 E.13399
G1 X176.674 Y161.132 E.11253
G1 X175.774 Y161.84 E.10412
G1 X174.922 Y162.607 E.10424
G1 X174.195 Y163.352 E.09465
G1 X173.449 Y164.222 E.10421
G1 X172.763 Y165.14 E.10421
G1 X172.14 Y166.102 E.10422
G1 X171.583 Y167.103 E.10416
G1 X171.095 Y168.14 E.10421
G1 X170.678 Y169.207 E.10417
G1 X170.333 Y170.3 E.10422
G1 X170.062 Y171.413 E.10416
G1 X169.867 Y172.543 E.10427
G1 X169.748 Y173.682 E.10413
G1 X169.705 Y174.879 E.10891
G1 X169.708 Y177.666 E.25342
G1 X169.756 Y178.272 E.05528
G1 X169.877 Y178.869 E.05539
G1 X170.069 Y179.448 E.05547
G1 X170.329 Y179.998 E.05532
G1 X170.654 Y180.514 E.05545
G1 X171.039 Y180.986 E.05539
G1 X171.478 Y181.409 E.05543
G1 X171.964 Y181.775 E.05532
G1 X172.491 Y182.081 E.05541
G1 X173.051 Y182.32 E.05536
G1 X173.636 Y182.49 E.05539
G1 X174.237 Y182.589 E.05539
G1 X174.75 Y182.617 E.04672
G1 X179.705 Y182.617 E.45056
G1 X179.705 Y185.525 E.26442
G1 X155.798 Y185.525 E2.17385
G1 X155.798 Y182.617 E.26442
G1 X160.753 Y182.617 E.45056
G1 X161.453 Y182.566 E.06382
G1 X162.05 Y182.445 E.05539
G1 X162.628 Y182.253 E.05538
G1 X163.179 Y181.993 E.0554
G1 X163.694 Y181.668 E.05537
G1 X164.167 Y181.283 E.05546
G1 X164.589 Y180.845 E.0553
G1 X164.956 Y180.358 E.05545
G1 X165.261 Y179.831 E.05537
G1 X165.501 Y179.271 E.0554
G1 X165.671 Y178.686 E.05539
G1 X165.77 Y178.085 E.05539
G1 X165.798 Y177.572 E.04672
G1 X165.798 Y174.879 E.24487
G1 X165.755 Y173.682 E.10891
G1 X165.636 Y172.543 E.10413
G1 X165.441 Y171.413 E.10427
G1 X165.17 Y170.3 E.10416
G1 X164.825 Y169.207 E.10422
G1 X164.408 Y168.14 E.10417
G1 X163.92 Y167.103 E.10421
G1 X163.363 Y166.102 E.10416
G1 X162.8 Y165.226 E.09469
G1 X162.119 Y164.304 E.10423
G1 X161.379 Y163.43 E.10413
G1 X160.581 Y162.607 E.10424
G1 X159.729 Y161.84 E.10424
G1 X158.744 Y161.07 E.11368
G1 X157.882 Y160.486 E.09468
G1 X156.849 Y159.867 E.1095
G1 X156.398 Y159.57 E.0491
G1 X156.028 Y159.22 E.04631
G1 X155.721 Y158.788 E.04819
G1 X155.488 Y158.316 E.04786
G1 X155.353 Y157.805 E.04806
G1 X155.298 Y157.232 E.05234
G1 X155.293 Y136.702 E1.86678
G1 E-3.25 F10020
G1 X154.668 Y135.987 F7800
G1 E3.25 F2400
G1 F1800
G1 X180.835 Y135.988 E2.37935
G1 X180.83 Y157.138 E1.92316
G1 X180.815 Y157.494 E.0324
G1 X180.727 Y158.127 E.05811
G1 X180.513 Y158.733 E.05844
G1 X180.208 Y159.293 E.05798
G1 X179.784 Y159.797 E.05989
G1 X179.32 Y160.197 E.0557
G1 X178.018 Y160.974 E.13787
G1 X177.059 Y161.625 E.1054
G1 X176.239 Y162.265 E.09458
G1 X175.415 Y163 E.1004
G1 X174.642 Y163.789 E.10044
G1 X173.924 Y164.627 E.10034
G1 X173.265 Y165.512 E.10033
G1 X172.666 Y166.44 E.10043
G1 X172.13 Y167.405 E.10037
G1 X171.661 Y168.404 E.10035
G1 X171.26 Y169.433 E.10042
G1 X170.929 Y170.486 E.10037
G1 X170.67 Y171.559 E.10037
G1 X170.483 Y172.647 E.10038
G1 X170.37 Y173.745 E.10037
G1 X170.33 Y174.879 E.10318
G1 X170.33 Y177.572 E.24487
G1 X170.359 Y178.073 E.04563
G1 X170.447 Y178.574 E.04625
G1 X170.599 Y179.085 E.04848
G1 X170.812 Y179.575 E.04858
G1 X171.094 Y180.054 E.05054
G1 X171.406 Y180.459 E.04649
G1 X171.778 Y180.842 E.04855
G1 X172.194 Y181.176 E.04851
G1 X172.647 Y181.458 E.04852
G1 X173.131 Y181.683 E.04853
G1 X173.639 Y181.849 E.0486
G1 X174.163 Y181.952 E.04856
G1 X174.75 Y181.992 E.0535
G1 X180.33 Y181.992 E.50739
G1 X180.33 Y186.149 E.37799
G1 X155.173 Y186.149 E2.28751
G1 X155.173 Y181.992 E.37799
G1 X160.753 Y181.992 E.50739
G1 X161.34 Y181.952 E.0535
G1 X161.864 Y181.849 E.04856
G1 X162.372 Y181.683 E.0486
G1 X162.856 Y181.458 E.04853
G1 X163.309 Y181.176 E.04852
G1 X163.725 Y180.842 E.04851
G1 X164.097 Y180.459 E.04855
G1 X164.421 Y180.035 E.04852
G1 X164.691 Y179.575 E.0485
G1 X164.904 Y179.085 E.04858
G1 X165.056 Y178.574 E.04848
G1 X165.144 Y178.073 E.04625
G1 X165.173 Y177.572 E.04563
G1 X165.173 Y174.879 E.24487
G1 X165.133 Y173.745 E.10318
G1 X165.02 Y172.647 E.10037
G1 X164.833 Y171.559 E.10038
G1 X164.574 Y170.486 E.10037
G1 X164.243 Y169.433 E.10037
G1 X163.842 Y168.404 E.10042
G1 X163.372 Y167.405 E.10039
G1 X162.837 Y166.44 E.10033
G1 X162.274 Y165.564 E.09469
G1 X161.618 Y164.677 E.10032
G1 X160.903 Y163.835 E.10044
G1 X160.134 Y163.044 E.10031
G1 X159.313 Y162.306 E.10038
G1 X158.393 Y161.587 E.10617
G1 X157.531 Y161.003 E.09468
G1 X156.529 Y160.404 E.10615
G1 X156.008 Y160.058 E.05687
G1 X155.556 Y159.631 E.05654
G1 X155.184 Y159.108 E.05836
G1 X154.902 Y158.536 E.05799
G1 X154.738 Y157.916 E.05832
G1 X154.673 Y157.251 E.06076
G1 X154.668 Y136.077 E1.92534
G1 E-3.25 F10020
G1 X154.082 Y135.469 F7800
G1 E3.25 F2400
;TYPE:External perimeter
G1 F1800
G1 X154.245 Y135.362 E.01773
G1 X181.262 Y135.363 E2.45664
G1 X181.421 Y135.469 E.01738
G1 X181.46 Y135.615 E.01374
G1 X181.455 Y157.138 E1.95708
G1 X181.439 Y157.532 E.03586
G1 X181.379 Y158.03 E.04561
G1 X181.26 Y158.517 E.04559
G1 X181.084 Y158.987 E.04564
G1 X180.853 Y159.433 E.04567
G1 X180.568 Y159.849 E.04585
G1 X180.23 Y160.235 E.04665
G1 X179.677 Y160.712 E.06641
G1 X178.338 Y161.511 E.14178
G1 X177.444 Y162.117 E.09821
G1 X176.61 Y162.768 E.0962
G1 X175.832 Y163.466 E.09504
G1 X175.09 Y164.225 E.09652
G1 X174.4 Y165.033 E.09662
G1 X173.766 Y165.885 E.09657
G1 X173.191 Y166.778 E.09658
G1 X172.678 Y167.707 E.0965
G1 X172.227 Y168.669 E.09661
G1 X171.843 Y169.659 E.09655
G1 X171.526 Y170.672 E.09652
G1 X171.277 Y171.705 E.09662
G1 X171.099 Y172.752 E.09657
G1 X170.991 Y173.808 E.09652
G1 X170.955 Y174.879 E.09744
G1 X170.955 Y177.572 E.24487
G1 X170.981 Y178.01 E.0399
G1 X171.061 Y178.461 E.04165
G1 X171.195 Y178.899 E.04165
G1 X171.381 Y179.318 E.04168
G1 X171.617 Y179.712 E.04176
G1 X171.898 Y180.074 E.04167
G1 X172.22 Y180.4 E.04167
G1 X172.58 Y180.684 E.04169
G1 X172.971 Y180.923 E.04167
G1 X173.388 Y181.114 E.04171
G1 X173.825 Y181.252 E.04167
G1 X174.275 Y181.337 E.04164
G1 X174.75 Y181.367 E.04328
G1 X180.661 Y181.367 E.53748
G1 X180.869 Y181.415 E.01941
G1 X180.955 Y181.611 E.01946
G1 X180.955 Y186.531 E.44737
G1 X180.869 Y186.726 E.01938
G1 X180.702 Y186.774 E.0158
G1 X154.791 Y186.774 E2.35607
G1 X154.596 Y186.688 E.01938
G1 X154.548 Y186.522 E.01571
G1 X154.548 Y181.662 E.44192
G1 X154.596 Y181.454 E.01941
G1 X154.791 Y181.367 E.01942
G1 X160.753 Y181.367 E.54212
G1 X161.19 Y181.341 E.03981
G1 X161.642 Y181.261 E.04174
G1 X162.08 Y181.127 E.04165
G1 X162.499 Y180.941 E.04168
G1 X162.892 Y180.706 E.04164
G1 X163.255 Y180.425 E.04174
G1 X163.58 Y180.102 E.04166
G1 X163.865 Y179.743 E.04168
G1 X164.104 Y179.352 E.04167
G1 X164.294 Y178.935 E.04167
G1 X164.433 Y178.498 E.0417
G1 X164.518 Y178.047 E.04173
G1 X164.548 Y177.572 E.04328
G1 X164.548 Y174.879 E.24487
G1 X164.511 Y173.808 E.09744
G1 X164.404 Y172.752 E.09651
G1 X164.225 Y171.705 E.09658
G1 X163.977 Y170.672 E.0966
G1 X163.66 Y169.659 E.09652
G1 X163.276 Y168.669 E.09655
G1 X162.825 Y167.707 E.09661
G1 X162.312 Y166.778 E.0965
G1 X161.737 Y165.885 E.09658
G1 X161.103 Y165.033 E.09657
G1 X160.413 Y164.225 E.09662
G1 X159.671 Y163.466 E.09652
G1 X158.896 Y162.771 E.09466
G1 X158.059 Y162.117 E.09659
G1 X157.165 Y161.511 E.09821
G1 X156.055 Y160.849 E.11752
G1 X155.436 Y160.401 E.06948
G1 X155.084 Y160.043 E.04565
G1 X154.777 Y159.645 E.04571
G1 X154.52 Y159.214 E.04563
G1 X154.316 Y158.755 E.04567
G1 X154.168 Y158.275 E.04567
G1 X154.079 Y157.781 E.04564
G1 X154.048 Y157.27 E.04655
G1 X154.043 Y135.615 E1.96908
G1 X154.059 Y135.555 E.00565
G1 X154.275 Y135.495 F7800
G1 E-3.25 F10020
G1 X178.755 Y136.8 F7800
G1 E3.25 F2400
;TYPE:Solid infill
;WIDTH:0.702017
G1 F1800
G1 X179.741 Y137.786 E.1272
G1 X179.741 Y138.672 E.08082
G1 X178.15 Y137.081 E.20525
G1 X177.263 Y137.081 E.08091
G1 X179.741 Y139.559 E.31968
G1 X179.741 Y140.445 E.08082
G1 X176.377 Y137.081 E.43399
G1 X175.49 Y137.081 E.08091
G1 X179.74 Y141.332 E.54835
G1 X179.74 Y142.218 E.08082
G1 X174.603 Y137.081 E.66272
G1 X173.717 Y137.081 E.08082
G1 X179.74 Y143.104 E.77702
G1 X179.74 Y143.991 E.08091
G1 X172.83 Y137.081 E.89145
G1 X171.944 Y137.081 E.08082
G1 X179.74 Y144.877 E1.00575
G1 X179.739 Y145.763 E.08082
G1 X171.057 Y137.081 E1.12005
G1 X170.17 Y137.081 E.08091
G1 X179.739 Y146.65 E1.23449
G1 X179.739 Y147.536 E.08082
G1 X169.284 Y137.081 E1.34879
G1 X168.397 Y137.081 E.08091
G1 X179.739 Y148.422 E1.46315
G1 X179.738 Y149.309 E.08091
G1 X167.511 Y137.081 E1.57746
G1 X166.624 Y137.081 E.08091
G1 X179.738 Y150.195 E1.69182
G1 X179.738 Y151.081 E.08082
G1 X165.737 Y137.081 E1.80619
G1 X164.851 Y137.081 E.08082
G1 X179.738 Y151.968 E1.92055
G1 X179.738 Y152.854 E.08082
G1 X163.964 Y137.081 E2.03492
G1 X163.078 Y137.081 E.08082
G1 X179.737 Y153.741 E2.14922
G1 X179.737 Y154.627 E.08082
G1 X162.191 Y137.081 E2.26359
G1 X161.304 Y137.081 E.08091
G1 X179.737 Y155.513 E2.37796
G1 X179.737 Y156.4 E.08091
G1 X160.418 Y137.081 E2.49232
G1 X159.531 Y137.081 E.08091
G1 X179.733 Y157.282 E2.60617
G1 X179.715 Y157.576 E.02687
G1 X179.662 Y157.868 E.02707
G1 X179.608 Y158.044 E.01679
G1 X158.644 Y137.081 E2.70448
G1 X157.758 Y137.081 E.08082
G1 X179.322 Y158.644 E2.78188
G1 X179.121 Y158.911 E.03049
G1 X178.913 Y159.123 E.02709
G1 X156.871 Y137.081 E2.84361
G1 X155.985 Y137.08 E.08082
G1 X178.386 Y159.481 E2.88993
G1 X177.83 Y159.813 E.05907
G1 X155.762 Y137.744 E2.84703
G1 X155.762 Y138.631 E.08091
G1 X177.284 Y160.153 E2.77653
G1 X176.756 Y160.511 E.05819
G1 X155.762 Y139.518 E2.70835
G1 X155.762 Y140.404 E.08082
G1 X176.237 Y160.879 E2.64146
G1 X175.74 Y161.269 E.05763
G1 X155.762 Y141.291 E2.57734
G1 X155.763 Y142.178 E.08091
G1 X175.259 Y161.674 E2.51516
G1 X174.792 Y162.094 E.0573
G1 X155.763 Y143.065 E2.45491
G1 X155.763 Y143.952 E.08091
G1 X174.342 Y162.531 E2.39686
G1 X173.905 Y162.98 E.05716
G1 X155.763 Y144.838 E2.34048
G1 X155.764 Y145.725 E.08091
G1 X173.491 Y163.452 E2.28694
G1 X173.083 Y163.931 E.0574
G1 X155.764 Y146.612 E2.2343
G1 X155.764 Y147.499 E.08091
G1 X172.702 Y164.437 E2.18515
G1 X172.326 Y164.948 E.05787
G1 X155.764 Y148.386 E2.13664
G1 X155.764 Y149.272 E.08082
G1 X171.979 Y165.487 E2.09188
G1 X171.639 Y166.034 E.05875
G1 X155.765 Y150.159 E2.04795
G1 X155.765 Y151.046 E.08091
G1 X171.324 Y166.605 E2.00725
G1 X171.022 Y167.19 E.06006
G1 X155.765 Y151.933 E1.96829
G1 X155.765 Y152.82 E.08091
G1 X170.74 Y167.794 E1.93184
G1 X170.482 Y168.422 E.06193
G1 X155.766 Y153.706 E1.89849
G1 X155.766 Y154.593 E.08091
G1 X170.233 Y169.06 E1.86637
G1 X170.02 Y169.734 E.06448
G1 X155.766 Y155.48 E1.83889
G1 X155.766 Y156.367 E.08091
G1 X169.821 Y170.422 E1.81322
G1 X169.648 Y171.135 E.06693
G1 X155.769 Y157.256 E1.79051
G1 X155.788 Y157.576 E.02924
G1 X155.841 Y157.868 E.02707
G1 X155.928 Y158.151 E.02701
G1 X156.049 Y158.422 E.02707
G1 X157.906 Y160.28 E.23963
G1 E-3.25 F10020
G1 X163.326 Y165.7 F7800
G1 E3.25 F2400
G1 F1800
G1 X169.506 Y171.88 E.79727
G1 X169.386 Y172.646 E.07073
G1 X164.93 Y168.191 E.5748
G1 X165.264 Y169.042 E.0834
G1 X165.434 Y169.581 E.05156
G1 X169.301 Y173.448 E.49888
G1 X169.258 Y174.291 E.077
G1 X165.776 Y170.809 E.44921
G1 X165.898 Y171.309 E.04695
G1 X166.004 Y171.924 E.05693
G1 X169.237 Y175.157 E.41709
G1 X169.238 Y176.045 E.08101
G1 X166.15 Y172.957 E.39838
G1 X166.222 Y173.64 E.06265
G1 X166.232 Y173.925 E.02601
G1 X169.239 Y176.932 E.38793
G1 X169.249 Y177.829 E.08183
G1 X166.265 Y174.845 E.38496
G1 X166.265 Y175.732 E.08091
G1 X169.812 Y179.278 E.45753
G1 E-3.25 F10020
G1 X178.658 Y182.805 F7800
G1 E3.25 F2400
G1 F1800
G1 X179.236 Y183.383 E.07457
G1 X179.236 Y184.27 E.08091
G1 X178.052 Y183.086 E.15275
G1 X177.166 Y183.086 E.08082
G1 X179.136 Y185.056 E.25415
G1 X178.249 Y185.056 E.08091
G1 X176.279 Y183.086 E.25415
G1 X175.393 Y183.086 E.08082
G1 X177.363 Y185.056 E.25415
G1 X176.476 Y185.056 E.08091
G1 X174.492 Y183.072 E.25595
G1 X174.202 Y183.056 E.02649
G1 X173.464 Y182.93 E.0683
G1 X175.59 Y185.056 E.27427
G1 X174.703 Y185.056 E.08091
G1 X166.264 Y176.617 E1.08871
G1 X166.263 Y177.503 E.08082
G1 X173.816 Y185.056 E.9744
G1 X172.93 Y185.056 E.08082
G1 X166.208 Y178.335 E.86713
G1 X166.106 Y178.892 E.05166
G1 X166.052 Y179.065 E.01653
G1 X172.043 Y185.056 E.77289
G1 X171.157 Y185.056 E.08082
G1 X165.821 Y179.72 E.68839
G1 X165.633 Y180.138 E.04181
G1 X165.525 Y180.311 E.0186
G1 X170.27 Y185.056 E.61215
G1 X169.383 Y185.056 E.08091
G1 X165.178 Y180.851 E.54248
G1 X164.777 Y181.336 E.05741
G1 X168.497 Y185.056 E.47991
G1 X167.61 Y185.056 E.08091
G1 X164.324 Y181.769 E.42399
G1 X163.977 Y182.042 E.04028
G1 X163.813 Y182.145 E.01767
G1 X166.724 Y185.056 E.37554
G1 X165.837 Y185.056 E.08091
G1 X163.26 Y182.479 E.33246
G1 X162.642 Y182.747 E.06145
G1 X164.951 Y185.056 E.29788
G1 X164.064 Y185.056 E.08091
G1 X161.958 Y182.95 E.27169
G1 X161.184 Y183.063 E.07136
G1 X163.177 Y185.056 E.25711
G1 X162.291 Y185.056 E.08082
G1 X160.321 Y183.086 E.25415
G1 X159.434 Y183.086 E.08091
G1 X161.404 Y185.056 E.25415
G1 X160.518 Y185.056 E.08082
G1 X158.548 Y183.086 E.25415
G1 X157.661 Y183.086 E.08091
G1 X159.631 Y185.056 E.25415
G1 X158.745 Y185.056 E.08082
G1 X156.774 Y183.086 E.25421
G1 X156.266 Y183.086 E.04634
G1 X156.266 Y183.464 E.03448
G1 X157.858 Y185.056 E.20538
G1 X156.971 Y185.056 E.08091
G1 X155.985 Y184.07 E.1272
;LAYER_CHANGE
;Z:0.65
;HEIGHT:0.3
G1 Z.65 F7800
G1 E-3.25 F10020
G1 X154.944 Y136.264 F7800
G1 E3.25 F2400
;TYPE:Perimeter
;WIDTH:0.675
G1 F3600
G1 X180.559 Y136.264 E1.95083
G1 X180.559 Y157.128 E1.589
G1 X180.544 Y157.478 E.02668
G1 X180.462 Y158.063 E.04499
G1 X180.265 Y158.622 E.04514
G1 X179.983 Y159.14 E.04492
G1 X179.59 Y159.607 E.04648
G1 X179.167 Y159.972 E.04255
G1 X177.885 Y160.737 E.1137
G1 X176.884 Y161.417 E.09216
G1 X176.08 Y162.045 E.0777
G1 X175.242 Y162.791 E.08545
G1 X174.456 Y163.591 E.08541
G1 X173.725 Y164.443 E.0855
G1 X173.053 Y165.342 E.08548
G1 X172.443 Y166.284 E.08547
G1 X171.898 Y167.265 E.08547
G1 X171.42 Y168.28 E.08545
G1 X171.011 Y169.325 E.08547
G1 X170.673 Y170.395 E.08546
G1 X170.408 Y171.485 E.08543
G1 X170.217 Y172.591 E.08548
G1 X170.101 Y173.707 E.08545
G1 X170.059 Y174.879 E.08932
G1 X170.059 Y177.572 E.2051
