; generated by F3Slic3r 2.6.0-alpha4 on 2025-02-07 at 23:18:50 UTC

; 

; external perimeters extrusion width = 0.68mm
; perimeters extrusion width = 0.68mm
; infill extrusion width = 0.68mm
; solid infill extrusion width = 0.68mm
; top infill extrusion width = 0.60mm
; first layer extrusion width = 0.70mm

; external perimeters extrusion width = 0.68mm
; perimeters extrusion width = 0.68mm
; infill extrusion width = 0.68mm
; solid infill extrusion width = 0.68mm
; top infill extrusion width = 0.60mm
; first layer extrusion width = 0.70mm

M107
;TYPE:Custom
; Fusion3 F410 F3Slic3r start script
; Rev 2023.01.16
M104 S0 
G21  
G90  
T0  
G92 E0.0  
M220 S100 
M140 S60  
G32 
M190 S60  
M109 S220  
; === pause for heating ===
; reset filament monitor
M42 P63 S0
G4 P100
G4 P50
M42 P63 S1
;
G1 Z10.0 F2000  ; move up
G1 E30.0 F500  ; prime extruder
G1 X20 Y15 F9000  ; move back
G1 Z0 F1000  ; move down to begin wipe
G1 X150 E4.0 F10000  ; wipe print head (extrude material while we do this)
G92 E0.0  ; reset e count
G21 ; set units to millimeters
G90 ; use absolute coordinates
M83 ; use relative distances for extrusion
; Filament gcode
M107
;LAYER_CHANGE
;Z:0.35
;HEIGHT:0.35
G1 Z.35 F7800
G1 E-3.25 F10020
G1 X147.015 Y147.853 F7800
G1 E3.25 F2400
;TYPE:Skirt/Brim
;WIDTH:0.7
G1 F1800
G1 X148.768 Y146.374 E.20855
G1 X150.92 Y145.581 E.20854
G1 X152.1 Y145.475 E.10773
G1 X202.981 Y145.476 E4.62659
G1 X270.582 Y146.302 E6.14739
G1 X272.836 Y146.727 E.20857
G1 X274.81 Y147.894 E.20852
G1 X276.267 Y149.665 E.20853
G1 X277.126 Y152.927 E.30672
G1 X277.126 Y203.727 E4.61922
G1 X276.729 Y205.985 E.20847
G1 X275.586 Y207.973 E.20852
G1 X273.833 Y209.453 E.20861
G1 X271.681 Y210.246 E.20854
G1 X270.501 Y210.351 E.10772
G1 X219.701 Y210.351 E4.61922
G1 X152.019 Y209.524 E6.15476
G1 X149.765 Y209.1 E.20855
G1 X147.791 Y207.932 E.20856
G1 X146.334 Y206.162 E.20846
G1 X145.475 Y202.9 E.30672
G1 X145.475 Y152.1 E4.61922
G1 X145.872 Y149.841 E.20856
G1 X146.971 Y147.931 E.20037
G1 E-3.25 F10020
G1 X201.3 Y201.3 F7800
G1 E3.25 F2400
;TYPE:Perimeter
;WIDTH:0.7
G1 F1800
G1 X153.7 Y201.3 E4.32825
G1 X153.7 Y153.7 E4.32825
G1 X201.3 Y153.7 E4.32825
G1 X201.3 Y201.21 E4.32006
G1 E-3.25 F10020
G1 X201.925 Y201.925 F7800
G1 E3.25 F2400
G1 F1800
G1 X153.075 Y201.925 E4.44191
G1 X153.075 Y153.075 E4.44191
G1 X201.925 Y153.075 E4.44191
G1 X201.925 Y201.835 E4.43372
G1 E-3.25 F10020
G1 X202.55 Y202.55 F7800
G1 E3.25 F2400
;TYPE:External perimeter
G1 F1800
G1 X152.45 Y202.55 E4.55557
G1 X152.45 Y152.45 E4.55557
G1 X202.55 Y152.45 E4.55557
G1 X202.55 Y202.46 E4.54739
G1 X201.97 Y202.395 F7800
G1 E-3.25 F10020
G1 X178.881 Y174.345 F7800
G1 E3.25 F2400
;TYPE:Perimeter
G1 F1800
G1 X178.426 Y174.525 E.04449
G1 X177.679 Y174.645 E.0688
G1 X177.236 Y174.635 E.04029
G1 X176.641 Y174.545 E.05472
G1 X176.119 Y174.37 E.05006
G1 X175.514 Y174.032 E.06302
G1 X175.242 Y173.824 E.03114
G1 X174.865 Y173.46 E.04765
G1 X174.485 Y172.928 E.05945
G1 X174.328 Y172.629 E.03071
G1 X174.131 Y172.114 E.05014
G1 X174.018 Y171.498 E.05695
G1 X174.022 Y170.757 E.06738
G1 X174.187 Y170.023 E.06841
G1 X174.311 Y169.709 E.0307
G1 X174.56 Y169.243 E.04804
G1 X174.966 Y168.736 E.05906
G1 X175.215 Y168.5 E.0312
G1 X175.65 Y168.174 E.04943
G1 X176.234 Y167.888 E.05913
G1 X176.964 Y167.692 E.06873
G1 X177.704 Y167.656 E.06737
G1 X178.446 Y167.781 E.06842
G1 X179.148 Y168.063 E.06879
G1 X179.438 Y168.236 E.03071
G1 X179.863 Y168.563 E.04876
G1 X180.292 Y169.04 E.05833
G1 X180.483 Y169.319 E.03074
G1 X180.733 Y169.799 E.04921
G1 X180.923 Y170.423 E.05931
G1 X180.978 Y170.757 E.03078
G1 X181.002 Y171.276 E.04724
G1 X180.916 Y171.912 E.05836
G1 X180.826 Y172.238 E.03075
G1 X180.631 Y172.723 E.04753
G1 X180.28 Y173.276 E.05956
G1 X180.062 Y173.534 E.03071
G1 X179.678 Y173.895 E.04792
G1 X179.13 Y174.247 E.05922
G1 X178.965 Y174.312 E.01613
G1 X178.643 Y173.774 F7800
G1 F1800
G1 X178.225 Y173.933 E.04067
G1 X177.61 Y174.024 E.05653
G1 X176.99 Y173.98 E.05652
G1 X176.393 Y173.805 E.05657
G1 X175.837 Y173.496 E.05784
G1 X175.369 Y173.082 E.05682
G1 X175.004 Y172.578 E.05658
G1 X174.755 Y172.008 E.05656
G1 X174.635 Y171.398 E.05653
G1 X174.646 Y170.791 E.0552
G1 X174.789 Y170.188 E.05635
G1 X175.06 Y169.628 E.05657
G1 X175.444 Y169.139 E.05654
G1 X175.936 Y168.736 E.05783
G1 X176.494 Y168.455 E.05681
G1 X177.097 Y168.302 E.05657
G1 X177.704 Y168.281 E.05523
G1 X178.314 Y168.391 E.05636
G1 X178.888 Y168.631 E.05657
G1 X179.397 Y168.988 E.05653
G1 X179.817 Y169.446 E.05651
G1 X180.129 Y169.984 E.05655
G1 X180.321 Y170.591 E.05789
G1 X180.376 Y171.199 E.05551
G1 X180.374 Y171.332 E.01209
G1 X180.287 Y171.874 E.04991
G1 X180.091 Y172.399 E.05096
G1 X179.762 Y172.927 E.05657
G1 X179.327 Y173.371 E.05652
G1 X178.807 Y173.712 E.05654
G1 X178.728 Y173.742 E.00768
G1 X178.449 Y173.19 F7800
;TYPE:External perimeter
G1 F1800
G1 X177.958 Y173.356 E.04713
G1 X177.368 Y173.392 E.05375
G1 X176.989 Y173.345 E.03473
G1 X176.528 Y173.183 E.04443
G1 X176.104 Y172.919 E.04542
G1 X175.757 Y172.578 E.04424
G1 X175.49 Y172.17 E.04434
G1 X175.318 Y171.714 E.04432
G1 X175.248 Y171.233 E.0442
G1 X175.281 Y170.759 E.0432
G1 X175.417 Y170.291 E.04432
G1 X175.65 Y169.863 E.04431
G1 X175.971 Y169.495 E.0444
G1 X176.373 Y169.199 E.04539
G1 X176.819 Y169.002 E.04433
G1 X177.296 Y168.906 E.04424
G1 X177.771 Y168.913 E.0432
G1 X178.245 Y169.023 E.04425
G1 X178.685 Y169.233 E.04433
G1 X179.069 Y169.533 E.04431
G1 X179.38 Y169.908 E.0443
G1 X179.603 Y170.342 E.04437
G1 X179.73 Y170.824 E.04532
G1 X179.751 Y171.277 E.04124
G1 X179.666 Y171.773 E.04576
G1 X179.478 Y172.229 E.04485
G1 X179.2 Y172.629 E.04429
G1 X178.842 Y172.96 E.04433
G1 X178.527 Y173.145 E.03322
G1 X178.401 Y173.706 F7800
G1 E-3.25 F10020
G1 X177.981 Y177.227 F7800
G1 E3.25 F2400
;TYPE:Perimeter
G1 F1800
G1 X178.451 Y177.307 E.04335
G1 X179.148 Y177.588 E.06833
G1 X179.773 Y178.014 E.06878
G1 X180.019 Y178.246 E.03075
G1 X180.37 Y178.664 E.04963
G1 X180.68 Y179.215 E.05749
G1 X180.808 Y179.533 E.03117
G1 X180.949 Y180.059 E.04952
G1 X180.999 Y180.706 E.05901
G1 X180.98 Y181.043 E.03069
G1 X180.866 Y181.652 E.05634
G1 X180.663 Y182.172 E.05076
G1 X180.277 Y182.805 E.06742
G1 X179.758 Y183.349 E.06837
G1 X179.13 Y183.772 E.06885
G1 X178.426 Y184.05 E.06882
G1 X177.679 Y184.17 E.0688
G1 X177.236 Y184.16 E.04029
G1 X176.651 Y184.073 E.05378
G1 X176.133 Y183.9 E.04966
G1 X175.528 Y183.566 E.06284
G1 X174.952 Y183.074 E.06888
G1 X174.73 Y182.814 E.03109
G1 X174.426 Y182.357 E.04991
G1 X174.174 Y181.763 E.05867
G1 X174.084 Y181.437 E.03075
G1 X174.004 Y180.912 E.04829
G1 X174.022 Y180.282 E.05731
G1 X174.187 Y179.548 E.06841
G1 X174.311 Y179.234 E.0307
G1 X174.569 Y178.754 E.04955
G1 X174.966 Y178.261 E.05756
G1 X175.211 Y178.028 E.03074
G1 X175.616 Y177.721 E.04621
G1 X176.214 Y177.42 E.06088
G1 X176.539 Y177.31 E.0312
G1 X177.189 Y177.185 E.06019
G1 X177.72 Y177.182 E.04828
G1 X177.892 Y177.212 E.01588
G1 X177.888 Y177.838 F7800
G1 F1800
G1 X178.316 Y177.917 E.03958
G1 X178.888 Y178.156 E.05637
G1 X179.397 Y178.513 E.05653
G1 X179.817 Y178.971 E.05651
G1 X180.129 Y179.509 E.05655
G1 X180.321 Y180.116 E.05789
G1 X180.375 Y180.738 E.05677
G1 X180.295 Y181.355 E.05657
G1 X180.267 Y181.471 E.01085
G1 X180.083 Y181.939 E.04573
G1 X179.76 Y182.454 E.05528
G1 X179.327 Y182.896 E.05626
G1 X178.807 Y183.237 E.05654
G1 X178.225 Y183.458 E.05661
G1 X177.61 Y183.549 E.05653
G1 X176.99 Y183.505 E.05652
G1 X176.393 Y183.33 E.05657
G1 X175.848 Y183.029 E.05661
G1 X175.381 Y182.619 E.05651
G1 X175.005 Y182.106 E.05783
G1 X174.755 Y181.533 E.05685
G1 X174.635 Y180.923 E.05653
G1 X174.646 Y180.316 E.0552
G1 X174.789 Y179.713 E.05635
G1 X175.06 Y179.153 E.05657
G1 X175.444 Y178.664 E.05654
G1 X175.924 Y178.269 E.05652
G1 X176.478 Y177.987 E.05653
G1 X177.094 Y177.828 E.05785
G1 X177.719 Y177.807 E.05686
G1 X177.799 Y177.822 E.0074
G1 X177.768 Y178.439 F7800
;TYPE:External perimeter
G1 F1800
G1 X178.245 Y178.548 E.04449
G1 X178.685 Y178.758 E.04433
G1 X179.069 Y179.058 E.04431
G1 X179.38 Y179.433 E.0443
G1 X179.603 Y179.867 E.04437
G1 X179.73 Y180.35 E.04541
G1 X179.747 Y180.837 E.04431
G1 X179.669 Y181.291 E.04189
G1 X179.479 Y181.755 E.04559
G1 X179.2 Y182.154 E.04427
G1 X178.842 Y182.485 E.04433
G1 X178.422 Y182.731 E.04426
G1 X177.958 Y182.881 E.04434
G1 X177.368 Y182.917 E.05375
G1 X176.989 Y182.87 E.03473
G1 X176.529 Y182.709 E.04432
G1 X176.115 Y182.452 E.04431
G1 X175.765 Y182.112 E.04437
G1 X175.491 Y181.695 E.04537
G1 X175.318 Y181.239 E.04435
G1 X175.248 Y180.758 E.0442
G1 X175.281 Y180.284 E.0432
G1 X175.417 Y179.816 E.04432
G1 X175.65 Y179.388 E.04431
G1 X175.97 Y179.021 E.04428
G1 X176.362 Y178.73 E.04439
G1 X176.807 Y178.531 E.04433
G1 X177.297 Y178.431 E.04547
G1 X177.678 Y178.438 E.03465
G1 X178.061 Y178.047 F7800
G1 E-3.25 F10020
G1 X176.493 Y186.868 F7800
G1 E3.25 F2400
;TYPE:Perimeter
G1 F1800
G1 X176.964 Y186.742 E.04433
G1 X177.494 Y186.707 E.0483
G1 X178.002 Y186.734 E.04626
G1 X178.519 Y186.848 E.04814
G1 X179.148 Y187.113 E.06206
G1 X179.773 Y187.539 E.06878
G1 X180.019 Y187.771 E.03075
G1 X180.367 Y188.186 E.04925
G1 X180.68 Y188.74 E.05786
G1 X180.808 Y189.058 E.03117
G1 X180.949 Y189.582 E.04934
G1 X181 Y190.215 E.05774
G1 X180.916 Y190.962 E.06835
G1 X180.826 Y191.288 E.03075
G1 X180.604 Y191.827 E.05301
G1 X180.28 Y192.326 E.0541
G1 X179.758 Y192.874 E.06882
G1 X179.13 Y193.297 E.06885
G1 X178.426 Y193.575 E.06882
G1 X177.679 Y193.695 E.0688
G1 X176.924 Y193.652 E.06876
G1 X176.195 Y193.447 E.06886
G1 X175.884 Y193.304 E.03113
G1 X175.37 Y192.983 E.0551
G1 X174.938 Y192.584 E.05347
G1 X174.485 Y191.978 E.0688
G1 X174.174 Y191.288 E.06882
G1 X174.084 Y190.962 E.03075
G1 X174.002 Y190.411 E.05065
G1 X174.024 Y189.791 E.05641
G1 X174.08 Y189.458 E.0307
G1 X174.225 Y188.954 E.04769
G1 X174.517 Y188.369 E.05945
G1 X174.969 Y187.782 E.06737
G1 X175.215 Y187.55 E.03075
G1 X175.629 Y187.238 E.04714
G1 X176.234 Y186.938 E.0614
G1 X176.406 Y186.891 E.01621
G1 X176.663 Y187.463 F7800
G1 F1800
G1 X177.097 Y187.352 E.04073
G1 X177.719 Y187.332 E.05659
G1 X178.316 Y187.442 E.0552
G1 X178.888 Y187.681 E.05637
G1 X179.397 Y188.038 E.05653
G1 X179.817 Y188.496 E.05651
G1 X180.129 Y189.034 E.05655
G1 X180.321 Y189.641 E.05789
G1 X180.376 Y190.249 E.05551
G1 X180.299 Y190.863 E.05627
G1 X180.091 Y191.449 E.05654
G1 X179.762 Y191.977 E.05657
G1 X179.327 Y192.421 E.05652
G1 X178.807 Y192.762 E.05654
G1 X178.225 Y192.983 E.05661
G1 X177.61 Y193.074 E.05653
G1 X176.99 Y193.03 E.05652
G1 X176.393 Y192.855 E.05657
G1 X175.837 Y192.546 E.05784
G1 X175.369 Y192.132 E.05682
G1 X175.004 Y191.628 E.05658
G1 X174.755 Y191.058 E.05656
G1 X174.635 Y190.448 E.05653
G1 X174.648 Y189.826 E.05657
G1 X174.795 Y189.222 E.05652
G1 X175.069 Y188.664 E.05653
G1 X175.446 Y188.187 E.05528
G1 X175.936 Y187.786 E.05757
G1 X176.494 Y187.505 E.05681
G1 X176.576 Y187.485 E.00767
G1 X176.802 Y188.06 F7800
;TYPE:External perimeter
G1 F1800
G1 X177.297 Y187.956 E.04599
G1 X177.783 Y187.964 E.0442
G1 X178.245 Y188.073 E.04316
G1 X178.685 Y188.283 E.04433
G1 X179.069 Y188.583 E.04431
G1 X179.38 Y188.958 E.0443
G1 X179.603 Y189.392 E.04437
G1 X179.73 Y189.874 E.04532
G1 X179.748 Y190.349 E.04322
G1 X179.682 Y190.764 E.03821
G1 X179.496 Y191.249 E.04723
G1 X179.2 Y191.679 E.04747
G1 X178.842 Y192.01 E.04433
G1 X178.422 Y192.256 E.04426
G1 X177.958 Y192.406 E.04434
G1 X177.473 Y192.453 E.04431
G1 X176.989 Y192.395 E.04432
G1 X176.528 Y192.233 E.04443
G1 X176.104 Y191.969 E.04542
G1 X175.757 Y191.628 E.04424
G1 X175.49 Y191.22 E.04434
G1 X175.318 Y190.764 E.04432
G1 X175.248 Y190.282 E.04429
G1 X175.283 Y189.796 E.04431
G1 X175.422 Y189.328 E.04439
G1 X175.657 Y188.903 E.04416
G1 X175.971 Y188.545 E.0433
G1 X176.373 Y188.249 E.04539
G1 X176.719 Y188.096 E.0344
G1 X176.907 Y187.565 F7800
G1 E-3.25 F10020
G1 X201.113 Y155.151 F7800
G1 E3.25 F2400
;TYPE:Solid infill
;WIDTH:0.700114
G1 F1800
G1 X200.131 Y154.168 E.12637
G1 X199.247 Y154.168 E.0804
G1 X200.832 Y155.753 E.20386
G1 X200.832 Y156.637 E.0804
G1 X198.363 Y154.168 E.31756
G1 X197.479 Y154.168 E.0804
G1 X200.832 Y157.521 E.43125
G1 X200.832 Y158.405 E.0804
G1 X196.595 Y154.168 E.54495
G1 X195.711 Y154.168 E.0804
G1 X200.832 Y159.289 E.65865
G1 X200.832 Y160.173 E.0804
G1 X194.827 Y154.168 E.77235
G1 X193.943 Y154.168 E.0804
G1 X200.832 Y161.057 E.88604
G1 X200.832 Y161.941 E.0804
G1 X193.059 Y154.168 E.99974
G1 X192.176 Y154.168 E.08031
G1 X200.832 Y162.824 E1.11331
G1 X200.832 Y163.708 E.0804
G1 X191.292 Y154.168 E1.22701
G1 X190.408 Y154.168 E.0804
G1 X200.832 Y164.592 E1.34071
G1 X200.832 Y165.476 E.0804
G1 X189.524 Y154.168 E1.4544
G1 X188.64 Y154.168 E.0804
G1 X200.832 Y166.36 E1.5681
G1 X200.832 Y167.244 E.0804
G1 X187.756 Y154.168 E1.6818
G1 X186.872 Y154.168 E.0804
G1 X200.832 Y168.128 E1.7955
G1 X200.832 Y169.012 E.0804
G1 X185.988 Y154.168 E1.90919
G1 X185.104 Y154.168 E.0804
G1 X200.832 Y169.896 E2.02289
G1 X200.832 Y170.779 E.08031
G1 X184.221 Y154.168 E2.13646
G1 X183.337 Y154.168 E.0804
G1 X200.832 Y171.663 E2.25016
G1 X200.832 Y172.547 E.0804
G1 X182.453 Y154.168 E2.36386
G1 X181.569 Y154.168 E.0804
G1 X200.832 Y173.431 E2.47755
G1 X200.832 Y174.315 E.0804
G1 X180.685 Y154.168 E2.59125
G1 X179.801 Y154.168 E.0804
G1 X200.832 Y175.199 E2.70495
G1 X200.832 Y176.083 E.0804
G1 X178.917 Y154.168 E2.81865
G1 X178.033 Y154.168 E.0804
G1 X200.832 Y176.967 E2.93234
G1 X200.832 Y177.851 E.0804
G1 X177.149 Y154.168 E3.04604
G1 X176.266 Y154.168 E.08031
G1 X200.832 Y178.734 E3.15961
G1 X200.832 Y179.618 E.0804
G1 X175.382 Y154.168 E3.27331
G1 X174.498 Y154.168 E.0804
G1 X200.832 Y180.502 E3.38701
G1 X200.832 Y181.386 E.0804
G1 X173.614 Y154.168 E3.5007
G1 X172.73 Y154.168 E.0804
G1 X200.832 Y182.27 E3.6144
G1 X200.832 Y183.154 E.0804
G1 X171.846 Y154.168 E3.7281
G1 X170.962 Y154.168 E.0804
G1 X200.832 Y184.038 E3.8418
G1 X200.832 Y184.922 E.0804
G1 X170.078 Y154.168 E3.95549
G1 X169.194 Y154.168 E.0804
G1 X200.832 Y185.806 E4.06919
G1 X200.832 Y186.689 E.08031
G1 X168.311 Y154.168 E4.18276
G1 X167.427 Y154.168 E.0804
G1 X200.832 Y187.573 E4.29646
G1 X200.832 Y188.457 E.0804
G1 X166.543 Y154.168 E4.41016
G1 X165.659 Y154.168 E.0804
G1 X178.959 Y167.468 E1.71061
G1 X179.348 Y167.639 E.03865
G1 X179.603 Y167.779 E.02646
G1 X180.06 Y168.118 E.05175
G1 X180.279 Y168.311 E.02655
G1 X180.743 Y168.855 E.06503
G1 X180.894 Y169.094 E.02571
G1 X181.197 Y169.707 E.06219
G1 X200.832 Y189.341 E2.52533
G1 X200.832 Y190.225 E.0804
G1 X181.443 Y170.836 E2.49376
G1 X181.471 Y171.25 E.03774
G1 X181.423 Y171.701 E.04125
G1 X200.832 Y191.109 E2.49627
G1 X200.832 Y191.993 E.0804
G1 X181.258 Y172.419 E2.51755
G1 X181.091 Y172.843 E.04144
G1 X180.991 Y173.036 E.01977
G1 X200.832 Y192.877 E2.55189
G1 X200.832 Y193.761 E.0804
G1 X180.642 Y173.571 E2.59678
G1 X180.391 Y173.868 E.03537
G1 X180.218 Y174.031 E.02162
G1 X200.832 Y194.644 E2.65125
G1 X200.832 Y195.528 E.0804
G1 X179.731 Y174.428 E2.71389
G1 X179.17 Y174.751 E.05887
G1 X200.832 Y196.412 E2.78604
G1 X200.832 Y197.296 E.0804
G1 X178.521 Y174.986 E2.86951
G1 X178.216 Y175.056 E.02846
G1 X177.752 Y175.1 E.04239
G1 X200.832 Y198.18 E2.96849
G1 X200.832 Y199.064 E.0804
G1 X181.288 Y179.52 E2.51369
G1 X181.217 Y179.273 E.02337
G1 X181.12 Y179.043 E.0227
G1 X180.752 Y178.392 E.06801
G1 X180.337 Y177.897 E.05875
G1 X180.163 Y177.727 E.02212
G1 X179.647 Y177.334 E.05899
G1 X179.447 Y177.213 E.02126
G1 X178.899 Y176.959 E.05493
G1 X178.638 Y176.87 E.02508
G1 X176.444 Y174.677 E.28212
G1 E-3.25 F10020
G1 X181.165 Y180.281 F7800
G1 E3.25 F2400
G1 F1800
G1 X200.832 Y199.948 E2.52951
G1 X200.832 Y200.832 E.0804
G1 X181.387 Y181.388 E2.5009
G1 X181.316 Y181.786 E.03677
G1 X181.197 Y182.081 E.02893
G1 X199.948 Y200.832 E2.4117
G1 X199.064 Y200.832 E.0804
G1 X180.912 Y182.68 E2.33466
G1 X180.558 Y183.21 E.05796
G1 X198.18 Y200.832 E2.26649
G1 X197.296 Y200.832 E.0804
G1 X180.115 Y183.651 E2.20977
G1 X179.977 Y183.781 E.01724
G1 X179.609 Y184.029 E.04036
G1 X196.412 Y200.832 E2.16116
G1 X195.528 Y200.832 E.0804
G1 X179.034 Y184.337 E2.12148
G1 X178.362 Y184.549 E.06408
G1 X194.644 Y200.832 E2.09421
