;FLAVOR:RepRap
;TIME:3130
;Filament used: 6.74291m
;Layer height: 0.2
;MINX:150.12
;MINY:131.07
;MINZ:0.25
;MAXX:204.88
;MAXY:223.93
;MAXZ:19.25
;TARGET_MACHINE.NAME:Fusion3 F410
;Generated with Cura_SteamEngine 5.9.0
T0
M82 ;absolute extrusion mode
; Fusion3 F410 start code
M104 S0 ; shutdown heater and prepare to print
G21  ; set units to mm
G90  ; use absolute coordinates
T0  ; select tool 0
G92 E0.0  ; reset e count
M220 S100 ; reset speed multiplier
M140 S55  ; set bed temp and do not wait
G32  ; call to run bed.g
M190 S55 ; Set bed temperature and wait
M109 S230 ; set print head temperature and wait
; === pause for heating ===
; reset filament monitor
M42 P63 S0
G4 P100
G4 P50
M42 P63 S1
G1 X350 Y0
G1 Z10.0 F2000  ; move up
G1 E10.0 F500  ; prime extruder
G92 E0.0  ; reset e count
G1 X330 Y15 F9000  ; move back
G1 Z0.25 F1000  ; move down to begin wipe
G1 X150 E4.0 F6000  ; wipe print head (extrude material while we do this)
G92 E0.0  ; reset e count

M83 ;relative extrusion mode
G1 F6000 E-4.25
;LAYER_COUNT:95
;LAYER:0
M107
G1 F300 Z0.45
G0 F6000 X198.698 Y223.771 Z0.45
;TYPE:SKIRT
G1 F300 Z0.25
G1 F6000 E4.25
G1 F2400 X198.061 Y223.864 E0.02775
G1 X197.366 Y223.912 E0.03003
G1 X196.337 Y223.928 E0.04436
G1 X158.51 Y223.93 E1.63054
G1 X157.826 Y223.919 E0.02949
G1 X156.976 Y223.864 E0.03672
G1 X156.28 Y223.765 E0.0303
G1 X155.559 Y223.574 E0.03215
G1 X155.21 Y223.457 E0.01587
G1 X154.536 Y223.183 E0.03136
G1 X153.907 Y222.84 E0.03088
G1 X153.508 Y222.589 E0.02032
G1 X152.85 Y222.108 E0.03513
G1 X152.309 Y221.6 E0.03199
G1 X151.965 Y221.202 E0.02268
G1 X151.622 Y220.767 E0.02388
G1 X151.222 Y220.184 E0.03048
G1 X150.812 Y219.377 E0.03902
G1 X150.638 Y218.954 E0.01972
G1 X150.429 Y218.343 E0.02784
G1 X150.261 Y217.559 E0.03456
G1 X150.204 Y217.169 E0.01699
G1 X150.14 Y216.396 E0.03343
G1 X150.12 Y215.264 E0.0488
G1 X150.121 Y139.363 E3.27172
G1 X150.131 Y138.765 E0.02578
G1 X150.182 Y137.963 E0.03464
G1 X150.295 Y137.182 E0.03402
G1 X150.465 Y136.543 E0.0285
G1 X150.6 Y136.136 E0.01848
G1 X150.841 Y135.536 E0.02787
G1 X151.193 Y134.885 E0.0319
G1 X151.464 Y134.453 E0.02198
G1 X151.928 Y133.816 E0.03397
G1 X152.434 Y133.276 E0.0319
G1 X152.823 Y132.938 E0.02221
G1 X153.244 Y132.603 E0.02319
G1 X153.849 Y132.183 E0.03175
G1 X154.696 Y131.751 E0.04098
G1 X155.09 Y131.59 E0.01835
G1 X155.753 Y131.367 E0.03015
G1 X156.468 Y131.215 E0.03151
G1 X156.946 Y131.145 E0.02082
G1 X157.596 Y131.092 E0.02811
G1 X158.748 Y131.07 E0.04967
G1 X196.491 Y131.07 E1.62692
G1 X197.241 Y131.082 E0.03233
G1 X197.76 Y131.113 E0.02241
G1 X198.281 Y131.17 E0.02259
G1 X199.039 Y131.307 E0.0332
G1 X199.86 Y131.57 E0.03716
G1 X200.33 Y131.762 E0.02188
G1 X200.912 Y132.042 E0.02784
G1 X201.768 Y132.609 E0.04426
G1 X202.176 Y132.933 E0.02246
G1 X202.756 Y133.463 E0.03387
G1 X203.239 Y134.027 E0.03201
G1 X203.53 Y134.448 E0.02206
G1 X203.813 Y134.899 E0.02295
G1 X204.124 Y135.466 E0.02788
G1 X204.414 Y136.178 E0.03314
G1 X204.54 Y136.56 E0.01734
G1 X204.717 Y137.234 E0.03004
G1 X204.813 Y137.877 E0.02802
G1 X204.86 Y138.555 E0.0293
G1 X204.879 Y139.673 E0.0482
G1 X204.88 Y215.541 E3.2703
G1 X204.868 Y216.292 E0.03238
G1 X204.84 Y216.79 E0.0215
G1 X204.79 Y217.271 E0.02085
G1 X204.666 Y217.999 E0.03183
G1 X204.375 Y218.924 E0.0418
G1 X204.193 Y219.369 E0.02072
G1 X203.913 Y219.951 E0.02784
G1 X203.335 Y220.824 E0.04513
G1 X203.008 Y221.234 E0.02261
G1 X202.517 Y221.775 E0.03149
G1 X201.915 Y222.293 E0.03423
G1 X201.506 Y222.578 E0.02149
G1 X201.054 Y222.862 E0.02301
G1 X200.487 Y223.173 E0.02788
G1 X199.753 Y223.472 E0.03416
G1 X199.373 Y223.596 E0.01723
G1 X198.698 Y223.771 E0.03006
G0 F6000 X198.585 Y223.335
G1 F2400 X198.03 Y223.415 E0.02417
G1 X197.359 Y223.462 E0.02899
G1 X196.334 Y223.479 E0.04419
G1 X158.517 Y223.48 E1.63011
G1 X157.855 Y223.47 E0.02854
G1 X157.039 Y223.418 E0.03525
G1 X156.343 Y223.319 E0.0303
G1 X155.701 Y223.147 E0.02865
G1 X155.379 Y223.04 E0.01463
G1 X154.705 Y222.766 E0.03136
G1 X154.147 Y222.459 E0.02745
G1 X153.748 Y222.208 E0.02032
G1 X153.157 Y221.779 E0.03148
G1 X152.649 Y221.305 E0.02995
G1 X152.318 Y220.923 E0.02179
G1 X151.992 Y220.51 E0.02268
G1 X151.623 Y219.979 E0.02787
G1 X151.228 Y219.205 E0.03746
G1 X151.064 Y218.808 E0.01852
G1 X150.855 Y218.197 E0.02784
G1 X150.706 Y217.494 E0.03098
G1 X150.649 Y217.104 E0.01699
G1 X150.59 Y216.388 E0.03097
G1 X150.57 Y215.264 E0.04846
G1 X150.571 Y139.37 E3.27142
G1 X150.58 Y138.794 E0.02483
G1 X150.631 Y137.992 E0.03464
G1 X150.73 Y137.298 E0.03022
G1 X150.9 Y136.659 E0.0285
G1 X151.018 Y136.304 E0.01613
G1 X151.259 Y135.704 E0.02787
G1 X151.588 Y135.101 E0.02961
G1 X151.845 Y134.692 E0.02082
G1 X152.257 Y134.123 E0.03028
G1 X152.73 Y133.615 E0.02992
G1 X153.103 Y133.29 E0.02133
G1 X153.501 Y132.973 E0.02193
G1 X154.106 Y132.553 E0.03175
G1 X154.867 Y132.167 E0.03678
G1 X155.235 Y132.016 E0.01715
G1 X155.847 Y131.807 E0.02788
G1 X156.562 Y131.655 E0.03151
G1 X156.983 Y131.594 E0.01834
G1 X157.633 Y131.541 E0.02811
G1 X158.756 Y131.52 E0.04842
G1 X196.484 Y131.52 E1.62627
G1 X197.215 Y131.531 E0.03151
G1 X197.712 Y131.56 E0.02146
G1 X198.203 Y131.613 E0.02129
G1 X198.902 Y131.736 E0.03059
G1 X199.723 Y131.999 E0.03716
G1 X200.135 Y132.168 E0.0192
G1 X200.717 Y132.448 E0.02784
G1 X201.489 Y132.962 E0.03998
G1 X201.874 Y133.267 E0.02117
G1 X202.415 Y133.757 E0.03146
G1 X202.869 Y134.283 E0.02995
G1 X203.149 Y134.687 E0.02119
G1 X203.418 Y135.115 E0.02179
G1 X203.729 Y135.682 E0.02788
G1 X203.987 Y136.32 E0.02966
G1 X204.105 Y136.676 E0.01617
G1 X204.272 Y137.301 E0.02789
G1 X204.364 Y137.909 E0.02651
G1 X204.41 Y138.563 E0.02826
G1 X204.429 Y139.673 E0.04785
G1 X204.43 Y215.534 E3.27
G1 X204.419 Y216.267 E0.0316
G1 X204.392 Y216.744 E0.02059
G1 X204.346 Y217.195 E0.01954
G1 X204.222 Y217.923 E0.03183
G1 X203.958 Y218.754 E0.03758
G1 X203.787 Y219.174 E0.01955
G1 X203.507 Y219.756 E0.02784
G1 X202.983 Y220.543 E0.04076
G1 X202.656 Y220.953 E0.02261
G1 X202.184 Y221.472 E0.03024
G1 X201.658 Y221.924 E0.02989
G1 X201.266 Y222.197 E0.02059
G1 X200.838 Y222.467 E0.02181
G1 X200.271 Y222.778 E0.02788
G1 X199.613 Y223.044 E0.03059
G1 X199.26 Y223.16 E0.01602
G1 X198.585 Y223.335 E0.03006
G0 F6000 X198.52 Y222.89
G1 F2400 X197.998 Y222.966 E0.02274
G1 X197.351 Y223.012 E0.02796
G1 X196.334 Y223.029 E0.04384
G1 X158.523 Y223.03 E1.62985
G1 X157.883 Y223.021 E0.02759
G1 X157.1 Y222.972 E0.03382
G1 X156.459 Y222.884 E0.02789
G1 X155.843 Y222.72 E0.02748
G1 X155.521 Y222.613 E0.01463
G1 X154.922 Y222.372 E0.02783
G1 X154.387 Y222.078 E0.02631
G1 X153.988 Y221.827 E0.02032
G1 X153.463 Y221.449 E0.02789
G1 X152.989 Y221.01 E0.02785
G1 X152.671 Y220.644 E0.0209
G1 X152.362 Y220.253 E0.02148
G1 X151.993 Y219.722 E0.02787
G1 X151.63 Y219.002 E0.03476
G1 X151.49 Y218.662 E0.01585
G1 X151.281 Y218.051 E0.02784
G1 X151.151 Y217.429 E0.02739
G1 X151.094 Y217.039 E0.01699
G1 X151.04 Y216.38 E0.0285
G1 X151.02 Y215.264 E0.04811
G1 X151.021 Y139.376 E3.27116
G1 X151.029 Y138.822 E0.02388
G1 X151.077 Y138.053 E0.03321
G1 X151.165 Y137.413 E0.02785
G1 X151.327 Y136.801 E0.02729
G1 X151.436 Y136.472 E0.01494
G1 X151.677 Y135.872 E0.02787
G1 X151.969 Y135.34 E0.02616
G1 X152.211 Y134.954 E0.01964
G1 X152.588 Y134.428 E0.0279
G1 X153.026 Y133.954 E0.02782
G1 X153.383 Y133.642 E0.02044
G1 X153.781 Y133.325 E0.02193
G1 X154.31 Y132.954 E0.02785
G1 X155.039 Y132.583 E0.03526
G1 X155.38 Y132.442 E0.01591
G1 X155.992 Y132.233 E0.02788
G1 X156.627 Y132.1 E0.02797
G1 X157.02 Y132.043 E0.01712
G1 X157.67 Y131.99 E0.02811
G1 X158.764 Y131.97 E0.04716
G1 X196.478 Y131.97 E1.62567
G1 X197.189 Y131.98 E0.03065
G1 X197.665 Y132.008 E0.02055
G1 X198.128 Y132.057 E0.02007
G1 X198.765 Y132.165 E0.02785
G1 X199.553 Y132.416 E0.03565
G1 X199.94 Y132.574 E0.01802
G1 X200.522 Y132.854 E0.02784
G1 X201.21 Y133.315 E0.0357
G1 X201.595 Y133.62 E0.02117
G1 X202.075 Y134.052 E0.02784
G1 X202.499 Y134.54 E0.02787
G1 X202.768 Y134.927 E0.02032
G1 X203.023 Y135.331 E0.02059
G1 X203.334 Y135.898 E0.02788
G1 X203.56 Y136.463 E0.02623
G1 X203.67 Y136.792 E0.01495
G1 X203.837 Y137.417 E0.02789
G1 X203.915 Y137.941 E0.02284
G1 X203.96 Y138.571 E0.02723
G1 X203.979 Y139.673 E0.04751
G1 X203.98 Y215.528 E3.26974
G1 X203.97 Y216.241 E0.03074
G1 X203.944 Y216.698 E0.01973
G1 X203.898 Y217.149 E0.01954
G1 X203.793 Y217.787 E0.02787
G1 X203.541 Y218.585 E0.03607
G1 X203.381 Y218.979 E0.01833
G1 X203.101 Y219.561 E0.02784
G1 X202.631 Y220.263 E0.03642
G1 X202.322 Y220.652 E0.02141
G1 X201.89 Y221.132 E0.02784
G1 X201.401 Y221.555 E0.02787
G1 X201.025 Y221.817 E0.01975
G1 X200.622 Y222.072 E0.02056
G1 X200.055 Y222.383 E0.02788
G1 X199.471 Y222.617 E0.02712
G1 X199.145 Y222.725 E0.0148
G1 X198.52 Y222.89 E0.02786
G1 F6000 E-4.25
G1 F300 Z0.45
;MESH:lidNO3.STL
G0 F6000 X197.364 Y216.566 Z0.45
;TYPE:WALL-OUTER
G1 F300 Z0.25
G1 F6000 E4.25
G1 F2400 X197.511 Y216.424 E0.00881
G1 X197.595 Y216.175 E0.01133
G1 X197.595 Y138.81 E3.33483
G1 X197.518 Y138.584 E0.01029
G1 X197.372 Y138.432 E0.00908
G1 X197.127 Y138.349 E0.01115
G1 X157.873 Y138.353 E1.69205
G1 X157.623 Y138.437 E0.01137
G1 X157.478 Y138.584 E0.0089
G1 X157.401 Y138.824 E0.01086
G1 X157.401 Y216.175 E3.33423
G1 X157.484 Y216.424 E0.01131
G1 X157.632 Y216.566 E0.00884
G1 X157.873 Y216.647 E0.01096
G1 X197.138 Y216.643 E1.69252
G1 X197.364 Y216.566 E0.01029
G0 F6000 X197.145 Y216.102
;TYPE:WALL-INNER
G1 F2400 X197.145 Y138.831 E3.33078
G1 X197.053 Y138.799 E0.0042
G1 X157.946 Y138.803 E1.68571
G1 X157.851 Y138.836 E0.00434
G1 X157.851 Y216.165 E3.33328
G1 X157.946 Y216.197 E0.00432
G1 X197.113 Y216.193 E1.6883
G1 X197.145 Y216.102 E0.00416
G0 F6000 X196.695 Y215.743
G1 F2400 X196.695 Y139.25 E3.29724
G1 X158.301 Y139.252 E1.65498
G1 X158.301 Y215.746 E3.29728
G1 X196.695 Y215.743 E1.65498
G0 F6000 X196.287 Y215.335
;TYPE:SKIN
G1 F2400 X196.287 Y139.654 E3.26224
G1 X158.705 Y139.657 E1.61998
G1 X158.705 Y215.338 E3.26224
G1 X196.287 Y215.335 E1.61998
G1 F6000 E-4.25
G1 F300 Z0.45
G0 F6000 X159.155 Y214.521 Z0.45
G1 F300 Z0.25
G1 F6000 E4.25
G1 F2400 X159.52 Y214.887 E0.02228
G1 X160.157 Y214.887 E0.02746
G1 X159.155 Y213.885 E0.06108
G1 X159.155 Y213.249 E0.02741
G1 X160.793 Y214.887 E0.09985
G1 X161.43 Y214.887 E0.02746
G1 X159.155 Y212.612 E0.13868
G1 X159.155 Y211.976 E0.02741
G1 X162.066 Y214.887 E0.17745
G1 X162.702 Y214.887 E0.02741
G1 X159.155 Y211.339 E0.21626
G1 X159.155 Y210.703 E0.02741
G1 X163.339 Y214.887 E0.25506
G1 X163.975 Y214.887 E0.02741
G1 X159.155 Y210.067 E0.29383
G1 X159.155 Y209.43 E0.02746
G1 X164.612 Y214.887 E0.33266
G1 X165.248 Y214.887 E0.02741
G1 X159.155 Y208.794 E0.37143
G1 X159.155 Y208.157 E0.02746
G1 X165.884 Y214.887 E0.41023
G1 X166.521 Y214.887 E0.02746
G1 X159.155 Y207.521 E0.44903
G1 X159.155 Y206.885 E0.02741
G1 X167.157 Y214.887 E0.4878
G1 X167.794 Y214.887 E0.02746
G1 X159.155 Y206.248 E0.52663
G1 X159.155 Y205.612 E0.02741
G1 X168.429 Y214.886 E0.56534
G1 X169.066 Y214.886 E0.02746
G1 X159.155 Y204.975 E0.60417
G1 X159.155 Y204.339 E0.02741
G1 X169.702 Y214.886 E0.64294
G1 X170.338 Y214.886 E0.02741
G1 X159.155 Y203.703 E0.68171
G1 X159.155 Y203.066 E0.02746
G1 X170.975 Y214.886 E0.72055
G1 X171.611 Y214.886 E0.02741
G1 X159.155 Y202.43 E0.75932
G1 X159.155 Y201.793 E0.02746
G1 X172.248 Y214.886 E0.79815
G1 X172.884 Y214.886 E0.02741
G1 X159.155 Y201.157 E0.83692
G1 X159.155 Y200.521 E0.02741
G1 X173.52 Y214.886 E0.87569
G1 X174.157 Y214.886 E0.02746
G1 X159.155 Y199.884 E0.91452
G1 X159.155 Y199.248 E0.02741
G1 X174.793 Y214.886 E0.95329
G1 X175.43 Y214.886 E0.02746
G1 X159.155 Y198.611 E0.99212
G1 X159.155 Y197.975 E0.02741
G1 X176.066 Y214.886 E1.03089
G1 X176.702 Y214.886 E0.02741
G1 X159.155 Y197.339 E1.06966
G1 X159.155 Y196.702 E0.02746
G1 X177.339 Y214.886 E1.10849
G1 X177.975 Y214.886 E0.02741
G1 X159.155 Y196.066 E1.14726
G1 X159.155 Y195.429 E0.02746
G1 X178.611 Y214.886 E1.18607
G1 X179.247 Y214.886 E0.02741
G1 X159.155 Y194.793 E1.22484
G1 X159.155 Y194.157 E0.02741
G1 X179.884 Y214.886 E1.26364
G1 X180.52 Y214.886 E0.02741
G1 X159.155 Y193.52 E1.30244
G1 X159.155 Y192.884 E0.02741
G1 X181.157 Y214.886 E1.34124
G1 X181.793 Y214.886 E0.02741
G1 X159.155 Y192.247 E1.38004
G1 X159.155 Y191.611 E0.02741
G1 X182.429 Y214.886 E1.41881
G1 X183.066 Y214.886 E0.02746
G1 X159.155 Y190.975 E1.45761
G1 X159.155 Y190.338 E0.02746
G1 X183.702 Y214.886 E1.49641
G1 X184.338 Y214.886 E0.02741
G1 X159.155 Y189.702 E1.53518
G1 X159.155 Y189.066 E0.02741
G1 X184.975 Y214.886 E1.57398
G1 X185.611 Y214.886 E0.02741
G1 X159.155 Y188.429 E1.61278
G1 X159.155 Y187.793 E0.02741
G1 X186.248 Y214.886 E1.65159
G1 X186.883 Y214.885 E0.02737
G1 X159.155 Y187.156 E1.69033
G1 X159.155 Y186.52 E0.02741
G1 X187.52 Y214.885 E1.72913
G1 X188.156 Y214.885 E0.02741
G1 X159.155 Y185.884 E1.7679
G1 X159.155 Y185.247 E0.02746
G1 X188.793 Y214.885 E1.80673
G1 X189.429 Y214.885 E0.02741
G1 X159.155 Y184.611 E1.8455
G1 X159.155 Y183.974 E0.02746
G1 X190.065 Y214.885 E1.8843
G1 X190.702 Y214.885 E0.02746
G1 X159.155 Y183.338 E1.9231
G1 X159.155 Y182.702 E0.02741
G1 X191.338 Y214.885 E1.96187
G1 X191.975 Y214.885 E0.02746
G1 X159.155 Y182.065 E2.0007
G1 X159.155 Y181.429 E0.02741
G1 X192.611 Y214.885 E2.03947
G1 X193.247 Y214.885 E0.02741
G1 X159.155 Y180.792 E2.07827
G1 X159.155 Y180.156 E0.02741
G1 X193.884 Y214.885 E2.11708
G1 X194.52 Y214.885 E0.02741
G1 X159.155 Y179.52 E2.15585
G1 X159.155 Y178.883 E0.02746
G1 X195.157 Y214.885 E2.19468
G1 X195.793 Y214.885 E0.02741
G1 X159.155 Y178.247 E2.23345
G1 X159.155 Y177.61 E0.02746
G1 X195.837 Y214.292 E2.23613
G1 X195.837 Y213.656 E0.02741
G1 X159.155 Y176.974 E2.23613
G1 X159.155 Y176.338 E0.02741
G1 X195.837 Y213.019 E2.2361
G1 X195.837 Y212.383 E0.02741
G1 X159.155 Y175.701 E2.23613
G1 X159.155 Y175.065 E0.02741
G1 X195.837 Y211.747 E2.23613
G1 X195.837 Y211.11 E0.02746
G1 X159.155 Y174.428 E2.23613
G1 X159.155 Y173.792 E0.02741
G1 X195.837 Y210.474 E2.23613
G1 X195.837 Y209.837 E0.02746
G1 X159.155 Y173.156 E2.2361
G1 X159.155 Y172.519 E0.02746
G1 X195.837 Y209.201 E2.23613
G1 X195.837 Y208.565 E0.02741
G1 X159.155 Y171.883 E2.23613
G1 X159.155 Y171.246 E0.02746
G1 X195.837 Y207.928 E2.23613
G1 X195.837 Y207.292 E0.02741
G1 X159.155 Y170.61 E2.23613
G1 X159.155 Y169.974 E0.02741
G1 X195.837 Y206.655 E2.2361
G1 X195.837 Y206.019 E0.02741
G1 X159.155 Y169.337 E2.23613
G1 X159.155 Y168.701 E0.02741
G1 X195.837 Y205.383 E2.23613
G1 X195.837 Y204.746 E0.02746
G1 X159.155 Y168.064 E2.23613
G1 X159.155 Y167.428 E0.02741
G1 X195.837 Y204.11 E2.23613
G1 X195.837 Y203.474 E0.02741
G1 X159.155 Y166.792 E2.23613
G1 X159.155 Y166.155 E0.02746
G1 X195.837 Y202.837 E2.23613
G1 X195.837 Y202.201 E0.02741
G1 X159.155 Y165.519 E2.23613
G1 X159.155 Y164.882 E0.02746
G1 X195.837 Y201.564 E2.23613
G1 X195.837 Y200.928 E0.02741
G1 X159.155 Y164.246 E2.23613
G1 X159.155 Y163.61 E0.02741
G1 X195.837 Y200.292 E2.23613
G1 X195.837 Y199.655 E0.02746
G1 X159.155 Y162.973 E2.23613
G1 X159.155 Y162.337 E0.02741
G1 X195.837 Y199.019 E2.23613
G1 X195.837 Y198.382 E0.02746
G1 X159.155 Y161.7 E2.23613
G1 X159.155 Y161.064 E0.02741
G1 X195.837 Y197.746 E2.23613
G1 X195.837 Y197.11 E0.02741
G1 X159.155 Y160.428 E2.23613
G1 X159.155 Y159.791 E0.02746
G1 X195.837 Y196.473 E2.23613
G1 X195.837 Y195.837 E0.02741
G1 X159.155 Y159.155 E2.23613
G1 X159.155 Y158.518 E0.02746
G1 X195.837 Y195.2 E2.23613
G1 X195.837 Y194.564 E0.02741
G1 X159.155 Y157.882 E2.23613
G1 X159.155 Y157.246 E0.02741
G1 X195.837 Y193.928 E2.23613
G1 X195.837 Y193.291 E0.02746
G1 X159.155 Y156.609 E2.23613
G1 X159.155 Y155.973 E0.02741
