;FLAVOR:RepRap
;TIME:13442
;Filament used: 26.4433m
;Layer height: 0.2
;MINX:120.775
;MINY:129.526
;MINZ:0.2
;MAXX:273.358
;MAXY:281.193
;MAXZ:58.4
;TARGET_MACHINE.NAME:Fusion3 F410
;Generated with Cura_SteamEngine 5.9.0
T0
M82 ;absolute extrusion mode
; Fusion3 F410 start code
M104 S0 ; shutdown heater and prepare to print
G21  ; set units to mm
G90  ; use absolute coordinates
T0  ; select tool 0
G92 E0.0  ; reset e count
M220 S100 ; reset speed multiplier
M140 S60  ; set bed temp and do not wait
G32  ; call to run bed.g
M190 S60 ; Set bed temperature and wait
M109 S200 ; set print head temperature and wait
; === pause for heating ===
; reset filament monitor
M42 P63 S0
G4 P100
G4 P50
M42 P63 S1
G1 X350 Y0
G1 Z10.0 F2000  ; move up
G1 E10.0 F500  ; prime extruder
G92 E0.0  ; reset e count
G1 X330 Y15 F9000  ; move back
G1 Z0.2 F1000  ; move down to begin wipe
G1 X150 E4.0 F6000  ; wipe print head (extrude material while we do this)
G92 E0.0  ; reset e count

M83 ;relative extrusion mode
G1 F6000 E-4
;LAYER_COUNT:292
;LAYER:0
M107
G1 F300 Z0.4
G0 F6000 X264.98 Y157.468 Z0.4
;TYPE:SKIRT
G1 F300 Z0.2
G1 F6000 E4
G1 F2400 X250.472 Y157.468 E0.532
G1 X248.808 Y157.069 E0.06275
G1 X247.801 Y156.702 E0.0393
G1 X245.982 Y155.459 E0.08079
G1 X244.835 Y154.016 E0.06759
G1 X244.131 Y152.901 E0.04835
G1 X243.443 Y150.809 E0.08075
G1 X243.443 Y136.555 E0.52268
G1 X243.842 Y134.891 E0.06275
G1 X244.209 Y133.884 E0.0393
G1 X245.452 Y132.065 E0.08079
G1 X246.895 Y130.918 E0.06759
G1 X248.01 Y130.214 E0.04835
G1 X250.102 Y129.526 E0.08075
G1 X264.61 Y129.526 E0.532
G1 X266.274 Y129.925 E0.06275
G1 X267.281 Y130.292 E0.0393
G1 X269.1 Y131.535 E0.08079
G1 X270.247 Y132.978 E0.06759
G1 X270.951 Y134.093 E0.04835
G1 X271.639 Y136.185 E0.08075
G1 X271.639 Y150.439 E0.52268
G1 X271.24 Y152.103 E0.06275
G1 X270.873 Y153.11 E0.0393
G1 X269.63 Y154.929 E0.08079
G1 X268.187 Y156.076 E0.06759
G1 X267.072 Y156.78 E0.04835
G1 X264.98 Y157.468 E0.08075
G0 F6000 X264.909 Y157.018
G1 F2400 X266.876 Y156.371 E0.07593
G1 X267.947 Y155.695 E0.04644
G1 X269.295 Y154.621 E0.0632
G1 X270.47 Y152.902 E0.07635
G1 X270.817 Y151.949 E0.03719
G1 X271.189 Y150.385 E0.05895
G1 X271.189 Y136.256 E0.5181
G1 X270.542 Y134.289 E0.07593
G1 X269.866 Y133.218 E0.04644
G1 X268.792 Y131.87 E0.0632
G1 X267.073 Y130.695 E0.07635
G1 X266.12 Y130.348 E0.03719
G1 X264.556 Y129.976 E0.05895
G1 X250.173 Y129.976 E0.52741
G1 X248.206 Y130.623 E0.07593
G1 X247.135 Y131.299 E0.04644
G1 X245.787 Y132.373 E0.0632
G1 X244.612 Y134.092 E0.07635
G1 X244.265 Y135.045 E0.03719
G1 X243.893 Y136.609 E0.05895
G1 X243.893 Y150.738 E0.5181
G1 X244.54 Y152.705 E0.07593
G1 X245.216 Y153.776 E0.04644
G1 X246.29 Y155.124 E0.0632
G1 X248.009 Y156.299 E0.07635
G1 X248.962 Y156.646 E0.03719
G1 X250.526 Y157.018 E0.05895
G1 X264.909 Y157.018 E0.52741
G0 F6000 X264.838 Y156.568
G1 F2400 X250.58 Y156.568 E0.52283
G1 X249.066 Y156.208 E0.05707
G1 X248.216 Y155.896 E0.0332
G1 X246.6 Y154.791 E0.07179
G1 X245.596 Y153.536 E0.05893
G1 X244.95 Y152.513 E0.04437
G1 X244.343 Y150.667 E0.07126
G1 X244.343 Y136.663 E0.51352
G1 X244.703 Y135.149 E0.05707
G1 X245.015 Y134.299 E0.0332
G1 X246.12 Y132.683 E0.07179
G1 X247.375 Y131.679 E0.05893
G1 X248.398 Y131.033 E0.04437
G1 X250.244 Y130.426 E0.07126
G1 X264.502 Y130.426 E0.52283
G1 X266.016 Y130.786 E0.05707
G1 X266.866 Y131.098 E0.0332
G1 X268.482 Y132.203 E0.07179
G1 X269.486 Y133.458 E0.05893
G1 X270.132 Y134.481 E0.04437
G1 X270.739 Y136.327 E0.07126
G1 X270.739 Y150.331 E0.51352
G1 X270.379 Y151.845 E0.05707
G1 X270.067 Y152.695 E0.0332
G1 X268.962 Y154.311 E0.07179
G1 X267.707 Y155.315 E0.05893
G1 X266.684 Y155.961 E0.04437
G1 X264.838 Y156.568 E0.07126
G0 F6000 X264.767 Y156.118
G1 F2400 X250.634 Y156.118 E0.51825
G1 X249.17 Y155.77 E0.05518
G1 X248.423 Y155.493 E0.02921
G1 X246.911 Y154.459 E0.06717
G1 X245.977 Y153.296 E0.0547
G1 X245.359 Y152.317 E0.04245
G1 X244.793 Y150.596 E0.06643
G1 X244.793 Y136.717 E0.50893
G1 X245.141 Y135.253 E0.05518
G1 X245.418 Y134.506 E0.02921
G1 X246.452 Y132.994 E0.06717
G1 X247.615 Y132.06 E0.0547
G1 X248.594 Y131.442 E0.04245
G1 X250.315 Y130.876 E0.06643
G1 X264.448 Y130.876 E0.51825
G1 X265.912 Y131.224 E0.05518
G1 X266.659 Y131.501 E0.02921
G1 X268.171 Y132.535 E0.06717
G1 X269.105 Y133.698 E0.0547
G1 X269.723 Y134.677 E0.04245
G1 X270.289 Y136.398 E0.06643
G1 X270.289 Y150.277 E0.50893
G1 X269.941 Y151.741 E0.05518
G1 X269.664 Y152.488 E0.02921
G1 X268.63 Y154 E0.06717
G1 X267.467 Y154.934 E0.0547
G1 X266.488 Y155.552 E0.04245
G1 X264.767 Y156.118 E0.06643
G0 F6000 X264.696 Y155.668
G1 F2400 X250.687 Y155.668 E0.5137
G1 X249.326 Y155.348 E0.05127
G1 X248.63 Y155.09 E0.02722
G1 X247.222 Y154.127 E0.06255
G1 X246.328 Y153.014 E0.05235
G1 X245.769 Y152.124 E0.03854
G1 X245.243 Y150.525 E0.06173
G1 X245.243 Y136.77 E0.50439
G1 X245.563 Y135.409 E0.05127
G1 X245.821 Y134.713 E0.02722
G1 X246.784 Y133.305 E0.06255
G1 X247.897 Y132.411 E0.05235
G1 X248.787 Y131.852 E0.03854
G1 X250.386 Y131.326 E0.06173
G1 X264.395 Y131.326 E0.5137
G1 X265.756 Y131.646 E0.05127
G1 X266.452 Y131.904 E0.02722
G1 X267.86 Y132.867 E0.06255
G1 X268.754 Y133.98 E0.05235
G1 X269.313 Y134.87 E0.03854
G1 X269.839 Y136.469 E0.06173
G1 X269.839 Y150.224 E0.50439
G1 X269.519 Y151.585 E0.05127
G1 X269.261 Y152.281 E0.02722
G1 X268.298 Y153.689 E0.06255
G1 X267.185 Y154.583 E0.05235
G1 X266.295 Y155.142 E0.03854
G1 X264.696 Y155.668 E0.06173
G0 F6000 X264.625 Y155.218
G1 F2400 X250.738 Y155.218 E0.50923
G1 X249.483 Y154.926 E0.04725
G1 X248.836 Y154.686 E0.0253
G1 X247.53 Y153.793 E0.05802
G1 X246.709 Y152.775 E0.04796
G1 X246.179 Y151.931 E0.03655
G1 X245.693 Y150.454 E0.05702
G1 X245.693 Y136.821 E0.49991
G1 X245.985 Y135.566 E0.04725
G1 X246.225 Y134.919 E0.0253
G1 X247.118 Y133.613 E0.05802
G1 X248.136 Y132.792 E0.04796
G1 X248.98 Y132.262 E0.03655
G1 X250.457 Y131.776 E0.05702
G1 X264.344 Y131.776 E0.50923
G1 X265.599 Y132.068 E0.04725
G1 X266.246 Y132.308 E0.0253
G1 X267.552 Y133.201 E0.05802
G1 X268.373 Y134.219 E0.04796
G1 X268.903 Y135.063 E0.03655
G1 X269.389 Y136.54 E0.05702
G1 X269.389 Y150.173 E0.49991
G1 X269.097 Y151.428 E0.04725
G1 X268.857 Y152.075 E0.0253
G1 X267.964 Y153.381 E0.05802
G1 X266.946 Y154.202 E0.04796
G1 X266.102 Y154.732 E0.03655
G1 X264.625 Y155.218 E0.05702
G0 F6000 X264.554 Y154.768
G1 F2400 X250.792 Y154.768 E0.50464
G1 X249.64 Y154.504 E0.04334
G1 X249.045 Y154.283 E0.02327
G1 X247.838 Y153.458 E0.05361
G1 X247.09 Y152.536 E0.04354
G1 X246.589 Y151.738 E0.03455
G1 X246.143 Y150.383 E0.05231
G1 X246.143 Y136.875 E0.49533
G1 X246.407 Y135.723 E0.04334
G1 X246.628 Y135.128 E0.02327
G1 X247.453 Y133.921 E0.05361
G1 X248.375 Y133.173 E0.04354
G1 X249.173 Y132.672 E0.03455
G1 X250.528 Y132.226 E0.05231
G1 X264.29 Y132.226 E0.50464
G1 X265.442 Y132.49 E0.04334
G1 X266.037 Y132.711 E0.02327
G1 X267.244 Y133.536 E0.05361
G1 X267.992 Y134.458 E0.04354
G1 X268.493 Y135.256 E0.03455
G1 X268.939 Y136.611 E0.05231
G1 X268.939 Y150.119 E0.49533
G1 X268.675 Y151.271 E0.04334
G1 X268.454 Y151.866 E0.02327
G1 X267.629 Y153.073 E0.05361
G1 X266.707 Y153.821 E0.04354
G1 X265.909 Y154.322 E0.03455
G1 X264.554 Y154.768 E0.05231
G0 F6000 X264.483 Y154.318
G1 F2400 X250.845 Y154.318 E0.5001
G1 X249.741 Y154.065 E0.04153
G1 X249.254 Y153.88 E0.0191
G1 X248.145 Y153.122 E0.04926
G1 X247.471 Y152.297 E0.03906
G1 X246.999 Y151.545 E0.03256
G1 X246.593 Y150.312 E0.0476
G1 X246.593 Y136.928 E0.49078
G1 X246.846 Y135.824 E0.04153
G1 X247.031 Y135.337 E0.0191
G1 X247.789 Y134.228 E0.04926
G1 X248.614 Y133.554 E0.03906
G1 X249.366 Y133.082 E0.03256
G1 X250.599 Y132.676 E0.0476
G1 X264.237 Y132.676 E0.5001
G1 X265.341 Y132.929 E0.04153
G1 X265.828 Y133.114 E0.0191
G1 X266.937 Y133.872 E0.04926
G1 X267.611 Y134.697 E0.03906
G1 X268.083 Y135.449 E0.03256
G1 X268.489 Y136.682 E0.0476
G1 X268.489 Y150.066 E0.49078
G1 X268.236 Y151.17 E0.04153
G1 X268.051 Y151.657 E0.0191
G1 X267.293 Y152.766 E0.04926
G1 X266.468 Y153.44 E0.03906
G1 X265.716 Y153.912 E0.03256
G1 X264.483 Y154.318 E0.0476
G0 F6000 X264.412 Y153.868
G1 F2400 X250.898 Y153.868 E0.49555
G1 X249.842 Y153.626 E0.03973
G1 X249.467 Y153.48 E0.01476
G1 X248.453 Y152.787 E0.04504
G1 X247.82 Y152.012 E0.03669
G1 X247.408 Y151.351 E0.02856
G1 X247.043 Y150.241 E0.04285
G1 X247.043 Y136.981 E0.48623
G1 X247.285 Y135.925 E0.03973
G1 X247.431 Y135.55 E0.01476
G1 X248.124 Y134.536 E0.04504
G1 X248.899 Y133.903 E0.03669
G1 X249.56 Y133.491 E0.02856
G1 X250.67 Y133.126 E0.04285
G1 X264.184 Y133.126 E0.49555
G1 X265.24 Y133.368 E0.03973
G1 X265.615 Y133.514 E0.01476
G1 X266.629 Y134.207 E0.04504
G1 X267.262 Y134.982 E0.03669
G1 X267.674 Y135.643 E0.02856
G1 X268.039 Y136.753 E0.04285
G1 X268.039 Y150.013 E0.48623
G1 X267.797 Y151.069 E0.03973
G1 X267.651 Y151.444 E0.01476
G1 X266.958 Y152.458 E0.04504
G1 X266.183 Y153.091 E0.03669
G1 X265.522 Y153.503 E0.02856
G1 X264.412 Y153.868 E0.04285
G0 F6000 X264.339 Y153.418
G1 F2400 X265.331 Y153.092 E0.03829
G1 X265.945 Y152.709 E0.02654
G1 X266.623 Y152.151 E0.0322
G1 X267.251 Y151.233 E0.04079
G1 X267.358 Y150.968 E0.01048
G1 X267.589 Y149.96 E0.03792
G1 X267.589 Y136.826 E0.48161
G1 X267.263 Y135.834 E0.03829
G1 X266.88 Y135.22 E0.02654
G1 X266.322 Y134.542 E0.0322
G1 X265.404 Y133.914 E0.04079
G1 X265.139 Y133.807 E0.01048
G1 X264.131 Y133.576 E0.03792
G1 X250.743 Y133.576 E0.49093
G1 X249.751 Y133.902 E0.03829
G1 X249.137 Y134.285 E0.02654
G1 X248.459 Y134.843 E0.0322
G1 X247.831 Y135.761 E0.04079
G1 X247.724 Y136.026 E0.01048
G1 X247.493 Y137.034 E0.03792
G1 X247.493 Y150.168 E0.48161
G1 X247.819 Y151.16 E0.03829
G1 X248.202 Y151.774 E0.02654
G1 X248.76 Y152.452 E0.0322
G1 X249.678 Y153.08 E0.04079
G1 X249.943 Y153.187 E0.01048
G1 X250.951 Y153.418 E0.03792
G1 X264.339 Y153.418 E0.49093
G0 F6000 X264.266 Y152.968
G1 F2400 X265.14 Y152.681 E0.03373
G1 X265.707 Y152.327 E0.02451
G1 X266.288 Y151.845 E0.02768
G1 X266.852 Y151.02 E0.03665
G1 X266.919 Y150.867 E0.00612
G1 X267.139 Y149.907 E0.03612
G1 X267.139 Y136.899 E0.47699
G1 X266.852 Y136.025 E0.03373
G1 X266.498 Y135.458 E0.02451
G1 X266.016 Y134.877 E0.02768
G1 X265.191 Y134.313 E0.03665
G1 X265.038 Y134.246 E0.00612
G1 X264.078 Y134.026 E0.03612
G1 X250.816 Y134.026 E0.48631
G1 X249.942 Y134.313 E0.03373
G1 X249.375 Y134.667 E0.02451
G1 X248.794 Y135.149 E0.02768
G1 X248.23 Y135.974 E0.03665
G1 X248.163 Y136.127 E0.00612
G1 X247.943 Y137.087 E0.03612
G1 X247.943 Y150.095 E0.47699
G1 X248.23 Y150.969 E0.03373
G1 X248.584 Y151.536 E0.02451
G1 X249.066 Y152.117 E0.02768
G1 X249.891 Y152.681 E0.03665
G1 X250.044 Y152.748 E0.00612
G1 X251.004 Y152.968 E0.03612
G1 X264.266 Y152.968 E0.48631
G0 F6000 X264.195 Y152.518
G1 F2400 X251.057 Y152.518 E0.48176
G1 X250.145 Y152.309 E0.03431
G1 X249.371 Y151.78 E0.03438
G1 X248.966 Y151.298 E0.02309
G1 X248.64 Y150.775 E0.0226
G1 X248.393 Y150.024 E0.02899
G1 X248.393 Y137.14 E0.47245
G1 X248.602 Y136.228 E0.03431
G1 X249.131 Y135.454 E0.03438
G1 X249.613 Y135.049 E0.02309
G1 X250.136 Y134.723 E0.0226
G1 X250.887 Y134.476 E0.02899
G1 X264.025 Y134.476 E0.48176
G1 X264.937 Y134.685 E0.03431
G1 X265.711 Y135.214 E0.03438
G1 X266.116 Y135.696 E0.02309
G1 X266.442 Y136.219 E0.0226
G1 X266.689 Y136.97 E0.02899
G1 X266.689 Y149.854 E0.47245
G1 X266.48 Y150.766 E0.03431
G1 X265.951 Y151.54 E0.03438
G1 X265.469 Y151.945 E0.02309
G1 X264.946 Y152.271 E0.0226
G1 X264.195 Y152.518 E0.02899
G0 F6000 X264.122 Y152.068
G1 F2400 X251.11 Y152.068 E0.47714
G1 X250.329 Y151.889 E0.02938
G1 X249.676 Y151.443 E0.029
G1 X249.348 Y151.06 E0.01849
G1 X249.051 Y150.584 E0.02057
G1 X248.843 Y149.951 E0.02443
G1 X248.843 Y137.193 E0.46783
G1 X249.022 Y136.412 E0.02938
G1 X249.468 Y135.759 E0.029
G1 X249.851 Y135.431 E0.01849
G1 X250.327 Y135.134 E0.02057
G1 X250.96 Y134.926 E0.02443
G1 X263.972 Y134.926 E0.47714
G1 X264.753 Y135.105 E0.02938
G1 X265.406 Y135.551 E0.029
G1 X265.734 Y135.934 E0.01849
G1 X266.031 Y136.41 E0.02057
G1 X266.239 Y137.043 E0.02443
G1 X266.239 Y149.801 E0.46783
G1 X266.06 Y150.582 E0.02938
G1 X265.614 Y151.235 E0.029
G1 X265.231 Y151.563 E0.01849
G1 X264.755 Y151.86 E0.02057
G1 X264.122 Y152.068 E0.02443
G0 F6000 X264.564 Y151.449
G1 F2400 X264.049 Y151.618 E0.01988
G1 X251.162 Y151.618 E0.47256
G1 X250.511 Y151.469 E0.02449
G1 X249.98 Y151.106 E0.02359
G1 X249.73 Y150.822 E0.01387
G1 X249.462 Y150.393 E0.01855
G1 X249.293 Y149.878 E0.01988
G1 X249.293 Y137.245 E0.46324
G1 X249.442 Y136.594 E0.02449
G1 X249.805 Y136.063 E0.02359
G1 X250.089 Y135.813 E0.01387
G1 X250.518 Y135.545 E0.01855
G1 X251.033 Y135.376 E0.01988
G1 X263.92 Y135.376 E0.47256
G1 X264.571 Y135.525 E0.02449
G1 X265.102 Y135.888 E0.02359
G1 X265.352 Y136.172 E0.01387
G1 X265.62 Y136.601 E0.01855
G1 X265.789 Y137.116 E0.01988
G1 X265.789 Y149.749 E0.46324
G1 X265.64 Y150.4 E0.02449
G1 X265.277 Y150.931 E0.02359
G1 X264.993 Y151.181 E0.01387
G1 X264.564 Y151.449 E0.01855
G0 F6000 X264.373 Y151.038
G1 F2400 X263.976 Y151.168 E0.01532
G1 X251.214 Y151.168 E0.46797
G1 X250.693 Y151.049 E0.0196
G1 X250.284 Y150.769 E0.01818
G1 X250.068 Y150.524 E0.01198
G1 X249.873 Y150.202 E0.0138
G1 X249.743 Y149.805 E0.01532
G1 X249.743 Y137.297 E0.45866
G1 X249.862 Y136.776 E0.0196
G1 X250.142 Y136.367 E0.01818
G1 X250.387 Y136.151 E0.01198
G1 X250.709 Y135.956 E0.0138
G1 X251.106 Y135.826 E0.01532
G1 X263.868 Y135.826 E0.46797
G1 X264.389 Y135.945 E0.0196
G1 X264.798 Y136.225 E0.01818
G1 X265.014 Y136.47 E0.01198
G1 X265.209 Y136.792 E0.0138
G1 X265.339 Y137.189 E0.01532
G1 X265.339 Y149.697 E0.45866
G1 X265.22 Y150.218 E0.0196
G1 X264.94 Y150.627 E0.01818
G1 X264.695 Y150.843 E0.01198
G1 X264.373 Y151.038 E0.0138
G0 F6000 X264.14 Y150.653
G1 F2400 X263.907 Y150.718 E0.00887
G1 X251.266 Y150.718 E0.46354
G1 X250.875 Y150.629 E0.0147
G1 X250.584 Y150.43 E0.01293
G1 X250.453 Y150.291 E0.007
G1 X250.258 Y149.969 E0.0138
G1 X250.193 Y149.736 E0.00887
G1 X250.193 Y137.349 E0.45422
G1 X250.282 Y136.958 E0.0147
G1 X250.481 Y136.667 E0.01293
G1 X250.62 Y136.536 E0.007
G1 X250.942 Y136.341 E0.0138
G1 X251.175 Y136.276 E0.00887
G1 X263.816 Y136.276 E0.46354
G1 X264.207 Y136.365 E0.0147
G1 X264.498 Y136.564 E0.01293
G1 X264.629 Y136.703 E0.007
G1 X264.824 Y137.025 E0.0138
G1 X264.889 Y137.258 E0.00887
G1 X264.889 Y149.645 E0.45422
G1 X264.8 Y150.036 E0.0147
G1 X264.601 Y150.327 E0.01293
G1 X264.462 Y150.458 E0.007
G1 X264.14 Y150.653 E0.0138
G0 F6000 X263.95 Y149.72
G1 F2400 X263.826 Y149.818 E0.0058
G1 X251.318 Y149.818 E0.45866
G1 X251.191 Y149.779 E0.00487
G1 X251.093 Y149.655 E0.0058
G1 X251.093 Y137.401 E0.44935
G1 X251.132 Y137.274 E0.00487
G1 X251.256 Y137.176 E0.0058
G1 X263.764 Y137.176 E0.45866
G1 X263.891 Y137.215 E0.00487
G1 X263.989 Y137.339 E0.0058
G1 X263.989 Y149.593 E0.44935
G1 X263.95 Y149.72 E0.00487
G0 F6000 X264.229 Y150.073
G1 F2400 X263.907 Y150.268 E0.0138
G1 X251.318 Y150.268 E0.46163
G1 X251.059 Y150.209 E0.00974
G1 X250.838 Y150.058 E0.00981
G1 X250.643 Y149.736 E0.0138
G1 X250.643 Y137.401 E0.45232
G1 X250.702 Y137.142 E0.00974
G1 X250.853 Y136.921 E0.00981
G1 X251.175 Y136.726 E0.0138
G1 X263.764 Y136.726 E0.46163
G1 X264.023 Y136.785 E0.00974
G1 X264.244 Y136.936 E0.00981
G1 X264.439 Y137.258 E0.0138
G1 X264.439 Y149.593 E0.45232
G1 X264.38 Y149.852 E0.00974
G1 X264.229 Y150.073 E0.00981
G1 F6000 E-4
G1 F300 Z0.4
G0 F6000 X269 Y161.958 Z0.4
G1 F300 Z0.2
G1 F6000 E4
G1 F2400 X270.819 Y163.201 E0.08079
G1 X271.966 Y164.644 E0.06759
G1 X272.67 Y165.759 E0.04835
G1 X273.358 Y167.851 E0.08075
G1 X273.358 Y195.299 E1.0065
G1 X272.957 Y197.058 E0.06616
G1 X271.955 Y199.136 E0.08459
G1 X270.156 Y200.883 E0.09195
G1 X268.121 Y201.98 E0.08477
G1 X266.228 Y202.342 E0.07067
G1 X239.237 Y202.342 E0.98974
G1 X237.573 Y201.943 E0.06275
G1 X236.566 Y201.576 E0.0393
G1 X234.747 Y200.333 E0.08079
G1 X233.6 Y198.89 E0.06759
G1 X232.896 Y197.775 E0.04835
G1 X232.208 Y195.683 E0.08075
G1 X232.208 Y168.221 E1.00701
G1 X232.607 Y166.557 E0.06275
G1 X232.974 Y165.55 E0.0393
G1 X234.217 Y163.731 E0.08079
G1 X235.66 Y162.584 E0.06759
G1 X236.775 Y161.88 E0.04835
G1 X238.867 Y161.192 E0.08075
