; generated by F3Slic3r 2.6.0-alpha4 on 2025-02-15 at 17:27:01 UTC

; 

; external perimeters extrusion width = 0.68mm
; perimeters extrusion width = 0.68mm
; infill extrusion width = 0.68mm
; solid infill extrusion width = 0.68mm
; top infill extrusion width = 0.60mm
; first layer extrusion width = 0.70mm

; external perimeters extrusion width = 0.68mm
; perimeters extrusion width = 0.68mm
; infill extrusion width = 0.68mm
; solid infill extrusion width = 0.68mm
; top infill extrusion width = 0.60mm
; first layer extrusion width = 0.70mm

M107
;TYPE:Custom
; Fusion3 F410 F3Slic3r start script
; Rev 2023.01.16
M104 S0 
G21  
G90  
T0  
G92 E0.0  
M220 S100 
M140 S60  
G32 
M190 S60  
M109 S220  
; === pause for heating ===
; reset filament monitor
M42 P63 S0
G4 P100
G4 P50
M42 P63 S1
;
G1 Z10.0 F2000  ; move up
G1 E30.0 F500  ; prime extruder
G1 X20 Y15 F9000  ; move back
G1 Z0 F1000  ; move down to begin wipe
G1 X150 E4.0 F10000  ; wipe print head (extrude material while we do this)
G92 E0.0  ; reset e count
G21 ; set units to millimeters
G90 ; use absolute coordinates
M83 ; use relative distances for extrusion
; Filament gcode
M107
;LAYER_CHANGE
;Z:0.35
;HEIGHT:0.35
G1 Z.35 F7800
G1 E-3.25 F10020
G1 X66.675 Y106.404 F7800
G1 E3.25 F2400
;TYPE:Skirt/Brim
;WIDTH:0.7
G1 F1800
G1 X68.475 Y105.459 E.18486
G1 X70.373 Y104.815 E.18225
G1 X71.693 Y104.55 E.12242
G1 X73.481 Y104.407 E.1631
G1 X99.341 Y104.415 E2.35144
G1 X100.6 Y104.511 E.11481
G1 X101.913 Y104.744 E.12126
G1 X103.127 Y105.089 E.11476
G1 X104.368 Y105.578 E.12129
G1 X105.489 Y106.158 E.11477
G1 X106.579 Y106.864 E.11809
G1 X108.319 Y108.365 E.20895
G1 X164.827 Y166.853 E7.39498
G1 X166.496 Y168.818 E.23443
G1 X167.737 Y170.666 E.20241
G1 X168.775 Y172.635 E.2024
G1 X169.598 Y174.703 E.20239
G1 X170.196 Y176.847 E.20239
G1 X170.471 Y178.344 E.1384
G1 X170.689 Y180.754 E.22004
G1 X175.293 Y279.756 E9.01194
G1 X175.25 Y281.788 E.18481
G1 X174.85 Y284.69 E.26637
G1 X174.482 Y286.167 E.13841
G1 X173.754 Y288.27 E.20236
G1 X172.462 Y290.899 E.26636
G1 X171.242 Y292.761 E.20242
G1 X170.297 Y293.953 E.13832
G1 X168.765 Y295.567 E.20235
G1 X166.501 Y297.428 E.26649
G1 X164.621 Y298.619 E.20236
G1 X163.268 Y299.314 E.13831
G1 X160.535 Y300.369 E.26638
G1 X158.375 Y300.909 E.20245
G1 X156.171 Y301.216 E.20234
G1 X153.946 Y301.288 E.20242
G1 X152.076 Y301.17 E.17038
G1 X75.773 Y292.627 E6.98155
G1 X73.821 Y292.096 E.18394
G1 X71.985 Y291.274 E.18291
G1 X70.275 Y290.16 E.18557
G1 X69.248 Y289.281 E.12292
G1 X67.902 Y287.785 E.18299
G1 X67.125 Y286.656 E.12462
G1 X66.48 Y285.468 E.12292
G1 X65.755 Y283.58 E.1839
G1 X65.43 Y282.23 E.12626
G1 X65.22 Y280.209 E.18476
G1 X60.615 Y181.188 E9.01367
G1 X60.608 Y117.381 E5.80194
G1 X60.819 Y115.08 E.21011
G1 X61.335 Y113.114 E.18482
G1 X62.138 Y111.278 E.18222
G1 X62.833 Y110.125 E.12242
G1 X64.098 Y108.534 E.18482
G1 X65.067 Y107.599 E.12244
G1 X66.603 Y106.457 E.17404
G1 E-3.25 F10020
G1 X154.335 Y293.072 F7800
G1 E3.25 F2400
;TYPE:Perimeter
;WIDTH:0.7
G1 F1800
G1 X152.944 Y292.991 E.1267
G1 X79.383 Y284.796 E6.73025
;WIDTH:0.727789
G1 X78.908 Y284.729 E.04556
;WIDTH:0.755579
G1 X78.434 Y284.662 E.0474
G1 X77.695 Y284.598 E.07345
;WIDTH:0.724235
G1 X77.159 Y284.505 E.05138
G1 X76.469 Y284.294 E.06815
;WIDTH:0.71701
G1 X75.87 Y284.015 E.06172
;WIDTH:0.723894
G1 X75.401 Y283.713 E.05266
G1 X75.003 Y283.394 E.04815
;WIDTH:0.723506
G1 X74.646 Y283.028 E.04824
G1 X74.154 Y282.363 E.07805
;WIDTH:0.718819
G1 X73.866 Y281.827 E.05699
;WIDTH:0.72279
G1 X73.686 Y281.357 E.04743
G1 X73.551 Y280.864 E.04817
;WIDTH:0.721472
G1 X73.474 Y280.36 E.04795
;WIDTH:0.732566
G1 X73.452 Y279.438 E.08823
;WIDTH:0.777058
G1 X73.475 Y278.892 E.05582
G1 X73.461 Y278.677 E.02201
;WIDTH:0.749296
G1 X73.447 Y278.463 E.02104
;WIDTH:0.721535
G1 X73.436 Y277.917 E.05137
;WIDTH:0.7
G1 X73.436 Y230.57 E4.30524
;WIDTH:0.736195
G1 X73.452 Y228.638 E.18586
;WIDTH:0.777056
G1 X73.475 Y228.092 E.05582
G1 X73.461 Y227.877 E.02201
;WIDTH:0.749298
G1 X73.447 Y227.663 E.02104
;WIDTH:0.72154
G1 X73.436 Y227.117 E.05137
;WIDTH:0.7
G1 X73.436 Y217.87 E.84083
;WIDTH:0.749263
G1 X73.461 Y217.125 E.07312
G1 X73.448 Y216.425 E.06868
;WIDTH:0.723681
G1 X73.472 Y215.923 E.04743
;WIDTH:0.721992
G1 X73.549 Y215.423 E.04762
G1 X73.676 Y214.931 E.04783
;WIDTH:0.722802
G1 X73.86 Y214.457 E.04792
G1 X74.116 Y213.963 E.05244
;WIDTH:0.718582
G1 X74.635 Y213.247 E.0828
;WIDTH:0.723622
G1 X74.994 Y212.887 E.04798
G1 X75.505 Y212.483 E.06147
;WIDTH:0.71746
G1 X76.203 Y212.08 E.07534
;WIDTH:0.723852
G1 X76.677 Y211.896 E.048
G1 X77.383 Y211.719 E.06871
;WIDTH:0.717195
G1 X78.108 Y211.645 E.06809
;WIDTH:0.723776
G1 X78.616 Y211.668 E.048
G1 X79.122 Y211.738 E.04822
;WIDTH:0.725449
G1 X79.628 Y211.87 E.04949
;WIDTH:0.734164
G1 X80.875 Y212.241 E.12477
;WIDTH:0.7
G1 X87.837 Y214.373 E.66207
G1 X88.767 Y214.602 E.08709
G1 X89.297 Y214.681 E.04873
G1 X89.864 Y214.759 E.05204
G1 X90.969 Y214.806 E.10057
G1 X91.92 Y214.759 E.08658
G1 X92.475 Y214.683 E.05094
G1 X93.168 Y214.571 E.06383
G1 X94.164 Y214.316 E.09349
G1 X100.903 Y212.241 E.64116
;WIDTH:0.744007
G1 X101.559 Y212.062 E.06618
G1 X102.151 Y211.87 E.06058
;WIDTH:0.725432
G1 X102.641 Y211.741 E.04795
;WIDTH:0.724115
G1 X103.142 Y211.669 E.0478
G1 X103.801 Y211.654 E.06225
;WIDTH:0.717659
G1 X104.528 Y211.738 E.06843
;WIDTH:0.723759
G1 X105.016 Y211.867 E.04764
G1 X105.769 Y212.179 E.07693
;WIDTH:0.720276
G1 X106.262 Y212.471 E.05379
;WIDTH:0.720903
G1 X106.664 Y212.778 E.04753
;WIDTH:0.734889
G1 X107.335 Y213.447 E.09097
;WIDTH:0.7821
G1 X107.698 Y213.856 E.05626
G1 X107.858 Y214 E.02214
;WIDTH:0.752614
G1 X108.018 Y214.144 E.02122
;WIDTH:0.723128
G1 X108.405 Y214.529 E.05147
;WIDTH:0.7
G1 X163.487 Y271.54 E7.2083
G1 X164.4 Y272.592 E.12666
G1 X165.172 Y273.7 E.12279
G1 X165.822 Y274.884 E.12282
G1 X166.342 Y276.131 E.12285
G1 X166.727 Y277.425 E.12276
G1 X166.971 Y278.753 E.12278
G1 X167.067 Y280.311 E.14194
G1 X167.032 Y281.45 E.10362
G1 X166.847 Y282.788 E.12282
G1 X166.522 Y284.099 E.12282
G1 X166.058 Y285.367 E.12278
G1 X165.462 Y286.579 E.12281
G1 X164.741 Y287.721 E.12281
G1 X163.903 Y288.78 E.1228
G1 X162.956 Y289.744 E.12288
G1 X161.913 Y290.601 E.12275
G1 X160.784 Y291.343 E.12285
G1 X159.583 Y291.961 E.12282
G1 X158.323 Y292.447 E.1228
G1 X157.019 Y292.797 E.12277
G1 X155.684 Y293.006 E.12287
G1 X154.425 Y293.067 E.11461
G1 X154.343 Y293.697 F7800
G1 F1800
G1 X152.892 Y293.614 E.13215
G1 X77.617 Y285.228 E6.88706
G1 X77.039 Y285.133 E.05326
G1 X76.499 Y284.985 E.05091
G1 X75.977 Y284.782 E.05093
G1 X75.479 Y284.525 E.05096
G1 X75.01 Y284.218 E.05097
G1 X74.576 Y283.864 E.05093
G1 X74.182 Y283.467 E.05086
G1 X73.831 Y283.03 E.05097
G1 X73.527 Y282.56 E.0509
G1 X73.273 Y282.06 E.05099
G1 X73.073 Y281.537 E.05091
G1 X72.929 Y280.996 E.05091
G1 X72.842 Y280.443 E.0509
G1 X72.811 Y279.858 E.05327
G1 X72.811 Y216.409 E5.76939
G1 X72.842 Y215.826 E.05309
G1 X72.928 Y215.275 E.05071
G1 X73.071 Y214.736 E.05071
G1 X73.27 Y214.215 E.05071
G1 X73.521 Y213.717 E.05071
G1 X73.822 Y213.247 E.05075
G1 X74.171 Y212.812 E.05071
G1 X74.551 Y212.427 E.04919
G1 X74.995 Y212.06 E.05238
G1 X75.459 Y211.753 E.05059
G1 X75.954 Y211.495 E.05076
G1 X76.457 Y211.296 E.04919
G1 X77.011 Y211.14 E.05233
G1 X77.56 Y211.046 E.05065
G1 X78.116 Y211.01 E.05066
G1 X78.657 Y211.031 E.04923
G1 X79.227 Y211.111 E.05234
G1 X79.791 Y211.253 E.05288
G1 X87.991 Y213.768 E.7799
G1 X88.86 Y213.984 E.08142
G1 X89.896 Y214.135 E.0952
G1 X90.938 Y214.182 E.09484
G1 X91.889 Y214.135 E.08658
G1 X92.382 Y214.065 E.04528
G1 X93.014 Y213.965 E.05818
G1 X93.981 Y213.719 E.09073
G1 X101.986 Y211.253 E.76165
G1 X102.531 Y211.115 E.05112
G1 X103.063 Y211.035 E.04892
G1 X103.6 Y211.009 E.04889
G1 X104.121 Y211.036 E.04744
G1 X104.67 Y211.119 E.05049
G1 X105.19 Y211.253 E.04883
G1 X105.695 Y211.438 E.0489
G1 X106.178 Y211.673 E.04884
G1 X106.636 Y211.955 E.04891
G1 X107.064 Y212.282 E.04898
G1 X107.474 Y212.666 E.05108
G1 X163.947 Y271.118 E7.39041
G1 X164.894 Y272.207 E.13123
G1 X165.704 Y273.37 E.12887
G1 X166.385 Y274.613 E.12888
G1 X166.931 Y275.921 E.12888
G1 X167.335 Y277.279 E.12883
G1 X167.592 Y278.673 E.12889
G1 X167.692 Y280.33 E.15094
G1 X167.656 Y281.503 E.10671
G1 X167.462 Y282.907 E.12888
G1 X167.12 Y284.282 E.12884
G1 X166.634 Y285.613 E.12884
G1 X166.009 Y286.885 E.12887
G1 X165.252 Y288.083 E.12886
G1 X164.372 Y289.194 E.12887
G1 X163.379 Y290.205 E.12886
G1 X162.284 Y291.105 E.12888
G1 X161.1 Y291.884 E.12887
G1 X159.839 Y292.532 E.12892
G1 X158.517 Y293.042 E.12884
G1 X157.148 Y293.409 E.12888
G1 X155.748 Y293.628 E.12885
G1 X154.433 Y293.692 E.11971
G1 X154.374 Y294.321 F7800
;TYPE:External perimeter
G1 F1800
G1 X152.839 Y294.237 E.13979
G1 X77.531 Y285.847 E6.89009
G1 X76.905 Y285.744 E.05769
G1 X76.302 Y285.579 E.05685
G1 X75.719 Y285.352 E.05689
G1 X75.164 Y285.066 E.05677
G1 X74.641 Y284.723 E.05687
G1 X74.156 Y284.328 E.05688
G1 X73.715 Y283.884 E.0569
G1 X73.323 Y283.397 E.05685
G1 X72.984 Y282.871 E.0569
G1 X72.701 Y282.314 E.05681
G1 X72.478 Y281.73 E.05684
G1 X72.317 Y281.125 E.05693
G1 X72.219 Y280.508 E.05681
G1 X72.186 Y279.874 E.05773
G1 X72.186 Y216.392 E5.77239
G1 X72.219 Y215.761 E.05745
G1 X72.316 Y215.146 E.05661
G1 X72.476 Y214.544 E.05664
G1 X72.697 Y213.962 E.05661
G1 X72.978 Y213.406 E.05665
G1 X73.314 Y212.882 E.0566
G1 X73.704 Y212.396 E.05666
G1 X74.129 Y211.965 E.05504
G1 X74.623 Y211.557 E.05826
G1 X75.142 Y211.214 E.05657
G1 X75.694 Y210.926 E.05661
G1 X76.257 Y210.704 E.05503
G1 X76.873 Y210.529 E.05823
G1 X77.487 Y210.425 E.05663
G1 X78.108 Y210.384 E.05659
G1 X78.713 Y210.408 E.05506
G1 X79.347 Y210.497 E.05821
G1 X79.96 Y210.651 E.05747
G1 X87.894 Y213.093 E.75483
G1 X88.955 Y213.366 E.09962
G1 X89.927 Y213.511 E.08936
G1 X90.908 Y213.558 E.0893
G1 X91.858 Y213.511 E.08649
G1 X92.86 Y213.36 E.09214
G1 X93.797 Y213.121 E.08793
G1 X101.817 Y210.652 E.76303
G1 X102.408 Y210.502 E.05544
G1 X103.002 Y210.413 E.05462
G1 X103.601 Y210.384 E.05453
G1 X104.184 Y210.414 E.05308
G1 X104.795 Y210.506 E.05618
G1 X105.376 Y210.655 E.05454
G1 X105.94 Y210.862 E.05463
G1 X106.48 Y211.125 E.05462
G1 X106.991 Y211.44 E.05458
G1 X107.468 Y211.804 E.05456
G1 X107.913 Y212.221 E.05545
G1 X164.408 Y270.695 E7.39324
G1 X165.387 Y271.823 E.13581
G1 X166.235 Y273.041 E.13495
G1 X166.949 Y274.341 E.13486
G1 X167.521 Y275.711 E.135
G1 X167.943 Y277.133 E.13488
G1 X168.213 Y278.592 E.13492
G1 X168.304 Y279.795 E.1097
G1 X168.316 Y280.349 E.05039
G1 X168.279 Y281.555 E.10971
G1 X168.076 Y283.025 E.13493
G1 X167.718 Y284.465 E.13492
G1 X167.209 Y285.859 E.13494
G1 X166.555 Y287.191 E.13493
G1 X165.762 Y288.445 E.13491
G1 X164.841 Y289.608 E.1349
G1 X163.801 Y290.667 E.13496
G1 X162.655 Y291.609 E.13489
G1 X161.415 Y292.424 E.13493
G1 X160.095 Y293.103 E.13498
G1 X158.711 Y293.637 E.13489
G1 X157.278 Y294.021 E.1349
G1 X155.812 Y294.251 E.13493
G1 X154.464 Y294.317 E.12272
G1 X154.075 Y293.801 F7800
G1 E-3.25 F10020
G1 X156.296 Y284.746 F7800
G1 E3.25 F2400
;TYPE:Perimeter
G1 F1800
G1 X156.073 Y284.849 E.02234
G1 X155.753 Y284.956 E.03068
G1 X155.075 Y285.106 E.06314
G1 X154.353 Y285.142 E.06573
G1 X153.827 Y285.127 E.04785
G1 X153.03 Y284.956 E.07412
G1 X152.71 Y284.849 E.03068
G1 X152.079 Y284.557 E.06322
G1 X151.79 Y284.383 E.03067
G1 X151.237 Y283.962 E.0632
G1 X150.992 Y283.73 E.03068
G1 X150.542 Y283.201 E.06315
G1 X150.352 Y282.921 E.03077
G1 X150.027 Y282.307 E.06317
G1 X149.902 Y281.993 E.03073
G1 X149.716 Y281.324 E.06314
G1 X149.661 Y280.991 E.03069
G1 X149.624 Y280.297 E.06319
G1 X149.642 Y279.96 E.03069
G1 X149.754 Y279.274 E.0632
G1 X149.845 Y278.949 E.03069
G1 X150.102 Y278.304 E.06313
G1 X150.26 Y278.005 E.03075
G1 X150.65 Y277.43 E.06318
G1 X150.869 Y277.172 E.03077
G1 X151.373 Y276.695 E.0631
G1 X151.642 Y276.49 E.03075
G1 X152.237 Y276.132 E.06314
G1 X152.544 Y275.99 E.03076
G1 X153.202 Y275.768 E.06315
G1 X153.527 Y275.696 E.03027
G1 X154.18 Y275.623 E.05975
G1 X154.509 Y275.621 E.02992
G1 X155.238 Y275.694 E.06662
G1 X155.581 Y275.768 E.03191
G1 X156.239 Y275.99 E.06315
G1 X156.546 Y276.132 E.03076
G1 X157.141 Y276.49 E.06314
G1 X157.41 Y276.695 E.03075
G1 X157.914 Y277.172 E.0631
G1 X158.133 Y277.43 E.03077
G1 X158.524 Y278.006 E.0633
G1 X158.681 Y278.303 E.03055
G1 X158.938 Y278.949 E.06322
G1 X159.029 Y279.274 E.03069
G1 X159.141 Y279.96 E.0632
G1 X159.161 Y280.26 E.02734
G1 X159.126 Y280.903 E.05855
G1 X159.067 Y281.324 E.03866
G1 X158.881 Y281.993 E.06314
G1 X158.756 Y282.307 E.03073
G1 X158.431 Y282.921 E.06317
G1 X158.241 Y283.201 E.03077
G1 X157.791 Y283.73 E.06315
G1 X157.546 Y283.962 E.03068
G1 X156.993 Y284.383 E.0632
G1 X156.704 Y284.557 E.03067
G1 X156.378 Y284.708 E.03267
G1 X156.034 Y284.178 F7800
G1 F1800
G1 X155.811 Y284.281 E.02234
G1 X155.211 Y284.436 E.05635
G1 X154.739 Y284.517 E.04355
G1 X154.044 Y284.517 E.0632
G1 X153.164 Y284.346 E.08151
G1 X152.342 Y283.99 E.08145
G1 X151.615 Y283.465 E.08154
G1 X151.018 Y282.796 E.08153
G1 X150.579 Y282.014 E.08155
G1 X150.318 Y281.157 E.08146
G1 X150.248 Y280.263 E.08154
G1 X150.371 Y279.375 E.08152
G1 X150.682 Y278.535 E.08145
G1 X151.167 Y277.78 E.0816
G1 X151.803 Y277.148 E.08153
G1 X152.559 Y276.667 E.08148
G1 X153.402 Y276.361 E.08155
G1 X154.249 Y276.244 E.07775
G1 X155.176 Y276.316 E.08455
G1 X156.04 Y276.582 E.0822
G1 X156.819 Y277.026 E.08153
G1 X157.405 Y277.551 E.07154
G1 X157.616 Y277.78 E.02831
G1 X158.006 Y278.356 E.06325
G1 X158.349 Y279.157 E.07923
G1 X158.515 Y280.006 E.07866
G1 X158.536 Y280.241 E.02145
G1 X158.502 Y280.869 E.05719
G1 X158.465 Y281.157 E.0264
G1 X158.279 Y281.826 E.06314
G1 X157.949 Y282.495 E.06783
G1 X157.765 Y282.796 E.03208
G1 X157.315 Y283.325 E.06315
G1 X156.785 Y283.756 E.06212
G1 X156.441 Y283.99 E.03783
G1 X156.115 Y284.141 E.03267
G1 X155.771 Y283.611 F7800
;TYPE:External perimeter
G1 F1800
G1 X155.484 Y283.736 E.02846
G1 X154.806 Y283.885 E.06312
G1 X154.044 Y283.893 E.06929
G1 X153.299 Y283.736 E.06923
G1 X152.604 Y283.423 E.06931
G1 X151.993 Y282.967 E.06932
G1 X151.494 Y282.391 E.0693
G1 X151.131 Y281.722 E.06921
G1 X150.92 Y280.99 E.06927
G1 X150.872 Y280.229 E.06933
G1 X150.988 Y279.476 E.06928
G1 X151.263 Y278.766 E.06923
G1 X151.684 Y278.131 E.06928
G1 X152.232 Y277.602 E.06926
G1 X152.881 Y277.203 E.06927
G1 X153.601 Y276.953 E.0693
G1 X154.319 Y276.865 E.06578
G1 X155.113 Y276.938 E.0725
G1 X155.84 Y277.175 E.06953
G1 X156.497 Y277.561 E.06929
G1 X156.976 Y278.005 E.05939
G1 X157.099 Y278.131 E.01601
G1 X157.489 Y278.706 E.06318
G1 X157.768 Y279.389 E.06709
G1 X157.912 Y280.222 E.07687
G1 X157.878 Y280.835 E.05583
G1 X157.652 Y281.722 E.08323
G1 X157.327 Y282.336 E.06317
G1 X156.79 Y282.967 E.07534
G1 X156.237 Y283.388 E.0632
G1 X155.853 Y283.572 E.03872
G1 X155.752 Y283.923 F7800
G1 E-3.25 F10020
G1 X107.395 Y281.36 F7800
G1 E3.25 F2400
;TYPE:Perimeter
G1 F1800
G1 X107.319 Y281.55 E.01861
G1 X107.063 Y282.033 E.04971
G1 X106.52 Y282.729 E.08027
G1 X105.84 Y283.292 E.08027
G1 X105.054 Y283.696 E.08036
G1 X104.209 Y283.92 E.07949
G1 X103.875 Y283.956 E.03055
G1 X103.322 Y283.958 E.05028
G1 X102.982 Y283.921 E.0311
G1 X102.449 Y283.804 E.04962
G1 X101.633 Y283.466 E.08031
G1 X100.908 Y282.961 E.08034
G1 X100.309 Y282.313 E.08024
G1 X99.864 Y281.55 E.08032
G1 X99.593 Y280.71 E.08026
G1 X99.538 Y280.377 E.03069
G1 X99.508 Y279.831 E.04972
G1 X99.527 Y279.494 E.03069
G1 X99.615 Y278.955 E.04966
G1 X99.706 Y278.629 E.03078
G1 X99.908 Y278.121 E.04971
G1 X100.066 Y277.823 E.03067
G1 X100.373 Y277.371 E.04968
G1 X100.786 Y276.929 E.05501
G1 X101.242 Y276.542 E.05438
G1 X101.743 Y276.241 E.05315
G1 X102.386 Y275.99 E.06276
G1 X102.878 Y275.863 E.0462
G1 X103.414 Y275.804 E.04903
G1 X103.749 Y275.803 E.03046
G1 X104.3 Y275.862 E.05039
G1 X104.633 Y275.935 E.031
G1 X105.151 Y276.11 E.04972
G1 X105.458 Y276.251 E.03072
G1 X105.926 Y276.533 E.04968
G1 X106.195 Y276.738 E.03075
G1 X106.592 Y277.113 E.04966
G1 X107.021 Y277.681 E.06472
G1 X107.275 Y278.121 E.0462
G1 X107.477 Y278.629 E.04971
G1 X107.568 Y278.955 E.03078
G1 X107.656 Y279.494 E.04966
G1 X107.675 Y279.831 E.03069
G1 X107.645 Y280.377 E.04972
