; generated by F3Slic3r 2.6.0-alpha4 on 2025-02-21 at 22:52:22 UTC

; 

; external perimeters extrusion width = 0.68mm
; perimeters extrusion width = 0.68mm
; infill extrusion width = 0.68mm
; solid infill extrusion width = 0.68mm
; top infill extrusion width = 0.60mm
; first layer extrusion width = 0.70mm

M107
;TYPE:Custom
; Fusion3 F410 F3Slic3r start script
; Rev 2023.01.16
M104 S0 
G21  
G90  
T0  
G92 E0.0  
M220 S100 
M140 S60  
G32 
M190 S60  
M109 S220  
; === pause for heating ===
; reset filament monitor
M42 P63 S0
G4 P100
G4 P50
M42 P63 S1
;
G1 Z10.0 F2000  ; move up
G1 E30.0 F500  ; prime extruder
G1 X20 Y15 F9000  ; move back
G1 Z0 F1000  ; move down to begin wipe
G1 X150 E4.0 F10000  ; wipe print head (extrude material while we do this)
G92 E0.0  ; reset e count
G21 ; set units to millimeters
G90 ; use absolute coordinates
M83 ; use relative distances for extrusion
; Filament gcode
M107
;LAYER_CHANGE
;Z:0.35
;HEIGHT:0.35
G1 Z.35 F7800
G1 E-3.25 F10020
G1 X182.503 Y161.501 F7800
G1 E3.25 F2400
;TYPE:Skirt/Brim
;WIDTH:0.7
G1 F1800
G1 X184.285 Y160.058 E.2085
G1 X187.5 Y159.226 E.30197
G1 X189.5 Y159.226 E.18186
G1 X191.759 Y159.623 E.20856
G1 X193.747 Y160.766 E.20852
G1 X195.226 Y162.519 E.20855
G1 X196.019 Y164.671 E.20854
G1 X196.125 Y165.851 E.10773
G1 X196.092 Y188.186 E2.03091
G1 X195.941 Y189.321 E.10411
G1 X195.419 Y191.133 E.17147
G1 X194.943 Y192.174 E.10408
G1 X194.12 Y193.483 E.1406
G1 X193.389 Y194.364 E.10409
G1 X192.564 Y195.157 E.10405
G1 X191.655 Y195.853 E.1041
G1 X190.674 Y196.443 E.10409
G1 X189.633 Y196.919 E.10408
G1 X188.545 Y197.276 E.10412
G1 X186.686 Y197.592 E.17146
G1 X167.351 Y197.625 E1.75813
G1 X165.092 Y197.228 E.20856
G1 X163.104 Y196.085 E.20852
G1 X161.625 Y194.332 E.20855
G1 X160.832 Y192.18 E.20854
G1 X160.726 Y191 E.10773
G1 X160.726 Y189 E.18186
G1 X161.123 Y186.741 E.20856
G1 X162.354 Y184.65 E.22064
G1 X182.444 Y161.569 E2.78242
G1 E-3.25 F10020
G1 X186.547 Y189.236 F7800
G1 E3.25 F2400
;TYPE:External perimeter
;WIDTH:0.7
G1 F1800
G1 X186.702 Y189.165 E.0155
G1 X187.197 Y188.858 E.05296
G1 X187.614 Y188.332 E.06104
G1 X187.807 Y187.802 E.05129
G1 X187.85 Y187.414 E.0355
G1 X187.85 Y166.201 E1.92889
G1 X189.15 Y166.201 E.11821
G1 X189.15 Y187.394 E1.92707
G1 X189.067 Y188.132 E.06753
G1 X188.823 Y188.824 E.06672
G1 X188.442 Y189.43 E.06509
G1 X187.93 Y189.942 E.06584
G1 X187.316 Y190.328 E.06595
G1 X186.632 Y190.567 E.06588
G1 X185.894 Y190.65 E.06753
G1 X167.701 Y190.65 E1.65428
G1 X167.701 Y189.35 E.11821
G1 X185.857 Y189.35 E1.65092
G1 X186.461 Y189.258 E.05555
G1 X186.671 Y189.353 F7800
G1 E-3.25 F10020
G1 X168.351 Y190 F7800
G1 E3.25 F2400
;TYPE:Perimeter
;WIDTH:0.750223
G1 F1800
G1 X185.857 Y190 E1.71975
;WIDTH:0.765325
G1 X186.485 Y189.922 E.06356
G1 X187.03 Y189.733 E.05794
;WIDTH:0.761383
G1 X187.467 Y189.469 E.05098
;WIDTH:0.767789
G1 X187.924 Y189.016 E.06486
G1 X188.225 Y188.554 E.05558
;WIDTH:0.750811
G1 X188.417 Y188.024 E.05543
;WIDTH:0.748781
G1 X188.49 Y187.498 E.05206
;WIDTH:0.750223
G1 X188.5 Y166.851 E2.02831
;LAYER_CHANGE
;Z:0.65
;HEIGHT:0.3
G1 Z.65 F7800
G1 E-3.25 F10020
G1 X186.551 Y189.221 F7800
G1 E3.25 F2400
;TYPE:External perimeter
;WIDTH:0.675
G1 F1800
G1 X186.696 Y189.155 E.01213
G1 X187.188 Y188.85 E.04409
G1 X187.602 Y188.327 E.0508
G1 X187.795 Y187.798 E.04289
G1 X187.838 Y187.414 E.02943
G1 X187.838 Y165.838 E1.64322
G1 X189.163 Y165.838 E.10091
G1 X189.163 Y187.394 E1.6417
G1 X189.079 Y188.135 E.0568
G1 X188.839 Y188.822 E.05542
G1 X188.452 Y189.438 E.0554
G1 X187.938 Y189.952 E.05536
G1 X187.322 Y190.339 E.0554
G1 X186.635 Y190.579 E.05542
G1 X185.894 Y190.663 E.0568
G1 X167.338 Y190.663 E1.41322
G1 X167.338 Y189.338 E.10091
G1 X185.857 Y189.338 E1.4104
G1 X186.465 Y189.245 E.04684
G1 X186.667 Y189.33 F7800
G1 E-3.25 F10020
G1 X188.5 Y166.5 F7800
G1 E3.25 F2400
;TYPE:Perimeter
;WIDTH:0.778763
G1 F2209
G1 X188.49 Y187.498 E1.87096
;WIDTH:0.777531
G1 X188.417 Y188.025 E.04732
;WIDTH:0.779023
G1 X188.225 Y188.553 E.05008
;WIDTH:0.796215
G1 X187.924 Y189.016 E.05041
G1 X187.467 Y189.47 E.0588
;WIDTH:0.789834
G1 X187.03 Y189.733 E.04615
;WIDTH:0.793787
G1 X186.485 Y189.922 E.05248
G1 X185.857 Y190 E.05757
;WIDTH:0.778761
G1 X168 Y190 E1.59108
;LAYER_CHANGE
;Z:0.95
;HEIGHT:0.3
G1 Z.95 F7800
G1 E-3.25 F10020
G1 X186.559 Y189.215 F7800
G1 E3.25 F2400
;TYPE:External perimeter
;WIDTH:0.675
G1 F1800
G1 X186.946 Y189.01 E.03335
G1 X187.224 Y188.806 E.02626
G1 X187.602 Y188.328 E.04641
G1 X187.795 Y187.798 E.04296
G1 X187.838 Y187.414 E.02943
G1 X187.838 Y165.538 E1.66607
G1 X189.163 Y165.538 E.10091
G1 X189.163 Y187.394 E1.66455
G1 X189.079 Y188.135 E.0568
G1 X188.856 Y188.774 E.05154
G1 X188.668 Y189.134 E.03093
G1 X188.209 Y189.709 E.05603
G1 X187.641 Y190.163 E.05538
G1 X186.985 Y190.478 E.05542
G1 X186.323 Y190.629 E.05171
G1 X185.903 Y190.663 E.03209
G1 X167.038 Y190.663 E1.43675
G1 X167.038 Y189.338 E.10091
G1 X185.884 Y189.338 E1.43531
G1 X186.474 Y189.243 E.04551
G1 X186.888 Y189.504 F7800
G1 E-3.25 F10020
G1 X188.5 Y166.2 F7800
G1 E3.25 F2400
;TYPE:Perimeter
;WIDTH:0.778763
G1 F2262
G1 X188.49 Y187.498 E1.89769
;WIDTH:0.777529
G1 X188.417 Y188.025 E.04732
;WIDTH:0.784545
G1 X188.227 Y188.554 E.05049
G1 X188.055 Y188.843 E.03021
;WIDTH:0.787233
G1 X187.735 Y189.235 E.04562
G1 X187.435 Y189.487 E.03532
;WIDTH:0.767481
G1 X186.947 Y189.768 E.04938
;WIDTH:0.769989
G1 X186.634 Y189.883 E.02935
;WIDTH:0.778759
G1 X185.884 Y190 E.06763
G1 X167.7 Y190 E1.62022
M106 S252.45
;LAYER_CHANGE
;Z:1.25
;HEIGHT:0.3
G1 Z1.25 F7800
G1 E-3.25 F10020
G1 X186.568 Y189.21 F7800
G1 E3.25 F2400
;TYPE:External perimeter
;WIDTH:0.675
G1 F1800
G1 X186.946 Y189.01 E.03257
G1 X187.224 Y188.806 E.02626
G1 X187.602 Y188.327 E.04647
G1 X187.795 Y187.798 E.04289
G1 X187.838 Y187.414 E.02943
G1 X187.838 Y165.237 E1.689
G1 X189.163 Y165.237 E.10091
G1 X189.163 Y187.394 E1.68747
G1 X189.09 Y188.04 E.04951
G1 X188.982 Y188.477 E.03428
G1 X188.663 Y189.141 E.0561
G1 X188.209 Y189.709 E.05538
G1 X187.641 Y190.163 E.05538
G1 X186.985 Y190.478 E.05542
G1 X186.323 Y190.629 E.05171
G1 X185.903 Y190.663 E.03209
G1 X166.738 Y190.663 E1.4596
G1 X166.738 Y189.338 E.10091
G1 X185.884 Y189.338 E1.45815
G1 X186.485 Y189.241 E.04636
G1 X186.889 Y189.492 F7800
G1 E-3.25 F10020
G1 X188.5 Y165.9 F7800
G1 E3.25 F2400
;TYPE:Perimeter
;WIDTH:0.778761
G1 F2372
G1 X188.49 Y187.498 E1.92441
;WIDTH:0.784359
G1 X188.42 Y188.026 E.04783
G1 X188.219 Y188.551 E.05048
;WIDTH:0.774622
G1 X188.055 Y188.843 E.02967
;WIDTH:0.787237
G1 X187.735 Y189.235 E.04562
G1 X187.435 Y189.487 E.03532
;WIDTH:0.767481
G1 X186.947 Y189.768 E.04938
;WIDTH:0.769989
G1 X186.634 Y189.883 E.02935
;WIDTH:0.778759
G1 X185.884 Y190 E.06763
G1 X167.4 Y190 E1.64695
;LAYER_CHANGE
;Z:1.55
;HEIGHT:0.3
G1 Z1.55 F7800
G1 E-3.25 F10020
G1 X186.58 Y189.208 F7800
G1 E3.25 F2400
;TYPE:External perimeter
;WIDTH:0.675
G1 F1800
G1 X186.696 Y189.155 E.00971
G1 X187.188 Y188.85 E.04409
G1 X187.602 Y188.327 E.0508
G1 X187.795 Y187.798 E.04289
G1 X187.838 Y187.414 E.02943
G1 X187.838 Y164.937 E1.71184
G1 X189.163 Y164.937 E.10091
G1 X189.163 Y187.394 E1.71032
G1 X189.079 Y188.135 E.0568
G1 X188.839 Y188.822 E.05542
G1 X188.452 Y189.438 E.0554
G1 X187.938 Y189.952 E.05536
G1 X187.322 Y190.339 E.0554
G1 X186.635 Y190.579 E.05542
G1 X185.894 Y190.663 E.0568
G1 X166.437 Y190.663 E1.48184
G1 X166.437 Y189.338 E.10091
G1 X185.857 Y189.338 E1.47902
G1 X186.497 Y189.239 E.04932
G1 X186.673 Y189.295 F7800
G1 E-3.25 F10020
G1 X188.5 Y165.6 F7800
G1 E3.25 F2400
;TYPE:Perimeter
;WIDTH:0.778761
G1 F2488
G1 X188.49 Y187.498 E1.95114
;WIDTH:0.777531
G1 X188.417 Y188.025 E.04732
;WIDTH:0.779021
G1 X188.225 Y188.553 E.05008
;WIDTH:0.796217
G1 X187.924 Y189.016 E.05041
G1 X187.467 Y189.47 E.0588
;WIDTH:0.789833
G1 X187.03 Y189.733 E.04615
;WIDTH:0.793784
G1 X186.485 Y189.922 E.05248
G1 X185.857 Y190 E.05757
;WIDTH:0.778761
G1 X167.1 Y190 E1.67128
;LAYER_CHANGE
;Z:1.85
;HEIGHT:0.3
G1 Z1.85 F7800
G1 E-3.25 F10020
G1 X186.588 Y189.199 F7800
G1 E3.25 F2400
;TYPE:External perimeter
;WIDTH:0.675
G1 F1800
G1 X186.946 Y189.01 E.03083
G1 X187.224 Y188.806 E.02626
G1 X187.602 Y188.328 E.04641
G1 X187.795 Y187.798 E.04296
G1 X187.838 Y187.414 E.02943
G1 X187.838 Y164.637 E1.73469
G1 X189.163 Y164.637 E.10091
G1 X189.163 Y187.394 E1.73317
G1 X189.079 Y188.135 E.0568
G1 X188.856 Y188.774 E.05154
G1 X188.668 Y189.134 E.03093
G1 X188.209 Y189.709 E.05603
G1 X187.641 Y190.163 E.05538
G1 X186.985 Y190.478 E.05542
G1 X186.323 Y190.629 E.05171
G1 X185.903 Y190.663 E.03209
G1 X166.137 Y190.663 E1.50537
G1 X166.137 Y189.338 E.10091
G1 X185.884 Y189.338 E1.50393
G1 X186.507 Y189.237 E.04807
G1 X186.892 Y189.466 F7800
G1 E-3.25 F10020
G1 X188.5 Y165.3 F7800
G1 E3.25 F2400
;TYPE:Perimeter
;WIDTH:0.778763
G1 F2619
G1 X188.49 Y187.498 E1.97788
;WIDTH:0.777531
G1 X188.417 Y188.025 E.04732
;WIDTH:0.784545
G1 X188.227 Y188.554 E.05049
G1 X188.055 Y188.843 E.03021
;WIDTH:0.787231
G1 X187.735 Y189.235 E.04562
G1 X187.435 Y189.487 E.03532
;WIDTH:0.767479
G1 X186.947 Y189.768 E.04938
;WIDTH:0.769989
G1 X186.634 Y189.883 E.02935
;WIDTH:0.778759
G1 X185.884 Y190 E.06763
G1 X166.8 Y190 E1.70041
;LAYER_CHANGE
;Z:2.15
;HEIGHT:0.3
G1 Z2.15 F7800
G1 E-3.25 F10020
G1 X186.62 Y189.19 F7800
G1 E3.25 F2400
;TYPE:External perimeter
;WIDTH:0.675
G1 F1800
G1 X187.188 Y188.85 E.05042
G1 X187.602 Y188.327 E.0508
G1 X187.795 Y187.798 E.04289
G1 X187.838 Y187.414 E.02943
G1 X187.838 Y164.43 E1.75046
G1 X189.163 Y164.43 E.10091
G1 X189.163 Y187.394 E1.74893
G1 X189.079 Y188.135 E.0568
G1 X188.839 Y188.822 E.05542
G1 X188.452 Y189.438 E.0554
G1 X187.938 Y189.952 E.05536
G1 X187.322 Y190.339 E.0554
G1 X186.635 Y190.579 E.05542
G1 X185.894 Y190.663 E.0568
G1 X165.93 Y190.663 E1.52045
G1 X165.93 Y189.338 E.10091
G1 X185.857 Y189.338 E1.51764
G1 X185.967 Y189.333 E.00839
G1 X186.538 Y189.227 E.04423
G1 X187.107 Y189.54 F7800
G1 E-3.25 F10020
G1 X188.5 Y165.093 F7800
G1 E3.25 F2400
;TYPE:Perimeter
;WIDTH:0.778761
G1 F2724
G1 X188.49 Y187.498 E1.99632
;WIDTH:0.777531
G1 X188.417 Y188.025 E.04732
;WIDTH:0.779019
G1 X188.225 Y188.553 E.05008
;WIDTH:0.796213
G1 X187.924 Y189.016 E.05041
G1 X187.467 Y189.47 E.0588
;WIDTH:0.789834
G1 X187.03 Y189.733 E.04615
;WIDTH:0.793787
G1 X186.485 Y189.922 E.05248
G1 X185.857 Y190 E.05757
;WIDTH:0.778761
G1 X166.593 Y190 E1.71645
;LAYER_CHANGE
;Z:2.45
;HEIGHT:0.3
G1 Z2.45 F7800
G1 E-3.25 F10020
G1 X186.63 Y189.185 F7800
G1 E3.25 F2400
;TYPE:External perimeter
;WIDTH:0.675
G1 F1800
G1 X187.188 Y188.85 E.04957
G1 X187.602 Y188.327 E.0508
G1 X187.795 Y187.798 E.04289
G1 X187.838 Y187.414 E.02943
G1 X187.838 Y164.349 E1.75662
G1 X189.163 Y164.349 E.10091
G1 X189.163 Y187.394 E1.7551
G1 X189.079 Y188.135 E.0568
G1 X188.839 Y188.822 E.05542
G1 X188.452 Y189.438 E.0554
G1 X187.938 Y189.952 E.05536
G1 X187.322 Y190.339 E.0554
G1 X186.635 Y190.579 E.05542
G1 X185.894 Y190.663 E.0568
G1 X165.849 Y190.663 E1.52662
G1 X165.849 Y189.338 E.10091
G1 X185.857 Y189.338 E1.5238
G1 X185.967 Y189.333 E.00839
G1 X186.548 Y189.222 E.04505
G1 X187.117 Y189.534 F7800
G1 E-3.25 F10020
G1 X188.5 Y165.011 F7800
G1 E3.25 F2400
;TYPE:Perimeter
;WIDTH:0.778761
G1 F2765
G1 X188.49 Y187.498 E2.00362
;WIDTH:0.777531
G1 X188.417 Y188.025 E.04732
;WIDTH:0.779021
G1 X188.225 Y188.553 E.05008
;WIDTH:0.796213
G1 X187.924 Y189.016 E.05041
G1 X187.467 Y189.47 E.0588
;WIDTH:0.789834
G1 X187.03 Y189.733 E.04615
;WIDTH:0.793784
G1 X186.485 Y189.922 E.05248
G1 X185.857 Y190 E.05757
;WIDTH:0.778761
G1 X166.511 Y190 E1.72376
;LAYER_CHANGE
;Z:2.75
;HEIGHT:0.3
G1 Z2.75 F7800
G1 E-3.25 F10020
G1 X186.64 Y189.18 F7800
G1 E3.25 F2400
;TYPE:External perimeter
;WIDTH:0.675
G1 F1800
G1 X187.188 Y188.85 E.04872
G1 X187.602 Y188.327 E.0508
G1 X187.795 Y187.798 E.04289
G1 X187.838 Y187.414 E.02943
G1 X187.838 Y164.338 E1.75746
G1 X189.163 Y164.338 E.10091
G1 X189.163 Y187.394 E1.75594
G1 X189.079 Y188.135 E.0568
G1 X188.839 Y188.822 E.05542
G1 X188.452 Y189.438 E.0554
G1 X187.938 Y189.952 E.05536
G1 X187.322 Y190.339 E.0554
G1 X186.635 Y190.579 E.05542
G1 X185.894 Y190.663 E.0568
G1 X165.838 Y190.663 E1.52746
G1 X165.838 Y189.338 E.10091
G1 X185.857 Y189.338 E1.52464
G1 X185.967 Y189.333 E.00839
G1 X186.558 Y189.218 E.04585
G1 X187.128 Y189.529 F7800
G1 E-3.25 F10020
G1 X188.5 Y165 F7800
G1 E3.25 F2400
;TYPE:Perimeter
;WIDTH:0.778763
G1 F2772
G1 X188.49 Y187.498 E2.00461
;WIDTH:0.777533
G1 X188.417 Y188.025 E.04732
;WIDTH:0.779021
G1 X188.225 Y188.553 E.05008
;WIDTH:0.796213
G1 X187.924 Y189.016 E.05041
G1 X187.467 Y189.47 E.0588
;WIDTH:0.789834
G1 X187.03 Y189.733 E.04615
;WIDTH:0.793784
G1 X186.485 Y189.922 E.05248
G1 X185.857 Y190 E.05757
;WIDTH:0.778761
G1 X166.5 Y190 E1.72474
;LAYER_CHANGE
;Z:3.05
;HEIGHT:0.3
G1 Z3.05 F7800
G1 E-3.25 F10020
G1 X186.65 Y189.176 F7800
G1 E3.25 F2400
;TYPE:External perimeter
;WIDTH:0.675
G1 F1800
G1 X187.188 Y188.85 E.04791
G1 X187.602 Y188.327 E.0508
G1 X187.795 Y187.798 E.04289
G1 X187.838 Y187.414 E.02943
G1 X187.838 Y164.338 E1.75746
G1 X189.163 Y164.338 E.10091
G1 X189.163 Y187.394 E1.75594
G1 X189.079 Y188.135 E.0568
G1 X188.839 Y188.822 E.05542
G1 X188.452 Y189.438 E.0554
G1 X187.938 Y189.952 E.05536
G1 X187.322 Y190.339 E.0554
G1 X186.635 Y190.579 E.05542
G1 X185.894 Y190.663 E.0568
G1 X165.838 Y190.663 E1.52746
G1 X165.838 Y189.338 E.10091
G1 X185.857 Y189.338 E1.52464
G1 X185.967 Y189.333 E.00839
G1 X186.568 Y189.213 E.04668
G1 X187.139 Y189.523 F7800
G1 E-3.25 F10020
G1 X188.5 Y165 F7800
G1 E3.25 F2400
;TYPE:Perimeter
;WIDTH:0.778763
G1 F2772
G1 X188.49 Y187.498 E2.00461
;WIDTH:0.777533
G1 X188.417 Y188.025 E.04732
;WIDTH:0.779021
G1 X188.225 Y188.553 E.05008
;WIDTH:0.796215
G1 X187.924 Y189.016 E.05041
G1 X187.467 Y189.47 E.0588
;WIDTH:0.789834
G1 X187.03 Y189.733 E.04615
;WIDTH:0.793787
G1 X186.485 Y189.922 E.05248
G1 X185.857 Y190 E.05757
;WIDTH:0.778761
G1 X166.5 Y190 E1.72474
;LAYER_CHANGE
;Z:3.35
;HEIGHT:0.3
G1 Z3.35 F7800
G1 E-3.25 F10020
G1 X186.659 Y189.171 F7800
G1 E3.25 F2400
;TYPE:External perimeter
;WIDTH:0.675
G1 F1800
G1 X187.188 Y188.85 E.04713
G1 X187.602 Y188.327 E.0508
G1 X187.795 Y187.798 E.04289
G1 X187.838 Y187.414 E.02943
G1 X187.838 Y164.338 E1.75746
G1 X189.163 Y164.338 E.10091
G1 X189.163 Y187.394 E1.75594
G1 X189.079 Y188.135 E.0568
G1 X188.839 Y188.822 E.05542
G1 X188.452 Y189.438 E.0554
G1 X187.938 Y189.952 E.05536
G1 X187.322 Y190.339 E.0554
G1 X186.635 Y190.579 E.05542
G1 X185.894 Y190.663 E.0568
G1 X165.838 Y190.663 E1.52746
G1 X165.838 Y189.338 E.10091
G1 X185.857 Y189.338 E1.52464
G1 X186.52 Y189.235 E.0511
G1 X186.577 Y189.209 E.00477
G1 X187.149 Y189.517 F7800
G1 E-3.25 F10020
G1 X188.5 Y165 F7800
G1 E3.25 F2400
;TYPE:Perimeter
;WIDTH:0.778763
G1 F2772
G1 X188.49 Y187.498 E2.00461
;WIDTH:0.777533
G1 X188.417 Y188.025 E.04732
;WIDTH:0.779021
G1 X188.225 Y188.553 E.05008
;WIDTH:0.796213
G1 X187.924 Y189.016 E.05041
G1 X187.467 Y189.47 E.0588
;WIDTH:0.789834
G1 X187.03 Y189.733 E.04615
;WIDTH:0.793784
G1 X186.485 Y189.922 E.05248
G1 X185.857 Y190 E.05757
;WIDTH:0.778761
G1 X166.5 Y190 E1.72474
;LAYER_CHANGE
;Z:3.65
;HEIGHT:0.3
G1 Z3.65 F7800
G1 E-3.25 F10020
G1 X186.668 Y189.167 F7800
G1 E3.25 F2400
;TYPE:External perimeter
;WIDTH:0.675
G1 F1800
G1 X187.188 Y188.85 E.04638
G1 X187.602 Y188.327 E.0508
G1 X187.795 Y187.798 E.04289
G1 X187.838 Y187.414 E.02943
G1 X187.838 Y164.338 E1.75746
G1 X189.163 Y164.338 E.10091
G1 X189.163 Y187.394 E1.75594
G1 X189.079 Y188.135 E.0568
G1 X188.839 Y188.822 E.05542
G1 X188.452 Y189.438 E.0554
G1 X187.938 Y189.952 E.05536
G1 X187.322 Y190.339 E.0554
G1 X186.635 Y190.579 E.05542
G1 X185.894 Y190.663 E.0568
G1 X165.838 Y190.663 E1.52746
G1 X165.838 Y189.338 E.10091
G1 X185.857 Y189.338 E1.52464
G1 X186.52 Y189.235 E.0511
G1 X186.587 Y189.205 E.00559
G1 X187.16 Y189.512 F7800
G1 E-3.25 F10020
G1 X188.5 Y165 F7800
G1 E3.25 F2400
;TYPE:Perimeter
;WIDTH:0.778763
G1 F2772
G1 X188.49 Y187.498 E2.00461
;WIDTH:0.777533
G1 X188.417 Y188.025 E.04732
;WIDTH:0.779021
G1 X188.225 Y188.553 E.05008
;WIDTH:0.796213
G1 X187.924 Y189.016 E.05041
G1 X187.467 Y189.47 E.0588
;WIDTH:0.789834
G1 X187.03 Y189.733 E.04615
