; generated by F3Slic3r 2.6.0-alpha4 on 2025-02-27 at 22:17:01 UTC

; 

; external perimeters extrusion width = 0.68mm
; perimeters extrusion width = 0.68mm
; infill extrusion width = 0.68mm
; solid infill extrusion width = 0.68mm
; top infill extrusion width = 0.60mm
; support material extrusion width = 0.60mm
; first layer extrusion width = 0.70mm

M107
;TYPE:Custom
; Fusion3 F410 F3Slic3r start script
; Rev 2023.01.16
M104 S0 
G21  
G90  
T0  
G92 E0.0  
M220 S100 
M140 S60  
G32 
M190 S60  
M109 S220  
; === pause for heating ===
; reset filament monitor
M42 P63 S0
G4 P100
G4 P50
M42 P63 S1
;
G1 Z10.0 F2000  ; move up
G1 E30.0 F500  ; prime extruder
G1 X20 Y15 F9000  ; move back
G1 Z0 F1000  ; move down to begin wipe
G1 X150 E4.0 F10000  ; wipe print head (extrude material while we do this)
G92 E0.0  ; reset e count
G21 ; set units to millimeters
G90 ; use absolute coordinates
M83 ; use relative distances for extrusion
; Filament gcode
M107
;LAYER_CHANGE
;Z:0.35
;HEIGHT:0.35
G1 Z.35 F7800
G1 E-3.25 F10020
G1 X147.859 Y150.169 F7800
G1 E3.25 F2400
;TYPE:Skirt/Brim
;WIDTH:0.7
G1 F1800
G1 X168.115 Y133.29 E2.39752
G1 X169.283 Y132.392 E.13397
G1 X171.177 Y131.274 E.19999
G1 X173.219 Y130.458 E.19995
G1 X175.362 Y129.963 E.19999
G1 X176.37 Y129.847 E.09226
G1 X178.569 Y129.84 E.19996
G1 X180.744 Y130.169 E.20002
G1 X182.842 Y130.827 E.19993
G1 X183.925 Y131.312 E.1079
G1 X185.812 Y132.441 E.19995
G1 X207.144 Y150.171 E2.52222
G1 X208.624 Y151.923 E.20854
G1 X209.418 Y154.075 E.20857
G1 X209.525 Y155.259 E.1081
G1 X209.525 Y199.566 E4.02882
G1 X209.128 Y201.825 E.20856
G1 X207.584 Y204.251 E.26148
G1 X202.504 Y209.331 E.65326
G1 X200.626 Y210.647 E.20852
G1 X197.82 Y211.271 E.26138
G1 X157.18 Y211.271 E3.69538
G1 X154.921 Y210.874 E.20856
G1 X152.495 Y209.331 E.26143
G1 X147.415 Y204.251 E.65326
G1 X146.099 Y202.373 E.20852
G1 X145.475 Y199.566 E.26147
G1 X145.475 Y155.259 E4.02882
G1 X145.872 Y153 E.20856
G1 X147.016 Y151.012 E.20856
G1 X147.795 Y150.233 E.10017
G1 E-3.25 F10020
G1 X175.601 Y165.1 F7800
G1 E3.25 F2400
;TYPE:Support material
G1 F1800
G1 X176.43 Y165.875 E.10319
G1 X177.106 Y166.787 E.10322
G1 X177.605 Y167.807 E.10325
G1 X178.006 Y169.239 E.13522
G1 X178.921 Y168.361 E.11531
G1 X179.877 Y167.701 E.10563
G1 X180.927 Y167.202 E.10571
G1 X182.044 Y166.879 E.10573
G1 X183.198 Y166.738 E.10571
G1 X184.359 Y166.785 E.10566
G1 X185.209 Y166.958 E.07887
G1 X185.66 Y167.231 E.04794
G1 X186.211 Y167.599 E.06025
G1 X186.745 Y167.991 E.06023
G1 X187.262 Y168.406 E.06028
G1 X187.76 Y168.843 E.06025
G1 X188.239 Y169.301 E.06026
G1 X188.697 Y169.78 E.06026
G1 X189.134 Y170.278 E.06025
G1 X189.549 Y170.795 E.06028
G1 X189.941 Y171.329 E.06023
G1 X190.459 Y172.127 E.08651
G1 X190.624 Y172.797 E.06274
G1 X190.718 Y173.957 E.10582
G1 X190.625 Y175.117 E.10582
G1 X190.347 Y176.247 E.10581
G1 X189.889 Y177.321 E.10617
G1 X190.992 Y177.771 E.10832
G1 X191.949 Y178.382 E.10324
G1 X192.651 Y179.038 E.08737
G1 X192.687 Y180.04 E.09117
G1 X192.673 Y180.703 E.0603
G1 X192.63 Y181.364 E.06023
G1 X192.557 Y182.022 E.0602
G1 X192.457 Y182.677 E.06025
G1 X192.327 Y183.327 E.06027
G1 X192.17 Y183.971 E.06027
G1 X191.984 Y184.607 E.06025
G1 X191.771 Y185.234 E.06021
G1 X191.531 Y185.852 E.06028
G1 X191.264 Y186.458 E.06021
G1 X190.971 Y187.053 E.06031
G1 X190.653 Y187.634 E.06023
G1 X190.309 Y188.2 E.06023
G1 X189.941 Y188.751 E.06025
G1 X189.473 Y189.38 E.07129
G1 X188.83 Y189.513 E.05971
G1 X188.104 Y189.53 E.06603
G1 X187.999 Y190.685 E.10546
G1 X187.875 Y191.127 E.04174
G1 X187.262 Y191.674 E.07471
G1 X186.745 Y192.089 E.06028
G1 X186.211 Y192.481 E.06023
G1 X185.66 Y192.849 E.06025
G1 X185.094 Y193.193 E.06023
G1 X184.513 Y193.511 E.06023
G1 X183.918 Y193.804 E.06031
G1 X183.312 Y194.071 E.06021
G1 X182.694 Y194.311 E.06028
G1 X182.067 Y194.524 E.06021
G1 X181.431 Y194.71 E.06025
G1 X180.787 Y194.867 E.06027
G1 X180.137 Y194.997 E.06027
G1 X179.482 Y195.097 E.06025
G1 X179.1 Y195.139 E.03494
G1 X178.265 Y194.658 E.08762
G1 X177.401 Y193.923 E.10314
G1 X176.865 Y193.265 E.07717
G1 X175.911 Y194.158 E.11882
G1 X174.968 Y194.761 E.10178
G1 X174.545 Y194.933 E.04152
G1 X173.569 Y194.71 E.09103
G1 X172.933 Y194.524 E.06025
G1 X172.306 Y194.311 E.06021
G1 X171.688 Y194.071 E.06028
G1 X171.082 Y193.804 E.06021
G1 X170.487 Y193.511 E.06031
G1 X169.906 Y193.193 E.06023
G1 X169.34 Y192.849 E.06023
G1 X168.789 Y192.481 E.06025
G1 X168.255 Y192.089 E.06023
G1 X167.738 Y191.674 E.06028
G1 X167.24 Y191.237 E.06025
G1 X166.761 Y190.779 E.06026
G1 X166.303 Y190.3 E.06026
G1 X165.903 Y189.845 E.05509
G1 X165.872 Y189.507 E.03086
G1 X165.872 Y188.932 E.05228
G1 X165.923 Y188.376 E.05077
G1 X166.026 Y187.809 E.0524
G1 X166.179 Y187.272 E.05077
G1 X166.371 Y186.76 E.04972
G1 X165.115 Y186.558 E.11568
G1 X164.046 Y186.179 E.10313
G1 X163.466 Y185.844 E.0609
G1 X163.229 Y185.234 E.05951
G1 X163.016 Y184.607 E.06021
G1 X162.83 Y183.971 E.06025
G1 X162.673 Y183.327 E.06027
G1 X162.543 Y182.677 E.06027
G1 X162.443 Y182.022 E.06025
G1 X162.37 Y181.364 E.0602
G1 X162.327 Y180.702 E.06032
G1 X162.313 Y180.04 E.06021
G1 X162.327 Y179.378 E.06021
G1 X162.37 Y178.716 E.06032
G1 X162.443 Y178.058 E.0602
G1 X162.543 Y177.403 E.06025
G1 X162.673 Y176.753 E.06027
G1 X162.83 Y176.109 E.06027
G1 X163.026 Y175.442 E.06321
G1 X164.05 Y174.841 E.10796
G1 X165.119 Y174.463 E.1031
G1 X166.209 Y174.288 E.10038
G1 X167.226 Y174.289 E.09248
G1 X166.593 Y173.51 E.09127
G1 X166.075 Y172.562 E.09823
G1 X165.856 Y171.981 E.05646
G1 X165.702 Y171.439 E.05123
G1 X165.6 Y170.877 E.05194
G1 X165.578 Y170.637 E.02191
G1 X166.303 Y169.78 E.10207
G1 X166.761 Y169.301 E.06026
G1 X167.24 Y168.843 E.06026
G1 X167.738 Y168.406 E.06025
G1 X168.255 Y167.991 E.06028
G1 X168.789 Y167.599 E.06023
G1 X169.34 Y167.231 E.06025
G1 X169.906 Y166.887 E.06023
G1 X170.487 Y166.569 E.06023
G1 X171.082 Y166.276 E.06031
G1 X171.688 Y166.009 E.06021
G1 X172.306 Y165.769 E.06028
G1 X172.933 Y165.556 E.06021
G1 X173.569 Y165.37 E.06025
G1 X174.213 Y165.213 E.06027
G1 X174.863 Y165.083 E.06027
G1 X175.437 Y164.995 E.0528
G1 X175.522 Y165.05 E.00921
G1 X175.599 Y174.961 F7800
G1 F1800
G1 X176.257 Y174.346 E.0819
G1 X176.474 Y175.683 E.12316
G1 X176.841 Y176.787 E.10579
G1 X177.381 Y177.816 E.10567
G1 X178.079 Y178.746 E.10573
G1 X178.917 Y179.552 E.10572
G1 X179.873 Y180.214 E.10574
G1 X180.924 Y180.714 E.10583
G1 X182.277 Y181.107 E.12811
G1 X182.05 Y181.902 E.07518
G1 X181.948 Y182.468 E.0523
G1 X181.868 Y183.335 E.07917
G1 X181.405 Y183.335 E.0421
G1 X180.314 Y183.51 E.10047
G1 X179.245 Y183.89 E.10316
G1 X178.263 Y184.457 E.10311
G1 X177.4 Y185.192 E.10308
G1 X177.111 Y185.547 E.04162
G1 X176.754 Y185.064 E.05461
G1 X175.924 Y184.29 E.1032
G1 X174.968 Y183.678 E.10322
G1 X173.917 Y183.249 E.10322
G1 X172.835 Y183.025 E.10047
G1 X172.415 Y183.006 E.03823
G1 X172.797 Y181.643 E.12871
G1 X172.9 Y180.513 E.10318
G1 X172.798 Y179.382 E.10326
G1 X172.492 Y178.29 E.10312
G1 X171.993 Y177.27 E.10325
G1 X171.245 Y176.259 E.11436
G1 X172.479 Y176.231 E.11224
G1 X173.591 Y176.001 E.10325
G1 X174.642 Y175.572 E.10322
G1 X175.52 Y175.011 E.09474
G1 E-3.25 F10020
G1 X192.081 Y183.125 F7800
G1 E3.25 F2400
G1 F1800
G1 X192.081 Y179.275 E.35008
G1 X191.602 Y178.828 E.05957
G1 X191.386 Y178.69 E.02331
G1 X191.386 Y184.619 E.53912
G1 X191.012 Y185.637 E.09862
G1 X190.692 Y186.347 E.07081
G1 X190.692 Y178.255 E.7358
G1 X189.998 Y177.972 E.06815
G1 X189.998 Y187.629 E.87811
G1 X189.834 Y187.898 E.02865
G1 X189.303 Y188.669 E.08512
G1 X189.303 Y171.411 E1.56926
G1 X188.609 Y170.532 E.10184
G1 X188.609 Y188.956 E1.67529
G1 X187.915 Y188.972 E.06312
G1 X187.915 Y169.776 E1.74548
G1 X187.221 Y169.117 E.08702
G1 X187.22 Y190.963 E1.98645
G1 X186.526 Y191.544 E.0823
G1 X186.526 Y168.536 E2.09211
G1 X185.832 Y168.022 E.07853
G1 X185.832 Y192.058 E2.18558
G1 X185.138 Y192.508 E.07521
G1 X185.138 Y167.572 E2.26742
G1 X185.001 Y167.489 E.01457
G1 X184.443 Y167.376 E.05177
G1 X184.443 Y192.908 E2.32161
G1 X183.749 Y193.261 E.0708
G1 X183.749 Y167.323 E2.35853
G1 X183.22 Y167.302 E.04814
G1 X183.055 Y167.322 E.01511
G1 X183.055 Y193.568 E2.38654
G1 X182.36 Y193.831 E.06757
G1 X182.36 Y183.897 E.90329
G1 X181.666 Y183.897 E.06311
G1 X181.666 Y194.055 E.92366
G1 X180.972 Y194.243 E.06538
G1 X180.972 Y183.974 E.93376
G1 X180.454 Y184.057 E.0477
G1 X180.277 Y184.12 E.01708
G1 X180.277 Y194.395 E.9343
G1 X179.583 Y194.513 E.06401
G1 X179.583 Y184.367 E.92257
G1 X179.482 Y184.403 E.00975
G1 X178.889 Y184.745 E.06225
G1 X178.889 Y194.368 E.87502
G1 X178.591 Y194.197 E.03124
G1 X178.194 Y193.859 E.04741
G1 X178.194 Y185.254 E.78245
G1 X177.803 Y185.587 E.0467
G1 X177.5 Y185.96 E.0437
G1 X177.5 Y193.154 E.65415
G1 X176.916 Y192.437 E.08409
G1 X176.806 Y192.543 E.01389
G1 X176.806 Y186.079 E.58777
G1 X176.332 Y185.44 E.07234
G1 X176.111 Y185.234 E.02747
G1 X176.111 Y193.207 E.72498
G1 X175.567 Y193.71 E.06737
G1 X175.417 Y193.806 E.01619
G1 X175.417 Y184.633 E.8341
G1 X174.723 Y184.188 E.07496
G1 X174.723 Y194.25 E.91493
G1 X174.489 Y194.349 E.0231
G1 X174.028 Y194.243 E.04301
G1 X174.028 Y183.902 E.9403
G1 X173.752 Y183.79 E.02708
G1 X173.334 Y183.703 E.03882
G1 X173.334 Y194.056 E.94139
G1 X172.64 Y193.831 E.06634
G1 X172.64 Y183.297 E.95785
G1 E-3.25 F10020
G1 X189.998 Y176.348 F7800
G1 E3.25 F2400
G1 F1800
G1 X189.998 Y171.92 E.40264
G1 X182.36 Y180.838 F7800
G1 F1800
G1 X182.36 Y167.407 E1.22128
G1 X182.157 Y167.431 E.01859
G1 X181.666 Y167.574 E.0465
G1 X181.666 Y180.343 E1.16108
G1 X181.124 Y180.186 E.05131
G1 X180.972 Y180.114 E.01529
G1 X180.972 Y167.804 E1.11934
G1 X180.277 Y168.133 E.06992
G1 X180.277 Y179.783 E1.05933
G1 X180.155 Y179.725 E.01228
G1 X179.583 Y179.33 E.06321
G1 X179.583 Y168.587 E.97686
G1 X179.278 Y168.798 E.03372
G1 X178.889 Y169.171 E.04901
G1 X178.889 Y178.745 E.87056
G1 X178.501 Y178.372 E.04894
G1 X178.194 Y177.963 E.0465
G1 X178.194 Y169.838 E.7388
G1 X177.718 Y170.296 E.06006
G1 X177.5 Y169.518 E.07347
G1 X177.5 Y176.832 E.66506
G1 X177.361 Y176.566 E.02729
G1 X177.022 Y175.548 E.09756
G1 X176.806 Y174.215 E.12279
G1 X176.806 Y167.453 E.61487
G1 X176.623 Y167.081 E.0377
G1 X176.111 Y166.389 E.07827
G1 X176.111 Y173.713 E.66597
G1 X175.417 Y174.361 E.08634
G1 X175.417 Y165.698 E.78772
G1 X175.297 Y165.586 E.01493
G1 X174.723 Y165.685 E.05296
G1 X174.723 Y174.854 E.83373
G1 X174.383 Y175.071 E.03668
G1 X174.028 Y175.215 E.03483
G1 X174.028 Y165.837 E.85274
G1 X173.334 Y166.024 E.06536
G1 X173.334 Y175.479 E.85974
G1 X172.64 Y175.623 E.06445
G1 X172.64 Y166.249 E.85237
G1 X171.945 Y166.512 E.06757
G1 X171.945 Y175.681 E.83373
G1 X171.251 Y175.696 E.06312
G1 X171.251 Y166.819 E.80718
G1 X170.557 Y167.172 E.0708
G1 X170.557 Y192.908 E2.34016
G1 X171.251 Y193.261 E.0708
G1 X171.251 Y177.213 E1.45924
G1 X171.51 Y177.563 E.03959
G1 X171.945 Y178.453 E.09008
G1 X171.945 Y193.87 E1.40186
G1 X169.862 Y192.837 F7800
G1 F1800
G1 X169.862 Y167.572 E2.29734
G1 X169.168 Y168.022 E.07521
G1 X169.168 Y192.058 E2.18558
G1 X168.474 Y191.544 E.07853
G1 X168.474 Y168.536 E2.09211
G1 X167.78 Y169.117 E.0823
G1 X167.78 Y174.079 E.45119
G1 X167.085 Y173.224 E.10019
G1 X167.085 Y169.775 E.31362
G1 X166.391 Y170.532 E.09338
G1 X166.391 Y172.555 E.18395
G1 X167.78 Y191.337 F7800
G1 F1800
G1 X167.78 Y174.852 E1.49897
G1 X167.085 Y174.852 E.0632
G1 X167.085 Y190.7 E1.44105
G1 X166.391 Y186.478 F7800
G1 F1800
G1 X166.391 Y174.851 E1.05724
G1 X166.253 Y174.851 E.01255
G1 X165.697 Y174.94 E.0512
G1 X165.697 Y186.082 E1.01314
G1 X165.255 Y186.011 E.04071
G1 X165.002 Y185.921 E.02442
G1 X165.002 Y175.101 E.98386
G1 X164.308 Y175.347 E.06695
G1 X164.308 Y185.675 E.93912
G1 X163.918 Y185.456 E.04067
G1 X163.614 Y184.619 E.08097
G1 X163.614 Y175.741 E.80727
G1 X163.505 Y175.804 E.01145
G1 X163.222 Y176.875 E.10073
G1 X163.097 Y177.5 E.05796
G1 X163 Y178.131 E.05805
G1 X162.931 Y178.765 E.05799
G1 X162.919 Y183.126 E.39655
G1 E-3.25 F10020
G1 X178.43 Y136.493 F7800
G1 E3.25 F2400
G1 F1800
G1 X178.988 Y136.557 E.05107
G1 X180.132 Y136.872 E.10789
G1 X181.215 Y137.357 E.1079
G1 X182.211 Y138.002 E.1079
G1 X183.097 Y138.792 E.10794
G1 X183.852 Y139.707 E.10787
G1 X184.458 Y140.727 E.10788
G1 X184.902 Y141.828 E.10795
G1 X185.172 Y142.983 E.10786
G1 X185.263 Y144.166 E.10789
G1 X185.172 Y145.349 E.10789
G1 X184.902 Y146.505 E.10794
G1 X184.458 Y147.605 E.10786
G1 X184.139 Y148.142 E.05679
G1 X183.852 Y148.625 E.05109
G1 X183.097 Y149.541 E.10794
G1 X182.211 Y150.33 E.10788
G1 X181.215 Y150.975 E.1079
G1 X180.132 Y151.461 E.10794
G1 X178.988 Y151.775 E.10787
G1 X177.809 Y151.911 E.10792
G1 X176.624 Y151.866 E.10783
G1 X175.459 Y151.64 E.10791
G1 X174.342 Y151.239 E.10792
G1 X173.848 Y150.97 E.05115
G1 X173.299 Y150.672 E.0568
G1 X172.356 Y149.953 E.10783
G1 X171.533 Y149.098 E.10791
G1 X170.85 Y148.127 E.10795
G1 X170.324 Y147.064 E.10784
G1 X169.966 Y145.932 E.10796
G1 X169.785 Y144.76 E.10783
G1 X169.785 Y143.573 E.10793
G1 X169.966 Y142.4 E.10792
G1 X170.324 Y141.269 E.10787
G1 X170.601 Y140.709 E.05681
G1 X170.85 Y140.206 E.05103
G1 X171.533 Y139.235 E.10795
G1 X172.356 Y138.38 E.10791
G1 X173.299 Y137.661 E.10783
G1 X174.342 Y137.094 E.10795
G1 X175.459 Y136.693 E.10792
G1 X176.624 Y136.467 E.10791
G1 X177.809 Y136.421 E.10783
G1 X178.337 Y136.482 E.04833
G1 X184.443 Y146.891 F7800
G1 F1800
G1 X184.443 Y142.336 E.41418
G1 X184.364 Y141.998 E.03156
G1 X183.953 Y140.977 E.10008
G1 X183.749 Y140.634 E.03629
G1 X183.749 Y147.698 E.64233
G1 X183.391 Y148.301 E.06377
G1 X183.055 Y148.708 E.04799
G1 X183.055 Y139.624 E.826
G1 X182.691 Y139.183 E.052
G1 X182.36 Y138.888 E.04032
G1 X182.36 Y149.444 E.95985
G1 X181.869 Y149.882 E.05983
G1 X181.666 Y150.013 E.02197
G1 X181.666 Y138.319 E1.06333
G1 X180.972 Y137.869 E.07521
G1 X180.972 Y150.463 E1.14517
G1 X180.277 Y150.779 E.06942
G1 X180.277 Y137.553 E1.20263
G1 X179.942 Y137.403 E.03338
G1 X179.583 Y137.304 E.03386
G1 X179.583 Y151.028 E1.24792
G1 X178.889 Y151.219 E.06545
G1 X178.889 Y137.113 E1.28265
G1 X178.194 Y137.032 E.06362
G1 X178.194 Y151.301 E1.29747
G1 X177.788 Y151.348 E.03716
G1 X177.5 Y151.337 E.02621
G1 X177.5 Y136.996 E1.30402
G1 X176.806 Y137.023 E.06315
G1 X176.806 Y151.31 E1.29911
G1 X176.688 Y151.305 E.01074
G1 X176.111 Y151.194 E.05343
G1 X176.111 Y137.139 E1.27802
G1 X175.608 Y137.236 E.04658
G1 X175.417 Y137.305 E.01847
G1 X175.417 Y151.027 E1.24774
G1 X174.723 Y150.778 E.06704
G1 X174.723 Y137.554 E1.20245
G1 X174.573 Y137.608 E.0145
G1 X174.028 Y137.904 E.05639
G1 X174.028 Y150.428 E1.1388
G1 X173.606 Y150.198 E.0437
G1 X173.334 Y149.991 E.03108
G1 X173.334 Y138.341 E1.05933
G1 X172.731 Y138.801 E.06896
G1 X172.64 Y138.896 E.01196
G1 X172.64 Y149.437 E.95849
G1 X171.945 Y148.707 E.09165
G1 X171.945 Y139.626 E.82573
G1 X171.335 Y140.494 E.09647
G1 X171.251 Y140.663 E.01716
G1 X171.251 Y147.669 E.63705
G1 X170.847 Y146.853 E.08279
G1 X170.557 Y145.936 E.08745
G1 X170.557 Y141.464 E.40664
G1 E-3.25 F10020
G1 X153.7 Y156.858 F7800
G1 E3.25 F2400
;TYPE:Perimeter
;WIDTH:0.7
G1 F1800
G1 X201.3 Y156.859 E4.32825
G1 X201.3 Y198.904 E3.82313
G1 X197.157 Y203.047 E.53276
G1 X157.843 Y203.046 E3.5748
G1 X153.7 Y198.904 E.5327
G1 X153.7 Y156.948 E3.81504
G1 E-3.25 F10020
G1 X153.075 Y156.234 F7800
G1 E3.25 F2400
G1 F1800
G1 X201.925 Y156.234 E4.44191
G1 X201.925 Y199.163 E3.90351
G1 X197.416 Y203.671 E.57977
G1 X157.584 Y203.671 E3.6219
G1 X153.075 Y199.162 E.57983
G1 X153.075 Y156.324 E3.89524
G1 E-3.25 F10020
G1 X152.45 Y155.609 F7800
G1 E3.25 F2400
;TYPE:External perimeter
G1 F1800
G1 X202.55 Y155.609 E4.55557
G1 X202.55 Y199.421 E3.9838
G1 X197.675 Y204.296 E.62689
G1 X157.325 Y204.296 E3.66901
G1 X152.45 Y199.421 E.62689
G1 X152.45 Y155.699 E3.97562
G1 X152.979 Y155.891 F7800
G1 E-3.25 F10020
G1 X188.738 Y193.422 F7800
G1 E3.25 F2400
;TYPE:Perimeter
G1 F1800
G1 X188.165 Y193.883 E.06687
G1 X187.551 Y194.335 E.06933
G1 X186.918 Y194.759 E.06928
G1 X186.267 Y195.156 E.06933
G1 X185.599 Y195.524 E.06935
G1 X184.916 Y195.863 E.06933
G1 X184.219 Y196.171 E.06929
G1 X183.509 Y196.449 E.06933
G1 X182.787 Y196.695 E.06936
G1 X182.056 Y196.91 E.06928
