;FLAVOR:RepRap
;TIME:5118
;Filament used: 7.98662m
;Layer height: 0.2
;MINX:144.528
;MINY:151.243
;MINZ:0.25
;MAXX:210.473
;MAXY:217.189
;MAXZ:40.85
;TARGET_MACHINE.NAME:Fusion3 F410
;Generated with Cura_SteamEngine 5.9.1
T0
M82 ;absolute extrusion mode
; Fusion3 F410 start code
M104 S0 ; shutdown heater and prepare to print
G21  ; set units to mm
G90  ; use absolute coordinates
T0  ; select tool 0
G92 E0.0  ; reset e count
M220 S100 ; reset speed multiplier
M140 S55  ; set bed temp and do not wait
G32  ; call to run bed.g
M190 S55 ; Set bed temperature and wait
M109 S220.0 ; set print head temperature and wait
; === pause for heating ===
; reset filament monitor
M42 P63 S0
G4 P100
G4 P50
M42 P63 S1
G1 X350 Y0
G1 Z10.0 F2000  ; move up
G1 E10.0 F500  ; prime extruder
G92 E0.0  ; reset e count
G1 X330 Y15 F9000  ; move back
G1 Z0.25 F1000  ; move down to begin wipe
G1 X150 E4.0 F6000  ; wipe print head (extrude material while we do this)
G92 E0.0  ; reset e count

M83 ;relative extrusion mode
G1 F6000 E-4.25
;LAYER_COUNT:204
;LAYER:0
M107
G1 F300 Z0.45
G0 F6000 X203.229 Y217.186 Z0.45
;TYPE:SKIRT
G1 F300 Z0.25
G1 F6000 E4.25
G1 F2400 X151.813 Y217.189 E2.21629
G1 X149.616 Y216.464 E0.09973
G1 X147.947 Y215.538 E0.08227
G1 X146.479 Y214.105 E0.08843
G1 X145.382 Y212.498 E0.08387
G1 X144.528 Y209.957 E0.11555
G1 X144.53 Y158.946 E2.19884
G1 X144.914 Y157.104 E0.08111
G1 X145.183 Y156.3 E0.03654
G1 X146.327 Y154.539 E0.09052
G1 X147.163 Y153.521 E0.05678
G1 X148.939 Y152.318 E0.09246
G1 X150.089 Y151.718 E0.05591
G1 X152.202 Y151.243 E0.09335
G1 X203.141 Y151.243 E2.19573
G1 X205.217 Y151.907 E0.09395
G1 X206.594 Y152.541 E0.06534
G1 X208.363 Y154.057 E0.10042
G1 X209.647 Y155.917 E0.09742
G1 X210.252 Y157.647 E0.079
G1 X210.409 Y158.755 E0.04824
G1 X210.473 Y209.933 E2.20604
G1 X209.718 Y212.195 E0.10279
G1 X208.725 Y213.911 E0.08546
G1 X207.278 Y215.318 E0.087
G1 X205.703 Y216.362 E0.08145
G1 X203.229 Y217.186 E0.1124
G0 F6000 X203.156 Y216.736
G1 F2400 X151.884 Y216.739 E2.21009
G1 X149.796 Y216.05 E0.09478
G1 X148.219 Y215.175 E0.07774
G1 X146.828 Y213.817 E0.0838
G1 X145.789 Y212.295 E0.07944
G1 X144.978 Y209.882 E0.10973
G1 X144.98 Y158.994 E2.19353
G1 X145.341 Y157.247 E0.0769
G1 X145.592 Y156.498 E0.03405
G1 X146.675 Y154.825 E0.08591
G1 X147.471 Y153.856 E0.05405
G1 X149.147 Y152.717 E0.08735
G1 X150.245 Y152.144 E0.05339
G1 X152.252 Y151.693 E0.08867
G1 X203.071 Y151.693 E2.19056
G1 X205.029 Y152.316 E0.08857
G1 X206.348 Y152.923 E0.06259
G1 X208.027 Y154.362 E0.09532
G1 X209.241 Y156.121 E0.09213
G1 X209.812 Y157.754 E0.07457
G1 X209.963 Y158.818 E0.04632
G1 X210.023 Y209.86 E2.20017
G1 X209.306 Y212.008 E0.09761
G1 X208.367 Y213.631 E0.08082
G1 X206.993 Y214.967 E0.08261
G1 X205.504 Y215.954 E0.077
G1 X203.156 Y216.736 E0.10668
G0 F6000 X203.083 Y216.286
G1 F2400 X151.955 Y216.289 E2.20388
G1 X149.976 Y215.636 E0.08983
G1 X148.491 Y214.812 E0.07321
G1 X147.177 Y213.529 E0.07916
G1 X146.196 Y212.092 E0.075
G1 X145.428 Y209.807 E0.10391
G1 X145.43 Y159.041 E2.18828
G1 X145.782 Y157.338 E0.07496
G1 X145.999 Y156.698 E0.02913
G1 X147.053 Y155.07 E0.0836
G1 X147.779 Y154.191 E0.04914
G1 X149.4 Y153.089 E0.08449
G1 X150.399 Y152.571 E0.04851
G1 X152.302 Y152.143 E0.08408
G1 X203.001 Y152.143 E2.18539
G1 X204.841 Y152.725 E0.08319
G1 X206.102 Y153.305 E0.05983
G1 X207.691 Y154.667 E0.09021
G1 X208.835 Y156.325 E0.08683
G1 X209.372 Y157.861 E0.07014
G1 X209.517 Y158.881 E0.04441
G1 X209.573 Y209.787 E2.19431
G1 X208.894 Y211.821 E0.09243
G1 X208.009 Y213.351 E0.07619
G1 X206.708 Y214.616 E0.07822
G1 X205.305 Y215.546 E0.07256
G1 X203.083 Y216.286 E0.10095
G0 F6000 X203.01 Y215.836
G1 F2400 X152.026 Y215.839 E2.19767
G1 X150.156 Y215.222 E0.08488
G1 X148.763 Y214.449 E0.06867
G1 X147.526 Y213.241 E0.07453
G1 X146.603 Y211.889 E0.07056
G1 X145.878 Y209.732 E0.09809
G1 X145.88 Y159.088 E2.18302
G1 X146.223 Y157.429 E0.07302
G1 X146.406 Y156.898 E0.02421
G1 X147.431 Y155.315 E0.08129
G1 X148.085 Y154.528 E0.04411
G1 X149.607 Y153.489 E0.07944
G1 X150.556 Y152.997 E0.04608
G1 X152.352 Y152.593 E0.07935
G1 X202.932 Y152.593 E2.18026
G1 X204.653 Y153.134 E0.07776
G1 X205.856 Y153.687 E0.05707
G1 X207.355 Y154.972 E0.08511
G1 X208.43 Y156.53 E0.08159
G1 X208.932 Y157.966 E0.06557
G1 X209.071 Y158.944 E0.04258
G1 X209.123 Y209.714 E2.18845
G1 X208.481 Y211.638 E0.08743
G1 X207.653 Y213.069 E0.07126
G1 X206.423 Y214.265 E0.07395
G1 X205.106 Y215.138 E0.06811
G1 X203.01 Y215.836 E0.09523
G0 F6000 X202.937 Y215.386
G1 F2400 X152.097 Y215.389 E2.19147
G1 X150.336 Y214.808 E0.07993
G1 X149.035 Y214.086 E0.06414
G1 X147.875 Y212.953 E0.0699
G1 X147.01 Y211.686 E0.06613
G1 X146.328 Y209.657 E0.09227
G1 X146.33 Y159.134 E2.1778
G1 X146.649 Y157.575 E0.06859
G1 X146.814 Y157.095 E0.02188
G1 X147.777 Y155.603 E0.07655
G1 X148.392 Y154.863 E0.04148
G1 X149.814 Y153.889 E0.0743
G1 X150.713 Y153.423 E0.04365
G1 X152.402 Y153.043 E0.07462
G1 X202.862 Y153.043 E2.17509
G1 X204.465 Y153.543 E0.07238
G1 X205.61 Y154.069 E0.05431
G1 X207.019 Y155.277 E0.08
G1 X208.025 Y156.735 E0.07636
G1 X208.492 Y158.071 E0.06101
G1 X208.625 Y159.007 E0.04075
G1 X208.673 Y209.641 E2.18259
G1 X208.069 Y211.451 E0.08225
G1 X207.295 Y212.789 E0.06663
G1 X206.138 Y213.914 E0.06956
G1 X204.907 Y214.73 E0.06366
G1 X202.937 Y215.386 E0.0895
G0 F6000 X202.864 Y214.936
G1 F2400 X152.168 Y214.939 E2.18526
G1 X150.52 Y214.395 E0.07481
G1 X149.305 Y213.721 E0.05989
G1 X148.224 Y212.665 E0.06514
G1 X147.417 Y211.483 E0.06169
G1 X146.778 Y209.582 E0.08645
G1 X146.78 Y159.18 E2.17259
G1 X147.09 Y157.665 E0.06666
G1 X147.222 Y157.292 E0.01706
G1 X148.123 Y155.891 E0.0718
G1 X148.698 Y155.199 E0.03878
G1 X150.021 Y154.289 E0.06922
G1 X150.87 Y153.849 E0.04122
G1 X152.452 Y153.493 E0.0699
G1 X202.793 Y153.493 E2.16996
G1 X204.277 Y153.952 E0.06696
G1 X205.364 Y154.451 E0.05156
G1 X206.683 Y155.582 E0.0749
G1 X207.62 Y156.94 E0.07112
G1 X208.052 Y158.176 E0.05644
G1 X208.179 Y159.07 E0.03892
G1 X208.223 Y209.568 E2.17672
G1 X207.656 Y211.268 E0.07725
G1 X206.939 Y212.507 E0.06171
G1 X205.853 Y213.563 E0.06529
G1 X204.708 Y214.322 E0.05921
G1 X202.864 Y214.936 E0.08378
G0 F6000 X202.791 Y214.486
G1 F2400 X152.239 Y214.489 E2.17905
G1 X150.7 Y213.981 E0.06986
G1 X149.579 Y213.359 E0.05526
G1 X148.571 Y212.374 E0.06075
G1 X147.824 Y211.28 E0.0571
G1 X147.228 Y209.507 E0.08063
G1 X147.23 Y159.226 E2.16737
G1 X147.531 Y157.755 E0.06472
G1 X147.628 Y157.493 E0.01204
G1 X148.469 Y156.179 E0.06725
G1 X149.005 Y155.534 E0.03615
G1 X150.228 Y154.689 E0.06408
G1 X151.027 Y154.275 E0.03879
G1 X152.502 Y153.943 E0.06517
G1 X202.726 Y153.943 E2.16491
G1 X204.089 Y154.361 E0.06145
G1 X205.118 Y154.833 E0.0488
G1 X206.347 Y155.887 E0.06979
G1 X207.215 Y157.145 E0.06588
G1 X207.612 Y158.281 E0.05187
G1 X207.733 Y159.133 E0.03709
G1 X207.773 Y209.495 E2.17086
G1 X207.244 Y211.081 E0.07207
G1 X206.581 Y212.227 E0.05707
G1 X205.568 Y213.212 E0.0609
G1 X204.509 Y213.914 E0.05477
G1 X202.791 Y214.486 E0.07805
G0 F6000 X202.718 Y214.036
G1 F2400 X152.31 Y214.039 E2.17284
G1 X150.88 Y213.567 E0.06491
G1 X149.853 Y212.997 E0.05063
G1 X148.918 Y212.083 E0.05636
G1 X148.231 Y211.077 E0.05251
G1 X147.678 Y209.432 E0.07481
G1 X147.68 Y159.272 E2.16215
G1 X147.972 Y157.845 E0.06279
G1 X148.033 Y157.694 E0.00702
G1 X148.815 Y156.467 E0.06272
G1 X149.311 Y155.87 E0.03346
G1 X150.435 Y155.089 E0.059
G1 X151.184 Y154.701 E0.03636
G1 X152.552 Y154.393 E0.06044
G1 X202.659 Y154.393 E2.15987
G1 X203.957 Y154.791 E0.05852
G1 X204.871 Y155.214 E0.04341
G1 X206.011 Y156.192 E0.06475
G1 X206.81 Y157.35 E0.06064
G1 X207.172 Y158.386 E0.0473
G1 X207.287 Y159.196 E0.03527
G1 X207.323 Y209.422 E2.165
G1 X206.832 Y210.894 E0.06689
G1 X206.223 Y211.947 E0.05243
G1 X205.283 Y212.861 E0.05652
G1 X204.31 Y213.506 E0.05032
G1 X202.718 Y214.036 E0.07233
G0 F6000 X202.645 Y213.586
G1 F2400 X152.381 Y213.589 E2.16664
G1 X151.06 Y213.153 E0.05996
G1 X150.127 Y212.635 E0.046
G1 X149.265 Y211.792 E0.05197
G1 X148.638 Y210.874 E0.04792
G1 X148.128 Y209.357 E0.06899
G1 X148.13 Y159.318 E2.15694
G1 X148.413 Y157.935 E0.06085
G1 X149.161 Y156.755 E0.06022
G1 X149.618 Y156.205 E0.03082
G1 X150.642 Y155.489 E0.05386
G1 X151.341 Y155.127 E0.03393
G1 X152.602 Y154.843 E0.05572
G1 X202.592 Y154.843 E2.15483
G1 X203.825 Y155.221 E0.05559
G1 X204.623 Y155.595 E0.03799
G1 X205.675 Y156.497 E0.05973
G1 X206.405 Y157.555 E0.05541
G1 X206.732 Y158.491 E0.04274
G1 X206.841 Y159.259 E0.03344
G1 X206.873 Y209.349 E2.15914
G1 X206.42 Y210.707 E0.06171
G1 X205.865 Y211.667 E0.0478
G1 X204.998 Y212.51 E0.05213
G1 X204.111 Y213.098 E0.04587
G1 X202.645 Y213.586 E0.0666
G0 F6000 X202.572 Y213.136
G1 F2400 X152.452 Y213.139 E2.16043
G1 X151.242 Y212.74 E0.05492
G1 X150.4 Y212.272 E0.04152
G1 X149.612 Y211.501 E0.04752
G1 X149.045 Y210.671 E0.04333
G1 X148.578 Y209.282 E0.06317
G1 X148.58 Y159.364 E2.15172
G1 X148.837 Y158.107 E0.0553
G1 X149.507 Y157.043 E0.0542
G1 X149.926 Y156.539 E0.02825
G1 X150.849 Y155.889 E0.04866
G1 X151.498 Y155.553 E0.0315
G1 X152.652 Y155.293 E0.05099
G1 X202.524 Y155.293 E2.14974
G1 X203.634 Y155.629 E0.04999
G1 X204.377 Y155.977 E0.03537
G1 X205.339 Y156.802 E0.05463
G1 X206 Y157.76 E0.05017
G1 X206.292 Y158.596 E0.03817
G1 X206.395 Y159.322 E0.03161
G1 X206.423 Y209.276 E2.15327
G1 X206.008 Y210.52 E0.05653
G1 X205.507 Y211.387 E0.04316
G1 X204.713 Y212.159 E0.04774
G1 X203.912 Y212.69 E0.04142
G1 X202.572 Y213.136 E0.06088
G0 F6000 X202.499 Y212.686
G1 F2400 X152.523 Y212.689 E2.15422
G1 X151.424 Y212.327 E0.04988
G1 X150.673 Y211.909 E0.03705
G1 X149.959 Y211.21 E0.04307
G1 X149.452 Y210.468 E0.03874
G1 X149.028 Y209.207 E0.05735
G1 X149.03 Y159.41 E2.14651
G1 X149.262 Y158.277 E0.04985
G1 X149.853 Y157.331 E0.04808
G1 X150.234 Y156.873 E0.02568
G1 X151.056 Y156.289 E0.04346
G1 X151.655 Y155.979 E0.02907
G1 X152.702 Y155.743 E0.04626
G1 X202.459 Y155.743 E2.14478
G1 X203.443 Y156.036 E0.04426
G1 X204.128 Y156.357 E0.03261
G1 X205.003 Y157.107 E0.04968
G1 X205.595 Y157.965 E0.04493
G1 X205.852 Y158.701 E0.0336
G1 X205.949 Y159.385 E0.02978
G1 X205.973 Y209.203 E2.14741
G1 X205.596 Y210.333 E0.05135
G1 X205.149 Y211.107 E0.03853
G1 X204.428 Y211.808 E0.04335
G1 X203.713 Y212.282 E0.03698
G1 X202.499 Y212.686 E0.05515
G0 F6000 X202.426 Y212.236
G1 F2400 X152.594 Y212.239 E2.14802
G1 X151.606 Y211.914 E0.04483
G1 X150.944 Y211.545 E0.03267
G1 X150.308 Y210.922 E0.03838
G1 X149.859 Y210.265 E0.0343
G1 X149.478 Y209.132 E0.05153
G1 X149.48 Y159.456 E2.14129
G1 X149.686 Y158.448 E0.04435
G1 X150.235 Y157.57 E0.04464
G1 X150.541 Y157.207 E0.02046
G1 X151.317 Y156.656 E0.04102
G1 X151.81 Y156.405 E0.02385
G1 X152.752 Y156.193 E0.04162
G1 X202.393 Y156.193 E2.13978
G1 X203.252 Y156.444 E0.03858
G1 X203.882 Y156.739 E0.02999
G1 X204.667 Y157.412 E0.04457
G1 X205.19 Y158.17 E0.0397
G1 X205.412 Y158.806 E0.02904
G1 X205.503 Y159.448 E0.02795
G1 X205.523 Y209.13 E2.14155
G1 X205.184 Y210.146 E0.04617
G1 X204.791 Y210.827 E0.03389
G1 X204.143 Y211.457 E0.03896
G1 X203.514 Y211.874 E0.03253
G1 X202.426 Y212.236 E0.04943
G0 F6000 X202.353 Y211.786
G1 F2400 X152.665 Y211.789 E2.14181
G1 X151.789 Y211.501 E0.03975
G1 X151.218 Y211.182 E0.02819
G1 X150.652 Y210.628 E0.03414
G1 X150.267 Y210.065 E0.0294
G1 X149.928 Y209.057 E0.04584
G1 X149.93 Y159.502 E2.13607
G1 X150.111 Y158.618 E0.0389
G1 X150.617 Y157.808 E0.04117
G1 X150.847 Y157.542 E0.01516
G1 X151.521 Y157.057 E0.03579
G1 X151.963 Y156.832 E0.02138
G1 X152.802 Y156.643 E0.03707
G1 X202.328 Y156.643 E2.13482
G1 X203.061 Y156.852 E0.03286
G1 X203.636 Y157.121 E0.02736
G1 X204.331 Y157.717 E0.03947
G1 X204.785 Y158.375 E0.03446
G1 X204.972 Y158.911 E0.02447
G1 X205.057 Y159.511 E0.02612
G1 X205.073 Y209.057 E2.13569
G1 X204.772 Y209.959 E0.04099
G1 X204.433 Y210.547 E0.02926
G1 X203.858 Y211.106 E0.03457
G1 X203.315 Y211.466 E0.02808
G1 X202.353 Y211.786 E0.0437
G0 F6000 X202.28 Y211.336
G1 F2400 X152.738 Y211.339 E2.13551
G1 X151.971 Y211.087 E0.0348
G1 X151.488 Y210.817 E0.02385
G1 X150.998 Y210.337 E0.02957
G1 X150.675 Y209.865 E0.02465
G1 X150.378 Y208.982 E0.04016
G1 X150.38 Y159.548 E2.13086
G1 X150.536 Y158.787 E0.03349
G1 X150.958 Y158.102 E0.03468
G1 X151.153 Y157.876 E0.01287
G1 X151.726 Y157.458 E0.03057
G1 X152.118 Y157.258 E0.01897
G1 X152.852 Y157.093 E0.03243
G1 X202.264 Y157.093 E2.12991
G1 X202.87 Y157.26 E0.0271
G1 X203.39 Y157.503 E0.02474
G1 X203.995 Y158.022 E0.03436
G1 X204.38 Y158.58 E0.02922
G1 X204.532 Y159.016 E0.0199
G1 X204.611 Y159.574 E0.02429
G1 X204.623 Y208.984 E2.12982
G1 X204.36 Y209.772 E0.03581
G1 X204.073 Y210.269 E0.02474
G1 X203.576 Y210.753 E0.0299
G1 X203.116 Y211.058 E0.02379
G1 X202.28 Y211.336 E0.03798
G0 F6000 X202.207 Y210.886
G1 F2400 X152.811 Y210.889 E2.12922
G1 X152.153 Y210.673 E0.02985
G1 X151.758 Y210.452 E0.01951
G1 X151.344 Y210.046 E0.02499
G1 X151.083 Y209.665 E0.01991
G1 X150.828 Y208.907 E0.03447
G1 X150.83 Y159.594 E2.12564
G1 X150.961 Y158.955 E0.02812
G1 X151.341 Y158.338 E0.03124
G1 X151.459 Y158.21 E0.0075
G1 X151.991 Y157.822 E0.02838
G1 X152.272 Y157.684 E0.01349
G1 X152.901 Y157.543 E0.02779
G1 X202.202 Y157.543 E2.12513
G1 X202.75 Y157.694 E0.0245
G1 X203.142 Y157.884 E0.01878
G1 X203.658 Y158.326 E0.02929
G1 X203.975 Y158.786 E0.02408
G1 X204.092 Y159.121 E0.0153
G1 X204.165 Y159.637 E0.02246
G1 X204.173 Y208.91 E2.12392
G1 X203.947 Y209.586 E0.03072
G1 X203.713 Y209.991 E0.02016
G1 X203.294 Y210.4 E0.02524
G1 X202.917 Y210.65 E0.0195
G1 X202.207 Y210.886 E0.03225
G0 F6000 X202.72 Y210.241
G1 F2400 X202.134 Y210.436 E0.02662
G1 X152.884 Y210.439 E2.12293
G1 X152.335 Y210.259 E0.0249
G1 X152.028 Y210.087 E0.01517
G1 X151.692 Y209.757 E0.0203
G1 X151.489 Y209.461 E0.01547
G1 X151.278 Y208.834 E0.02852
G1 X151.28 Y159.64 E2.12051
G1 X151.386 Y159.123 E0.02275
G1 X151.724 Y158.574 E0.02779
G1 X152.256 Y158.186 E0.02838
G1 X152.423 Y158.111 E0.00789
G1 X152.95 Y157.993 E0.02328
G1 X202.141 Y157.993 E2.12038
G1 X202.589 Y158.116 E0.02003
G1 X202.893 Y158.264 E0.01457
G1 X203.322 Y158.631 E0.02434
G1 X203.571 Y158.992 E0.0189
G1 X203.646 Y159.184 E0.00889
G1 X203.719 Y159.7 E0.02246
G1 X203.723 Y208.836 E2.11801
G1 X203.534 Y209.4 E0.02564
G1 X203.353 Y209.714 E0.01562
G1 X203.01 Y210.049 E0.02067
G1 X202.72 Y210.241 E0.01499
G1 F6000 E-4.25
G1 F300 Z0.45
G0 F6000 X202.382 Y209.405 Z0.45
G1 F300 Z0.25
G1 F6000 E4.25
G1 F2400 X201.988 Y209.536 E0.0179
G1 X153.03 Y209.539 E2.11034
G1 X152.615 Y209.403 E0.01882
G1 X152.322 Y209.115 E0.01771
G1 X152.178 Y208.688 E0.01942
G1 X152.18 Y159.732 E2.11025
G1 X152.236 Y159.458 E0.01205
G1 X152.396 Y159.198 E0.01316
G1 X152.711 Y158.969 E0.01679
G1 X153.049 Y158.893 E0.01493
G1 X202.019 Y158.893 E2.11086
G1 X202.351 Y158.984 E0.01484
G1 X202.692 Y159.275 E0.01932
G1 X202.768 Y159.41 E0.00668
G1 X202.823 Y159.763 E0.0154
G1 X202.823 Y208.688 E2.10892
G1 X202.68 Y209.114 E0.01937
G1 X202.382 Y209.405 E0.01795
G0 F6000 X202.524 Y209.832
G1 F2400 X202.061 Y209.986 E0.02103
G1 X152.957 Y209.989 E2.11663
G1 X152.475 Y209.831 E0.02186
G1 X152.3 Y209.724 E0.00884
G1 X152.007 Y209.436 E0.01771
G1 X151.896 Y209.259 E0.00901
G1 X151.728 Y208.761 E0.02265
G1 X151.73 Y159.686 E2.11538
G1 X151.811 Y159.291 E0.01738
G1 X152.06 Y158.886 E0.02049
G1 X152.521 Y158.55 E0.02459
G1 X152.999 Y158.443 E0.02111
G1 X202.08 Y158.443 E2.11564
G1 X202.47 Y158.55 E0.01743
G1 X202.643 Y158.642 E0.00845
G1 X202.984 Y158.933 E0.01932
G1 X203.2 Y159.247 E0.01643
G1 X203.273 Y159.763 E0.02246
G1 X203.273 Y208.762 E2.11211
G1 X203.107 Y209.257 E0.0225
