; generated by F3Slic3r 2.6.0-alpha4 on 2025-01-11 at 20:18:30 UTC

; 

; external perimeters extrusion width = 0.40mm
; perimeters extrusion width = 0.40mm
; infill extrusion width = 0.45mm
; solid infill extrusion width = 0.40mm
; top infill extrusion width = 0.40mm
; first layer extrusion width = 0.40mm

M107
;TYPE:Custom
; Fusion3 F410 F3Slic3r start script
; Rev 2023.01.16
M104 S0 
G21  
G90  
T0  
G92 E0.0  
M220 S100 
M140 S100  
G32 
M190 S100  
M109 S210  
; === pause for heating ===
; reset filament monitor
M42 P63 S0
G4 P100
G4 P50
M42 P63 S1
;
G1 Z10.0 F2000  ; move up
G1 E30.0 F500  ; prime extruder
G1 X20 Y15 F9000  ; move back
G1 Z0 F1000  ; move down to begin wipe
G1 X150 E4.0 F10000  ; wipe print head (extrude material while we do this)
G92 E0.0  ; reset e count
G21 ; set units to millimeters
G90 ; use absolute coordinates
M83 ; use relative distances for extrusion
; Filament gcode
M107
;LAYER_CHANGE
;Z:0.2
;HEIGHT:0.2
G1 Z.2 F27000
G1 E-3.25 F10020
G1 X224.488 Y61.732 F27000
G1 E3.25 F2400
;TYPE:Skirt/Brim
;WIDTH:0.4
G1 F3000
G1 X225.638 Y59.579 E.07247
G1 X227.419 Y57.909 E.07249
G1 X229.642 Y56.899 E.0725
G1 X231.591 Y56.641 E.05837
G1 X249.607 Y56.641 E.53492
G1 X252.015 Y57.038 E.07246
G1 X254.169 Y58.188 E.0725
G1 X255.839 Y59.969 E.07249
G1 X256.848 Y62.192 E.07248
G1 X257.106 Y64.141 E.05837
G1 X257.106 Y82.157 E.53492
G1 X256.709 Y84.565 E.07246
G1 X255.559 Y86.719 E.0725
G1 X253.778 Y88.389 E.07249
G1 X251.556 Y89.399 E.07247
G1 X249.607 Y89.656 E.05837
G1 X231.591 Y89.656 E.53492
G1 X229.182 Y89.259 E.07249
G1 X227.028 Y88.109 E.0725
G1 X225.358 Y86.328 E.07249
G1 X224.349 Y84.106 E.07246
G1 X224.091 Y82.157 E.05837
G1 X224.091 Y64.141 E.53492
G1 X224.479 Y61.791 E.07072
G1 X224.835 Y61.852 F27000
G1 F3000
G1 X224.845 Y61.792 E.00181
G1 X225.993 Y59.705 E.07072
G1 X227.763 Y58.111 E.07072
G1 X229.959 Y57.187 E.07074
G1 X231.591 Y56.998 E.04878
G1 X249.607 Y56.998 E.53492
G1 X251.955 Y57.395 E.0707
G1 X254.043 Y58.543 E.07075
G1 X255.637 Y60.313 E.07072
G1 X256.56 Y62.509 E.07073
G1 X256.749 Y64.141 E.04878
G1 X256.749 Y82.157 E.53492
G1 X256.352 Y84.505 E.0707
G1 X255.204 Y86.593 E.07075
G1 X253.434 Y88.187 E.07072
G1 X251.239 Y89.11 E.0707
G1 X249.607 Y89.299 E.04878
G1 X231.591 Y89.299 E.53492
G1 X229.242 Y88.902 E.07073
G1 X227.154 Y87.755 E.07073
G1 X225.56 Y85.985 E.07072
G1 X224.637 Y83.789 E.07073
G1 X224.448 Y82.157 E.04878
G1 X224.448 Y64.141 E.53492
G1 X224.825 Y61.911 E.06715
G1 X225.182 Y61.973 F27000
G1 F3000
G1 X225.202 Y61.854 E.00358
G1 X226.347 Y59.834 E.06894
G1 X228.105 Y58.319 E.06891
G1 X230.272 Y57.485 E.06894
G1 X231.591 Y57.355 E.03935
G1 X249.607 Y57.355 E.53492
G1 X251.894 Y57.752 E.06892
G1 X253.913 Y58.897 E.06892
G1 X255.428 Y60.655 E.06891
G1 X256.263 Y62.822 E.06895
G1 X256.392 Y64.141 E.03935
G1 X256.392 Y82.157 E.53492
G1 X255.995 Y84.444 E.06892
G1 X254.85 Y86.463 E.06892
G1 X253.092 Y87.979 E.06892
G1 X250.926 Y88.813 E.06891
G1 X249.607 Y88.942 E.03935
G1 X231.591 Y88.942 E.53492
G1 X229.304 Y88.545 E.06892
G1 X227.284 Y87.4 E.06894
G1 X225.769 Y85.642 E.06891
G1 X224.935 Y83.476 E.06891
G1 X224.805 Y82.157 E.03935
G1 X224.805 Y64.141 E.53492
G1 X225.171 Y62.032 E.06355
G1 X225.527 Y62.095 F27000
G1 F3000
G1 X225.559 Y61.917 E.00537
G1 X226.701 Y59.968 E.06707
G1 X228.446 Y58.534 E.06706
G1 X231.591 Y57.712 E.09652
G1 X249.607 Y57.712 E.53492
G1 X251.83 Y58.109 E.06705
G1 X253.78 Y59.251 E.0671
G1 X255.213 Y60.996 E.06704
G1 X256.035 Y64.141 E.09652
G1 X256.035 Y82.157 E.53492
G1 X255.638 Y84.38 E.06705
G1 X254.496 Y86.33 E.0671
G1 X252.751 Y87.764 E.06706
G1 X249.607 Y88.585 E.09648
G1 X231.591 Y88.585 E.53492
G1 X229.367 Y88.188 E.06708
G1 X227.418 Y87.046 E.06707
G1 X225.984 Y85.301 E.06706
G1 X225.162 Y82.157 E.09649
G1 X225.162 Y64.141 E.53492
G1 X225.517 Y62.154 E.05993
G1 X225.872 Y62.22 F27000
G1 F3000
G1 X225.916 Y61.982 E.00719
G1 X227.054 Y60.106 E.06515
G1 X228.785 Y58.756 E.06518
G1 X231.591 Y58.069 E.08577
G1 X249.607 Y58.069 E.53492
G1 X251.765 Y58.466 E.06515
G1 X253.642 Y59.604 E.06517
G1 X254.991 Y61.336 E.06518
G1 X255.678 Y64.141 E.08575
G1 X255.678 Y82.157 E.53492
G1 X255.281 Y84.315 E.06515
G1 X254.143 Y86.192 E.06517
G1 X252.412 Y87.541 E.06516
G1 X249.607 Y88.228 E.08575
G1 X231.591 Y88.228 E.53492
G1 X229.432 Y87.831 E.06518
G1 X227.555 Y86.693 E.06517
G1 X226.206 Y84.962 E.06516
G1 X225.519 Y82.157 E.08575
G1 X225.519 Y64.141 E.53492
G1 X225.862 Y62.279 E.05622
G1 X226.217 Y62.346 F27000
G1 F3000
G1 X226.273 Y62.049 E.00897
G1 X227.407 Y60.248 E.06319
G1 X229.122 Y58.987 E.0632
G1 X231.591 Y58.427 E.07517
G1 X249.607 Y58.427 E.53492
G1 X251.698 Y58.823 E.06319
G1 X253.499 Y59.958 E.06321
G1 X254.76 Y61.673 E.0632
G1 X255.321 Y64.141 E.07515
G1 X255.321 Y82.157 E.53492
G1 X254.924 Y84.248 E.06319
G1 X253.79 Y86.049 E.06319
G1 X252.075 Y87.31 E.0632
G1 X249.607 Y87.871 E.07515
G1 X231.591 Y87.871 E.53492
G1 X229.499 Y87.474 E.06322
G1 X227.698 Y86.34 E.06319
G1 X226.437 Y84.625 E.0632
G1 X225.876 Y82.157 E.07515
G1 X225.876 Y64.141 E.53492
G1 X226.205 Y62.405 E.05246
G1 X226.56 Y62.474 F27000
G1 F3000
G1 X226.63 Y62.119 E.01074
G1 X227.76 Y60.396 E.06118
G1 X229.457 Y59.227 E.06118
G1 X231.591 Y58.784 E.06471
G1 X249.607 Y58.784 E.53492
G1 X251.629 Y59.18 E.06118
G1 X253.352 Y60.31 E.06118
G1 X254.52 Y62.007 E.06117
G1 X254.964 Y64.141 E.06472
G1 X254.964 Y82.157 E.53492
G1 X254.567 Y84.179 E.06118
G1 X253.437 Y85.902 E.06118
G1 X251.74 Y87.071 E.06118
G1 X249.607 Y87.514 E.06468
G1 X231.591 Y87.514 E.53492
G1 X229.569 Y87.118 E.06118
G1 X227.846 Y85.987 E.06119
G1 X226.677 Y84.29 E.06118
G1 X226.234 Y82.157 E.06468
G1 X226.234 Y64.141 E.53492
G1 X226.549 Y62.533 E.04865
G1 E-3.25 F10020
G1 X249.05 Y81.6 F27000
G1 E3.25 F2400
;TYPE:Perimeter
;WIDTH:0.399999
G1 F3000
G1 X232.148 Y81.6 E.50184
G1 X232.148 Y64.698 E.50184
G1 X249.05 Y64.698 E.50184
G1 X249.05 Y81.54 E.50006
G1 X249.407 Y81.957 F27000
;TYPE:External perimeter
G1 F3000
G1 X231.791 Y81.957 E.52304
G1 X231.791 Y64.341 E.52304
G1 X249.407 Y64.341 E.52304
G1 X249.407 Y81.897 E.52126
G1 X249.02 Y81.853 F27000
G1 E-3.25 F10020
G1 X248.174 Y64.841 F27000
G1 E3.25 F2400
;TYPE:Solid infill
;WIDTH:0.405218
G1 F3000
G1 X248.746 Y65.413 E.02437
G1 X248.746 Y65.925 E.01542
G1 X247.822 Y65.001 E.03937
G1 X247.31 Y65.001 E.01542
G1 X248.746 Y66.438 E.0612
G1 X248.746 Y66.95 E.01542
G1 X246.797 Y65.001 E.08303
G1 X246.285 Y65.001 E.01542
G1 X248.746 Y67.462 E.10485
G1 X248.746 Y67.975 E.01545
G1 X245.773 Y65.001 E.12668
G1 X245.26 Y65.001 E.01545
G1 X248.746 Y68.487 E.14852
G1 X248.746 Y68.999 E.01542
G1 X244.748 Y65.001 E.17033
G1 X244.236 Y65.001 E.01542
G1 X248.746 Y69.512 E.19216
G1 X248.746 Y70.024 E.01542
G1 X243.723 Y65.001 E.214
G1 X243.211 Y65.001 E.01542
G1 X248.746 Y70.536 E.23581
G1 X248.746 Y71.049 E.01545
G1 X242.698 Y65.001 E.25767
G1 X242.186 Y65.001 E.01542
G1 X248.746 Y71.561 E.27948
G1 X248.746 Y72.074 E.01545
G1 X241.674 Y65.001 E.30131
G1 X241.161 Y65.001 E.01545
G1 X248.746 Y72.586 E.32315
G1 X248.746 Y73.098 E.01542
G1 X240.649 Y65.001 E.34496
G1 X240.137 Y65.001 E.01542
G1 X248.746 Y73.611 E.36679
G1 X248.746 Y74.123 E.01542
G1 X239.624 Y65.001 E.38863
G1 X239.112 Y65.001 E.01542
G1 X248.746 Y74.635 E.41044
G1 X248.746 Y75.148 E.01545
G1 X238.6 Y65.001 E.43228
G1 X238.087 Y65.001 E.01545
G1 X248.746 Y75.66 E.45411
G1 X248.746 Y76.173 E.01545
G1 X237.575 Y65.001 E.47594
G1 X237.062 Y65.001 E.01545
G1 X248.746 Y76.685 E.49778
G1 X248.746 Y77.197 E.01542
G1 X236.55 Y65.001 E.51959
G1 X236.038 Y65.001 E.01542
G1 X248.746 Y77.71 E.54143
G1 X248.746 Y78.222 E.01542
G1 X235.525 Y65.001 E.56326
G1 X235.013 Y65.001 E.01542
G1 X248.746 Y78.734 E.58507
G1 X248.746 Y79.247 E.01545
G1 X234.501 Y65.001 E.60691
G1 X233.988 Y65.001 E.01545
G1 X248.746 Y79.759 E.62874
G1 X248.746 Y80.271 E.01542
G1 X233.476 Y65.001 E.65056
G1 X232.963 Y65.001 E.01545
G1 X248.746 Y80.784 E.67241
G1 X248.746 Y81.296 E.01542
G1 X232.451 Y65.001 E.69422
G1 X232.451 Y65.514 E.01545
G1 X248.234 Y81.296 E.67239
G1 X247.721 Y81.296 E.01545
G1 X232.451 Y66.026 E.65056
G1 X232.451 Y66.538 E.01542
G1 X247.209 Y81.296 E.62874
G1 X246.697 Y81.296 E.01542
G1 X232.451 Y67.051 E.60691
G1 X232.451 Y67.563 E.01542
G1 X246.184 Y81.296 E.58507
G1 X245.672 Y81.296 E.01542
G1 X232.451 Y68.076 E.56324
G1 X232.451 Y68.588 E.01542
G1 X245.159 Y81.296 E.5414
G1 X244.647 Y81.296 E.01542
G1 X232.451 Y69.1 E.51959
G1 X232.451 Y69.613 E.01545
G1 X244.135 Y81.296 E.49776
G1 X243.622 Y81.296 E.01545
G1 X232.451 Y70.125 E.47592
G1 X232.451 Y70.637 E.01542
G1 X243.11 Y81.296 E.45411
G1 X242.598 Y81.296 E.01542
G1 X232.451 Y71.15 E.43228
G1 X232.451 Y71.662 E.01542
G1 X242.085 Y81.296 E.41044
G1 X241.573 Y81.296 E.01542
G1 X232.451 Y72.174 E.38863
G1 X232.451 Y72.687 E.01545
G1 X241.06 Y81.296 E.36677
G1 X240.548 Y81.296 E.01542
G1 X232.451 Y73.199 E.34496
G1 X232.451 Y73.712 E.01545
G1 X240.036 Y81.296 E.32313
G1 X239.523 Y81.296 E.01545
G1 X232.451 Y74.224 E.30129
G1 X232.451 Y74.736 E.01542
G1 X239.011 Y81.296 E.27948
G1 X238.499 Y81.296 E.01542
G1 X232.451 Y75.249 E.25764
G1 X232.451 Y75.761 E.01542
G1 X237.986 Y81.296 E.23581
G1 X237.474 Y81.296 E.01542
G1 X232.451 Y76.273 E.214
G1 X232.451 Y76.786 E.01545
G1 X236.962 Y81.296 E.19216
G1 X236.449 Y81.296 E.01545
G1 X232.451 Y77.298 E.17033
G1 X232.451 Y77.81 E.01542
G1 X235.937 Y81.296 E.14852
G1 X235.424 Y81.296 E.01545
G1 X232.451 Y78.323 E.12666
G1 X232.451 Y78.835 E.01542
G1 X234.912 Y81.296 E.10485
G1 X234.4 Y81.296 E.01542
G1 X232.451 Y79.348 E.08301
G1 X232.451 Y79.86 E.01542
G1 X233.887 Y81.296 E.06118
G1 X233.375 Y81.296 E.01542
G1 X232.451 Y80.372 E.03937
G1 X232.451 Y80.885 E.01545
G1 X233.023 Y81.457 E.02437
;LAYER_CHANGE
;Z:0.4
;HEIGHT:0.2
G1 Z.4 F27000
G1 E-3.25 F10020
G1 X249.05 Y81.6 F27000
G1 E3.25 F2400
;TYPE:Perimeter
;WIDTH:0.399999
G1 F6000
G1 X232.148 Y81.6 E.50184
G1 X232.148 Y64.698 E.50184
G1 X249.05 Y64.698 E.50184
G1 X249.05 Y81.54 E.50006
G1 X249.407 Y81.957 F27000
;TYPE:External perimeter
G1 F3000
G1 X231.791 Y81.957 E.52304
G1 X231.791 Y64.341 E.52304
G1 X249.407 Y64.341 E.52304
G1 X249.407 Y81.897 E.52126
G1 X249.02 Y81.853 F27000
G1 E-3.25 F10020
G1 X248.907 Y80.724 F27000
G1 E3.25 F2400
;TYPE:Solid infill
;WIDTH:0.405218
G1 F6000
G1 X248.334 Y81.296 E.02439
G1 X247.822 Y81.296 E.01542
G1 X248.746 Y80.372 E.03937
G1 X248.746 Y79.86 E.01542
G1 X247.31 Y81.296 E.06118
G1 X246.797 Y81.296 E.01545
G1 X248.746 Y79.347 E.08303
G1 X248.746 Y78.835 E.01542
G1 X246.285 Y81.296 E.10485
G1 X245.773 Y81.296 E.01542
G1 X248.746 Y78.323 E.12666
G1 X248.746 Y77.81 E.01545
G1 X245.26 Y81.296 E.14852
G1 X244.748 Y81.296 E.01542
G1 X248.746 Y77.298 E.17033
G1 X248.746 Y76.786 E.01542
G1 X244.236 Y81.296 E.19214
G1 X243.723 Y81.296 E.01545
G1 X248.746 Y76.273 E.214
G1 X248.746 Y75.761 E.01542
G1 X243.211 Y81.296 E.23581
G1 X242.698 Y81.296 E.01545
G1 X248.746 Y75.249 E.25764
G1 X248.746 Y74.736 E.01545
G1 X242.186 Y81.296 E.27948
G1 X241.674 Y81.296 E.01542
G1 X248.746 Y74.224 E.30129
G1 X248.746 Y73.711 E.01545
G1 X241.161 Y81.296 E.32315
G1 X240.649 Y81.296 E.01542
G1 X248.746 Y73.199 E.34496
G1 X248.746 Y72.687 E.01542
G1 X240.137 Y81.296 E.36677
G1 X239.624 Y81.296 E.01545
G1 X248.746 Y72.174 E.38863
G1 X248.746 Y71.662 E.01542
G1 X239.112 Y81.296 E.41044
G1 X238.6 Y81.296 E.01542
G1 X248.746 Y71.15 E.43225
G1 X248.746 Y70.637 E.01545
G1 X238.087 Y81.296 E.45411
G1 X237.575 Y81.296 E.01542
G1 X248.746 Y70.125 E.47592
G1 X248.746 Y69.613 E.01542
G1 X237.062 Y81.296 E.49776
G1 X236.55 Y81.296 E.01542
G1 X248.746 Y69.1 E.51959
G1 X248.746 Y68.588 E.01542
G1 X236.038 Y81.296 E.5414
G1 X235.525 Y81.296 E.01545
G1 X248.746 Y68.075 E.56326
G1 X248.746 Y67.563 E.01542
G1 X235.013 Y81.296 E.58507
G1 X234.501 Y81.296 E.01542
G1 X248.746 Y67.051 E.60689
G1 X248.746 Y66.538 E.01545
G1 X233.988 Y81.296 E.62874
G1 X233.476 Y81.296 E.01542
G1 X248.746 Y66.026 E.65056
G1 X248.746 Y65.514 E.01542
G1 X232.963 Y81.296 E.67239
G1 X232.451 Y81.296 E.01542
G1 X248.746 Y65.001 E.69422
G1 X248.234 Y65.001 E.01542
G1 X232.451 Y80.784 E.67241
G1 X232.451 Y80.271 E.01545
G1 X247.721 Y65.001 E.65056
G1 X247.209 Y65.001 E.01542
G1 X232.451 Y79.759 E.62874
G1 X232.451 Y79.247 E.01542
G1 X246.696 Y65.001 E.60691
G1 X246.184 Y65.001 E.01542
G1 X232.451 Y78.734 E.58507
G1 X232.451 Y78.222 E.01542
G1 X245.672 Y65.001 E.56326
G1 X245.159 Y65.001 E.01545
G1 X232.451 Y77.709 E.5414
G1 X232.451 Y77.197 E.01542
G1 X244.647 Y65.001 E.51959
G1 X244.135 Y65.001 E.01542
G1 X232.451 Y76.685 E.49778
G1 X232.451 Y76.172 E.01545
G1 X243.622 Y65.001 E.47592
G1 X243.11 Y65.001 E.01542
G1 X232.451 Y75.66 E.45411
G1 X232.451 Y75.148 E.01542
G1 X242.598 Y65.001 E.4323
G1 X242.085 Y65.001 E.01545
G1 X232.451 Y74.635 E.41044
G1 X232.451 Y74.123 E.01542
G1 X241.573 Y65.001 E.38863
G1 X241.06 Y65.001 E.01545
G1 X232.451 Y73.611 E.36679
G1 X232.451 Y73.098 E.01545
G1 X240.548 Y65.001 E.34496
G1 X240.036 Y65.001 E.01542
G1 X232.451 Y72.586 E.32315
G1 X232.451 Y72.073 E.01545
G1 X239.523 Y65.001 E.30129
G1 X239.011 Y65.001 E.01542
G1 X232.451 Y71.561 E.27948
G1 X232.451 Y71.049 E.01542
G1 X238.499 Y65.001 E.25767
G1 X237.986 Y65.001 E.01545
G1 X232.451 Y70.536 E.23581
G1 X232.451 Y70.024 E.01542
G1 X237.474 Y65.001 E.214
G1 X236.962 Y65.001 E.01542
G1 X232.451 Y69.512 E.19218
G1 X232.451 Y68.999 E.01545
G1 X236.449 Y65.001 E.17033
G1 X235.937 Y65.001 E.01542
G1 X232.451 Y68.487 E.14852
G1 X232.451 Y67.975 E.01542
G1 X235.424 Y65.001 E.12668
G1 X234.912 Y65.001 E.01542
G1 X232.451 Y67.462 E.10485
G1 X232.451 Y66.95 E.01542
G1 X234.4 Y65.001 E.08303
G1 X233.887 Y65.001 E.01545
G1 X232.451 Y66.437 E.06118
G1 X232.451 Y65.925 E.01542
G1 X233.375 Y65.001 E.03937
G1 X232.863 Y65.001 E.01542
G1 X232.29 Y65.573 E.02439
;LAYER_CHANGE
;Z:0.6
;HEIGHT:0.2
G1 Z.6 F27000
G1 E-3.25 F10020
G1 X249.05 Y81.6 F27000
G1 E3.25 F2400
;TYPE:Perimeter
;WIDTH:0.399999
G1 F6000
G1 X232.148 Y81.6 E.50184
G1 X232.148 Y64.698 E.50184
G1 X249.05 Y64.698 E.50184
G1 X249.05 Y81.54 E.50006
G1 X249.407 Y81.957 F27000
;TYPE:External perimeter
G1 F3000
G1 X231.791 Y81.957 E.52304
G1 X231.791 Y64.341 E.52304
G1 X249.407 Y64.341 E.52304
G1 X249.407 Y81.897 E.52126
G1 X249.02 Y81.853 F27000
G1 E-3.25 F10020
G1 X248.174 Y64.841 F27000
G1 E3.25 F2400
;TYPE:Solid infill
;WIDTH:0.405218
G1 F6000
G1 X248.746 Y65.413 E.02437
G1 X248.746 Y65.925 E.01542
G1 X247.822 Y65.001 E.03937
G1 X247.31 Y65.001 E.01542
G1 X248.746 Y66.438 E.0612
G1 X248.746 Y66.95 E.01542
G1 X246.797 Y65.001 E.08303
G1 X246.285 Y65.001 E.01542
G1 X248.746 Y67.462 E.10485
G1 X248.746 Y67.975 E.01545
G1 X245.773 Y65.001 E.12668
G1 X245.26 Y65.001 E.01545
G1 X248.746 Y68.487 E.14852
G1 X248.746 Y68.999 E.01542
G1 X244.748 Y65.001 E.17033
G1 X244.236 Y65.001 E.01542
G1 X248.746 Y69.512 E.19216
G1 X248.746 Y70.024 E.01542
G1 X243.723 Y65.001 E.214
G1 X243.211 Y65.001 E.01542
G1 X248.746 Y70.536 E.23581
G1 X248.746 Y71.049 E.01545
G1 X242.698 Y65.001 E.25767
G1 X242.186 Y65.001 E.01542
G1 X248.746 Y71.561 E.27948
G1 X248.746 Y72.074 E.01545
G1 X241.674 Y65.001 E.30131
G1 X241.161 Y65.001 E.01545
G1 X248.746 Y72.586 E.32315
G1 X248.746 Y73.098 E.01542
G1 X240.649 Y65.001 E.34496
G1 X240.137 Y65.001 E.01542
G1 X248.746 Y73.611 E.36679
G1 X248.746 Y74.123 E.01542
G1 X239.624 Y65.001 E.38863
G1 X239.112 Y65.001 E.01542
G1 X248.746 Y74.635 E.41044
G1 X248.746 Y75.148 E.01545
G1 X238.6 Y65.001 E.43228
G1 X238.087 Y65.001 E.01545
G1 X248.746 Y75.66 E.45411
G1 X248.746 Y76.173 E.01545
G1 X237.575 Y65.001 E.47594
G1 X237.062 Y65.001 E.01545
G1 X248.746 Y76.685 E.49778
G1 X248.746 Y77.197 E.01542
G1 X236.55 Y65.001 E.51959
G1 X236.038 Y65.001 E.01542
G1 X248.746 Y77.71 E.54143
G1 X248.746 Y78.222 E.01542
G1 X235.525 Y65.001 E.56326
G1 X235.013 Y65.001 E.01542
G1 X248.746 Y78.734 E.58507
G1 X248.746 Y79.247 E.01545
G1 X234.501 Y65.001 E.60691
G1 X233.988 Y65.001 E.01545
G1 X248.746 Y79.759 E.62874
G1 X248.746 Y80.271 E.01542
G1 X233.476 Y65.001 E.65056
G1 X232.963 Y65.001 E.01545
G1 X248.746 Y80.784 E.67241
G1 X248.746 Y81.296 E.01542
G1 X232.451 Y65.001 E.69422
