; generated by F3Slic3r 2.6.0-alpha4 on 2025-02-07 at 23:15:06 UTC

; 

; external perimeters extrusion width = 0.68mm
; perimeters extrusion width = 0.68mm
; infill extrusion width = 0.68mm
; solid infill extrusion width = 0.68mm
; top infill extrusion width = 0.60mm
; first layer extrusion width = 0.70mm

; external perimeters extrusion width = 0.68mm
; perimeters extrusion width = 0.68mm
; infill extrusion width = 0.68mm
; solid infill extrusion width = 0.68mm
; top infill extrusion width = 0.60mm
; first layer extrusion width = 0.70mm

M107
;TYPE:Custom
; Fusion3 F410 F3Slic3r start script
; Rev 2023.01.16
M104 S0 
G21  
G90  
T0  
G92 E0.0  
M220 S100 
M140 S60  
G32 
M190 S60  
M109 S220  
; === pause for heating ===
; reset filament monitor
M42 P63 S0
G4 P100
G4 P50
M42 P63 S1
;
G1 Z10.0 F2000  ; move up
G1 E30.0 F500  ; prime extruder
G1 X20 Y15 F9000  ; move back
G1 Z0 F1000  ; move down to begin wipe
G1 X150 E4.0 F10000  ; wipe print head (extrude material while we do this)
G92 E0.0  ; reset e count
G21 ; set units to millimeters
G90 ; use absolute coordinates
M83 ; use relative distances for extrusion
; Filament gcode
M107
;LAYER_CHANGE
;Z:0.35
;HEIGHT:0.35
G1 Z.35 F7800
G1 E-3.25 F10020
G1 X82.925 Y150.061 F7800
G1 E3.25 F2400
;TYPE:Skirt/Brim
;WIDTH:0.7
G1 F1800
G1 X85.886 Y149.172 E.28112
G1 X151.73 Y145.485 E5.99655
G1 X202.9 Y145.475 E4.65287
G1 X205.159 Y145.872 E.20856
G1 X207.147 Y147.015 E.20852
G1 X208.626 Y148.768 E.20855
G1 X209.419 Y150.92 E.20854
G1 X209.525 Y152.1 E.10773
G1 X209.525 Y202.9 E4.61922
G1 X209.128 Y205.159 E.20856
G1 X207.985 Y207.147 E.20852
G1 X206.232 Y208.626 E.20855
G1 X203.27 Y209.515 E.2812
G1 X137.057 Y213.212 E6.0301
G1 X86.257 Y213.212 E4.61922
G1 X83.998 Y212.815 E.20856
G1 X82.01 Y211.671 E.20856
G1 X80.53 Y209.919 E.20854
G1 X79.738 Y207.766 E.2086
G1 X79.632 Y206.587 E.10764
G1 X79.632 Y155.787 E4.61922
G1 X80.029 Y153.528 E.20856
G1 X81.172 Y151.54 E.20852
G1 X82.856 Y150.119 E.20036
G1 E-3.25 F10020
G1 X201.3 Y201.3 F7800
G1 E3.25 F2400
;TYPE:Perimeter
;WIDTH:0.7
G1 F1800
G1 X153.7 Y201.3 E4.32825
G1 X153.7 Y153.7 E4.32825
G1 X201.3 Y153.7 E4.32825
G1 X201.3 Y201.21 E4.32006
G1 E-3.25 F10020
G1 X201.925 Y201.925 F7800
G1 E3.25 F2400
G1 F1800
G1 X153.075 Y201.925 E4.44191
G1 X153.075 Y153.075 E4.44191
G1 X201.925 Y153.075 E4.44191
G1 X201.925 Y201.835 E4.43372
G1 E-3.25 F10020
G1 X202.55 Y202.55 F7800
G1 E3.25 F2400
;TYPE:External perimeter
G1 F1800
G1 X152.45 Y202.55 E4.55557
G1 X152.45 Y152.45 E4.55557
G1 X202.55 Y152.45 E4.55557
G1 X202.55 Y202.46 E4.54739
G1 X201.97 Y202.395 F7800
G1 E-3.25 F10020
G1 X176.493 Y183.693 F7800
G1 E3.25 F2400
;TYPE:Perimeter
G1 F1800
G1 X176.964 Y183.567 E.04433
G1 X177.506 Y183.531 E.04939
G1 X178.036 Y183.567 E.0483
G1 X178.72 Y183.742 E.0642
G1 X179.228 Y183.977 E.0509
G1 X179.773 Y184.364 E.06078
G1 X180.022 Y184.599 E.03113
G1 X180.375 Y185.022 E.0501
G1 X180.689 Y185.584 E.05854
G1 X180.813 Y185.898 E.0307
G1 X180.95 Y186.411 E.04828
G1 X181 Y187.04 E.05738
G1 X180.996 Y187.262 E.02019
G1 X180.916 Y187.787 E.04829
G1 X180.764 Y188.272 E.04622
G1 X180.547 Y188.753 E.04798
G1 X180.246 Y189.2 E.049
G1 X179.758 Y189.699 E.06346
G1 X179.13 Y190.122 E.06885
G1 X178.426 Y190.4 E.06882
G1 X177.679 Y190.52 E.0688
G1 X177.236 Y190.51 E.04029
G1 X176.651 Y190.423 E.05378
G1 X176.133 Y190.25 E.04966
G1 X175.528 Y189.916 E.06284
G1 X174.952 Y189.424 E.06888
G1 X174.73 Y189.164 E.03109
G1 X174.426 Y188.707 E.04991
G1 X174.174 Y188.113 E.05867
G1 X174.084 Y187.787 E.03075
G1 X174.004 Y187.261 E.04838
G1 X174.024 Y186.616 E.05868
G1 X174.08 Y186.283 E.0307
G1 X174.225 Y185.779 E.04769
G1 X174.517 Y185.194 E.05945
G1 X174.969 Y184.607 E.06737
G1 X175.215 Y184.375 E.03075
G1 X175.622 Y184.068 E.04636
G1 X176.234 Y183.763 E.06218
G1 X176.406 Y183.716 E.01621
G1 X176.663 Y184.287 F7800
G1 F1800
G1 X177.097 Y184.177 E.04071
G1 X177.704 Y184.156 E.05523
G1 X178.314 Y184.266 E.05636
G1 X178.888 Y184.506 E.05657
G1 X179.397 Y184.863 E.05653
G1 X179.825 Y185.333 E.0578
G1 X180.136 Y185.875 E.05682
G1 X180.322 Y186.468 E.05651
G1 X180.374 Y187.207 E.06736
G1 X180.288 Y187.745 E.04954
G1 X180.091 Y188.274 E.05133
G1 X179.762 Y188.802 E.05657
G1 X179.327 Y189.246 E.05652
G1 X178.807 Y189.587 E.05654
G1 X178.225 Y189.808 E.05661
G1 X177.61 Y189.899 E.05653
G1 X176.99 Y189.855 E.05652
G1 X176.393 Y189.68 E.05657
G1 X175.848 Y189.379 E.05661
G1 X175.381 Y188.969 E.05651
G1 X175.005 Y188.456 E.05783
G1 X174.755 Y187.883 E.05685
G1 X174.635 Y187.273 E.05653
G1 X174.648 Y186.651 E.05657
G1 X174.795 Y186.047 E.05652
G1 X175.069 Y185.489 E.05653
G1 X175.446 Y185.012 E.05528
G1 X175.936 Y184.611 E.05757
G1 X176.494 Y184.33 E.05681
G1 X176.576 Y184.31 E.00767
G1 X176.883 Y184.864 F7800
;TYPE:External perimeter
G1 F1800
G1 X177.296 Y184.781 E.0383
G1 X177.771 Y184.788 E.0432
G1 X178.245 Y184.898 E.04425
G1 X178.685 Y185.108 E.04433
G1 X179.07 Y185.409 E.04444
G1 X179.387 Y185.794 E.04535
G1 X179.608 Y186.229 E.04437
G1 X179.73 Y186.699 E.04415
G1 X179.751 Y187.152 E.04124
G1 X179.664 Y187.654 E.04633
G1 X179.478 Y188.104 E.04428
G1 X179.2 Y188.504 E.04429
G1 X178.842 Y188.835 E.04433
G1 X178.422 Y189.081 E.04426
G1 X177.958 Y189.231 E.04434
G1 X177.368 Y189.267 E.05375
G1 X176.989 Y189.22 E.03473
G1 X176.529 Y189.059 E.04432
G1 X176.115 Y188.802 E.04431
G1 X175.765 Y188.462 E.04437
G1 X175.491 Y188.045 E.04537
G1 X175.318 Y187.589 E.04435
G1 X175.248 Y187.107 E.04429
G1 X175.283 Y186.621 E.04431
G1 X175.422 Y186.153 E.04439
G1 X175.657 Y185.728 E.04416
G1 X175.971 Y185.37 E.0433
G1 X176.373 Y185.074 E.04539
G1 X176.796 Y184.887 E.04205
G1 X176.975 Y184.453 F7800
G1 E-3.25 F10020
G1 X175.117 Y174.942 F7800
G1 E3.25 F2400
;TYPE:Perimeter
G1 F1800
G1 X175.626 Y174.54 E.05898
G1 X176.234 Y174.238 E.06173
G1 X176.554 Y174.131 E.03068
G1 X177.075 Y174.022 E.0484
G1 X177.72 Y174.007 E.05867
G1 X178.451 Y174.132 E.06743
G1 X179.148 Y174.413 E.06833
G1 X179.438 Y174.586 E.03071
G1 X179.861 Y174.911 E.04851
G1 X180.292 Y175.39 E.05859
G1 X180.483 Y175.669 E.03074
G1 X180.73 Y176.141 E.04844
G1 X180.923 Y176.773 E.06009
G1 X180.978 Y177.107 E.03078
G1 X181.002 Y177.626 E.04724
G1 X180.916 Y178.262 E.05836
G1 X180.826 Y178.588 E.03075
G1 X180.617 Y179.102 E.05045
G1 X180.28 Y179.626 E.05665
G1 X180.062 Y179.884 E.03071
G1 X179.678 Y180.245 E.04792
G1 X179.13 Y180.597 E.05922
G1 X178.426 Y180.875 E.06882
G1 X177.679 Y180.995 E.0688
G1 X177.236 Y180.985 E.04029
G1 X176.651 Y180.898 E.05378
G1 X176.133 Y180.725 E.04966
G1 X175.514 Y180.382 E.06435
G1 X175.242 Y180.174 E.03114
G1 X174.869 Y179.814 E.04714
G1 X174.485 Y179.278 E.05996
G1 X174.328 Y178.979 E.03071
G1 X174.131 Y178.464 E.05014
G1 X174.018 Y177.848 E.05695
G1 X174.022 Y177.107 E.06738
G1 X174.187 Y176.373 E.06841
G1 X174.311 Y176.059 E.0307
G1 X174.549 Y175.612 E.04605
G1 X174.966 Y175.086 E.06104
G1 X175.052 Y175.004 E.0108
G1 X175.581 Y175.377 F7800
G1 F1800
G1 X175.936 Y175.086 E.04174
G1 X176.494 Y174.805 E.05681
G1 X177.097 Y174.652 E.05657
G1 X177.719 Y174.632 E.05659
G1 X178.316 Y174.742 E.0552
G1 X178.888 Y174.981 E.05637
G1 X179.397 Y175.338 E.05653
G1 X179.817 Y175.796 E.05651
G1 X180.129 Y176.334 E.05655
G1 X180.321 Y176.941 E.05789
G1 X180.376 Y177.549 E.05551
G1 X180.299 Y178.163 E.05627
G1 X180.091 Y178.749 E.05654
G1 X179.762 Y179.277 E.05657
G1 X179.327 Y179.721 E.05652
G1 X178.807 Y180.062 E.05654
G1 X178.225 Y180.283 E.05661
G1 X177.61 Y180.374 E.05653
G1 X176.99 Y180.33 E.05652
G1 X176.393 Y180.155 E.05657
G1 X175.837 Y179.846 E.05784
G1 X175.673 Y179.721 E.01875
G1 X175.281 Y179.336 E.04996
G1 X174.984 Y178.898 E.04812
G1 X174.755 Y178.358 E.05333
G1 X174.635 Y177.748 E.05653
G1 X174.646 Y177.141 E.0552
G1 X174.789 Y176.538 E.05635
G1 X175.06 Y175.978 E.05657
G1 X175.444 Y175.489 E.05654
G1 X175.511 Y175.434 E.00788
G1 X175.97 Y175.846 F7800
;TYPE:External perimeter
G1 F1800
G1 X176.373 Y175.549 E.04552
G1 X176.819 Y175.352 E.04433
G1 X177.297 Y175.256 E.04433
G1 X177.783 Y175.264 E.0442
G1 X178.245 Y175.373 E.04316
G1 X178.685 Y175.583 E.04433
G1 X179.069 Y175.883 E.04431
G1 X179.38 Y176.258 E.0443
G1 X179.603 Y176.692 E.04437
G1 X179.73 Y177.174 E.04532
G1 X179.748 Y177.649 E.04322
G1 X179.664 Y178.129 E.04431
G1 X179.478 Y178.579 E.04428
G1 X179.2 Y178.979 E.04429
G1 X178.842 Y179.31 E.04433
G1 X178.422 Y179.556 E.04426
G1 X177.958 Y179.706 E.04434
G1 X177.368 Y179.742 E.05375
G1 X176.989 Y179.695 E.03473
G1 X176.528 Y179.533 E.04443
G1 X176.104 Y179.269 E.04542
G1 X175.757 Y178.928 E.04424
G1 X175.49 Y178.52 E.04434
G1 X175.318 Y178.064 E.04432
G1 X175.248 Y177.583 E.0442
G1 X175.281 Y177.109 E.0432
G1 X175.417 Y176.641 E.04432
G1 X175.65 Y176.213 E.04431
G1 X175.911 Y175.914 E.03609
G1 X175.86 Y175.357 F7800
G1 E-3.25 F10020
G1 X180.758 Y195.283 F7800
G1 E3.25 F2400
;TYPE:Perimeter
G1 F1800
G1 X180.808 Y195.408 E.01224
G1 X180.958 Y195.978 E.05359
G1 X181 Y196.723 E.06785
G1 X180.916 Y197.312 E.0541
G1 X180.672 Y198.029 E.06887
G1 X180.28 Y198.676 E.06879
G1 X179.758 Y199.224 E.06882
G1 X179.13 Y199.647 E.06885
G1 X178.426 Y199.925 E.06882
G1 X177.679 Y200.045 E.0688
G1 X177.337 Y200.046 E.0311
G1 X176.574 Y199.925 E.07025
G1 X175.87 Y199.647 E.06882
G1 X175.242 Y199.224 E.06885
G1 X174.72 Y198.676 E.06882
G1 X174.328 Y198.029 E.06879
G1 X174.084 Y197.312 E.06887
G1 X173.999 Y196.721 E.05429
G1 X174.024 Y196.141 E.05279
G1 X174.194 Y195.403 E.06886
G1 X174.32 Y195.09 E.03068
G1 X174.576 Y194.618 E.04883
G1 X174.969 Y194.132 E.05683
G1 X175.215 Y193.9 E.03075
G1 X175.629 Y193.588 E.04714
G1 X176.234 Y193.288 E.0614
G1 X176.964 Y193.092 E.06873
G1 X177.494 Y193.057 E.0483
G1 X178.002 Y193.084 E.04626
G1 X178.519 Y193.198 E.04814
G1 X179.148 Y193.463 E.06206
G1 X179.773 Y193.889 E.06878
G1 X180.019 Y194.121 E.03075
G1 X180.37 Y194.539 E.04963
G1 X180.68 Y195.09 E.05749
G1 X180.724 Y195.2 E.01077
G1 X180.183 Y195.553 F7800
G1 F1800
G1 X180.321 Y195.991 E.04176
G1 X180.376 Y196.694 E.06412
G1 X180.299 Y197.213 E.04771
G1 X180.091 Y197.799 E.05654
G1 X179.762 Y198.327 E.05657
G1 X179.327 Y198.771 E.05652
G1 X178.807 Y199.112 E.05654
G1 X178.225 Y199.333 E.05661
G1 X177.61 Y199.424 E.05653
G1 X176.975 Y199.378 E.05789
G1 X176.377 Y199.198 E.05679
G1 X175.834 Y198.895 E.05654
G1 X175.369 Y198.482 E.05655
G1 X175.004 Y197.978 E.05658
G1 X174.755 Y197.408 E.05656
G1 X174.635 Y196.798 E.05653
G1 X174.648 Y196.176 E.05657
G1 X174.795 Y195.572 E.05652
G1 X175.069 Y195.014 E.05653
G1 X175.446 Y194.537 E.05528
G1 X175.936 Y194.136 E.05757
G1 X176.494 Y193.855 E.05681
G1 X177.097 Y193.702 E.05657
G1 X177.719 Y193.682 E.05659
G1 X178.316 Y193.792 E.0552
G1 X178.888 Y194.031 E.05637
G1 X179.397 Y194.388 E.05653
G1 X179.817 Y194.846 E.05651
G1 X180.129 Y195.384 E.05655
G1 X180.155 Y195.467 E.00791
G1 X179.606 Y195.751 F7800
;TYPE:External perimeter
G1 F1800
G1 X179.73 Y196.224 E.04446
G1 X179.752 Y196.664 E.04006
G1 X179.664 Y197.179 E.04751
G1 X179.478 Y197.629 E.04428
G1 X179.2 Y198.029 E.04429
G1 X178.842 Y198.36 E.04433
G1 X178.422 Y198.606 E.04426
G1 X177.958 Y198.756 E.04434
G1 X177.472 Y198.803 E.0444
G1 X176.976 Y198.742 E.04544
G1 X176.517 Y198.578 E.04432
G1 X176.104 Y198.319 E.04433
G1 X175.757 Y197.978 E.04424
G1 X175.49 Y197.57 E.04434
G1 X175.318 Y197.114 E.04432
G1 X175.248 Y196.632 E.04429
G1 X175.283 Y196.146 E.04431
G1 X175.422 Y195.678 E.04439
G1 X175.657 Y195.253 E.04416
G1 X175.971 Y194.895 E.0433
G1 X176.373 Y194.599 E.04539
G1 X176.819 Y194.402 E.04433
G1 X177.297 Y194.306 E.04433
G1 X177.783 Y194.314 E.0442
G1 X178.245 Y194.423 E.04316
G1 X178.685 Y194.633 E.04433
G1 X179.069 Y194.933 E.04431
G1 X179.38 Y195.308 E.0443
G1 X179.567 Y195.67 E.03705
G1 X180.089 Y195.829 F7800
G1 E-3.25 F10020
G1 X201.113 Y155.151 F7800
G1 E3.25 F2400
;TYPE:Solid infill
;WIDTH:0.700114
G1 F1800
G1 X200.131 Y154.168 E.12637
G1 X199.247 Y154.168 E.0804
G1 X200.832 Y155.753 E.20386
G1 X200.832 Y156.637 E.0804
G1 X198.363 Y154.168 E.31756
G1 X197.479 Y154.168 E.0804
G1 X200.832 Y157.521 E.43125
G1 X200.832 Y158.405 E.0804
G1 X196.595 Y154.168 E.54495
G1 X195.711 Y154.168 E.0804
G1 X200.832 Y159.289 E.65865
G1 X200.832 Y160.173 E.0804
G1 X194.827 Y154.168 E.77235
G1 X193.943 Y154.168 E.0804
G1 X200.832 Y161.057 E.88604
G1 X200.832 Y161.941 E.0804
G1 X193.059 Y154.168 E.99974
G1 X192.176 Y154.168 E.08031
G1 X200.832 Y162.824 E1.11331
G1 X200.832 Y163.708 E.0804
G1 X191.292 Y154.168 E1.22701
G1 X190.408 Y154.168 E.0804
G1 X200.832 Y164.592 E1.34071
G1 X200.832 Y165.476 E.0804
G1 X189.524 Y154.168 E1.4544
G1 X188.64 Y154.168 E.0804
G1 X200.832 Y166.36 E1.5681
G1 X200.832 Y167.244 E.0804
G1 X187.756 Y154.168 E1.6818
G1 X186.872 Y154.168 E.0804
G1 X200.832 Y168.128 E1.7955
G1 X200.832 Y169.012 E.0804
G1 X185.988 Y154.168 E1.90919
G1 X185.104 Y154.168 E.0804
G1 X200.832 Y169.896 E2.02289
G1 X200.832 Y170.779 E.08031
G1 X184.221 Y154.168 E2.13646
G1 X183.337 Y154.168 E.0804
G1 X200.832 Y171.663 E2.25016
G1 X200.832 Y172.547 E.0804
G1 X182.453 Y154.168 E2.36386
G1 X181.569 Y154.168 E.0804
G1 X200.832 Y173.431 E2.47755
G1 X200.832 Y174.315 E.0804
G1 X180.685 Y154.168 E2.59125
G1 X179.801 Y154.168 E.0804
G1 X200.832 Y175.199 E2.70495
G1 X200.832 Y176.083 E.0804
G1 X178.917 Y154.168 E2.81865
G1 X178.033 Y154.168 E.0804
G1 X200.832 Y176.967 E2.93234
G1 X200.832 Y177.851 E.0804
G1 X177.149 Y154.168 E3.04604
G1 X176.266 Y154.168 E.08031
G1 X200.832 Y178.734 E3.15961
G1 X200.832 Y179.618 E.0804
G1 X175.382 Y154.168 E3.27331
G1 X174.498 Y154.168 E.0804
G1 X200.832 Y180.502 E3.38701
G1 X200.832 Y181.386 E.0804
G1 X173.614 Y154.168 E3.5007
G1 X172.73 Y154.168 E.0804
G1 X200.832 Y182.27 E3.6144
G1 X200.832 Y183.154 E.0804
G1 X171.846 Y154.168 E3.7281
G1 X170.962 Y154.168 E.0804
G1 X200.832 Y184.038 E3.8418
G1 X200.832 Y184.922 E.0804
G1 X170.078 Y154.168 E3.95549
G1 X169.194 Y154.168 E.0804
G1 X200.832 Y185.806 E4.06919
G1 X200.832 Y186.689 E.08031
G1 X168.311 Y154.168 E4.18276
G1 X167.427 Y154.168 E.0804
G1 X200.832 Y187.573 E4.29646
G1 X200.832 Y188.457 E.0804
G1 X166.543 Y154.168 E4.41016
G1 X165.659 Y154.168 E.0804
G1 X200.832 Y189.341 E4.52385
G1 X200.832 Y190.225 E.0804
G1 X164.775 Y154.168 E4.63755
G1 X163.891 Y154.168 E.0804
G1 X200.832 Y191.109 E4.75125
G1 X200.832 Y191.993 E.0804
G1 X163.007 Y154.168 E4.86495
G1 X162.123 Y154.168 E.0804
G1 X200.832 Y192.877 E4.97864
G1 X200.832 Y193.761 E.0804
G1 X161.239 Y154.168 E5.09234
G1 X160.356 Y154.168 E.08031
G1 X200.832 Y194.644 E5.20591
G1 X200.832 Y195.528 E.0804
G1 X159.472 Y154.168 E5.31961
G1 X158.588 Y154.168 E.0804
G1 X177.977 Y173.557 E2.49376
G1 X177.727 Y173.539 E.0228
G1 X177.087 Y173.552 E.05822
G1 X157.704 Y154.168 E2.49305
G1 X156.82 Y154.168 E.0804
G1 X176.351 Y173.7 E2.51209
G1 X175.725 Y173.957 E.06154
G1 X155.936 Y154.168 E2.54521
G1 X155.052 Y154.168 E.0804
G1 X175.176 Y174.292 E2.58829
G1 X174.819 Y174.568 E.04104
G1 X174.695 Y174.695 E.01614
G1 X154.168 Y154.168 E2.64013
G1 X154.168 Y155.052 E.0804
G1 X174.286 Y175.17 E2.58752
G1 X174.147 Y175.37 E.02215
G1 X173.958 Y175.725 E.03658
G1 X154.168 Y155.936 E2.54527
G1 X154.168 Y156.82 E.0804
G1 X173.707 Y176.359 E2.51305
G1 X173.622 Y176.659 E.02836
G1 X173.567 Y176.936 E.02568
G1 X173.557 Y177.093 E.01431
G1 X154.168 Y157.704 E2.49376
G1 X154.168 Y158.588 E.0804
G1 X173.906 Y178.325 E2.53858
G1 E-3.25 F10020
G1 X181.084 Y176.665 F7800
G1 E3.25 F2400
G1 F1800
G1 X200.832 Y196.412 E2.53987
G1 X200.832 Y197.296 E.0804
G1 X181.443 Y177.908 E2.49369
G1 X181.373 Y178.368 E.04232
G1 X181.3 Y178.648 E.02632
G1 X200.832 Y198.18 E2.51215
G1 X200.832 Y199.064 E.0804
G1 X181.047 Y179.279 E2.54469
G1 X180.988 Y179.402 E.01241
G1 X180.708 Y179.825 E.04613
G1 X200.832 Y199.948 E2.58823
G1 X200.832 Y200.832 E.0804
G1 X180.3 Y180.3 E2.64077
G1 X179.978 Y180.606 E.0404
G1 X179.828 Y180.712 E.0167
G1 X199.948 Y200.832 E2.58778
G1 X199.064 Y200.832 E.0804
G1 X179.282 Y181.049 E2.54437
G1 X179.04 Y181.16 E.02421
G1 X178.643 Y181.294 E.03811
G1 X198.18 Y200.832 E2.51286
G1 X197.296 Y200.832 E.0804
G1 X177.905 Y181.44 E2.49408
G1 X177.646 Y181.469 E.0237
G1 X177.358 Y181.468 E.02619
