; generated by F3Slic3r 2.6.0-alpha4 on 2025-02-08 at 15:33:53 UTC

; 

; external perimeters extrusion width = 0.68mm
; perimeters extrusion width = 0.68mm
; infill extrusion width = 0.68mm
; solid infill extrusion width = 0.68mm
; top infill extrusion width = 0.60mm
; first layer extrusion width = 0.70mm

M107
;TYPE:Custom
; Fusion3 F410 F3Slic3r start script
; Rev 2023.01.16
M104 S0 
G21  
G90  
T0  
G92 E0.0  
M220 S100 
M140 S60  
G32 
M190 S60  
M109 S220  
; === pause for heating ===
; reset filament monitor
M42 P63 S0
G4 P100
G4 P50
M42 P63 S1
;
G1 Z10.0 F2000  ; move up
G1 E30.0 F500  ; prime extruder
G1 X20 Y15 F9000  ; move back
G1 Z0 F1000  ; move down to begin wipe
G1 X150 E4.0 F10000  ; wipe print head (extrude material while we do this)
G92 E0.0  ; reset e count
G21 ; set units to millimeters
G90 ; use absolute coordinates
M83 ; use relative distances for extrusion
; Filament gcode
M107
;LAYER_CHANGE
;Z:0.35
;HEIGHT:0.35
G1 Z.35 F7800
G1 E-3.25 F10020
G1 X131.987 Y160.815 F7800
G1 E3.25 F2400
;TYPE:Skirt/Brim
;WIDTH:0.7
G1 F1800
G1 X133.865 Y159.499 E.20852
G1 X136.672 Y158.875 E.26147
G1 X218.328 Y158.875 E7.42495
G1 X220.587 Y159.272 E.20856
G1 X223.013 Y160.815 E.26143
G1 X224.185 Y161.987 E.15071
G1 X225.501 Y163.865 E.20852
G1 X226.125 Y166.672 E.26147
G1 X226.125 Y188.328 E1.96917
G1 X225.728 Y190.587 E.20856
G1 X224.185 Y193.013 E.26143
G1 X223.013 Y194.185 E.15071
G1 X221.135 Y195.501 E.20852
G1 X218.328 Y196.125 E.26147
G1 X136.672 Y196.125 E7.42495
G1 X134.413 Y195.728 E.20856
G1 X131.987 Y194.185 E.26143
G1 X130.815 Y193.013 E.15071
G1 X129.499 Y191.135 E.20852
G1 X128.875 Y188.328 E.26147
G1 X128.875 Y166.672 E1.96917
G1 X129.272 Y164.413 E.20856
G1 X130.815 Y161.987 E.26143
G1 X131.923 Y160.879 E.14248
G1 E-3.25 F10020
G1 X136.688 Y166.103 F7800
G1 E3.25 F2400
G1 F1800
G1 X137.086 Y165.938 E.03918
G1 X217.974 Y165.95 E7.35511
G1 X218.312 Y166.103 E.03374
G1 X218.897 Y166.688 E.07523
G1 X219.062 Y167.086 E.03918
G1 X219.05 Y187.974 E1.89934
G1 X218.897 Y188.312 E.03374
G1 X218.312 Y188.897 E.07523
G1 X217.914 Y189.062 E.03918
G1 X137.026 Y189.05 E7.35511
G1 X136.688 Y188.897 E.03374
G1 X136.103 Y188.312 E.07523
G1 X135.938 Y187.914 E.03918
G1 X135.938 Y167.086 E1.89388
G1 X136.103 Y166.688 E.03918
G1 X136.624 Y166.166 E.06706
G1 X137.064 Y166.61 F7800
G1 F1800
G1 X137.179 Y166.563 E.0113
G1 X217.821 Y166.563 E7.33274
G1 X217.936 Y166.61 E.0113
G1 X218.39 Y167.064 E.05838
G1 X218.437 Y167.179 E.0113
G1 X218.437 Y187.821 E1.87697
G1 X218.39 Y187.936 E.0113
G1 X217.936 Y188.39 E.05838
G1 X217.821 Y188.437 E.0113
G1 X137.179 Y188.437 E7.33274
G1 X137.064 Y188.39 E.0113
G1 X136.61 Y187.936 E.05838
G1 X136.563 Y187.821 E.0113
G1 X136.563 Y167.179 E1.87697
G1 X136.61 Y167.064 E.0113
G1 X137.001 Y166.674 E.05022
G1 X137.371 Y167.188 F7800
G1 F1800
G1 X217.629 Y167.188 E7.29783
G1 X217.812 Y167.371 E.02353
G1 X217.812 Y187.629 E1.84205
G1 X217.629 Y187.812 E.02353
G1 X137.371 Y187.812 E7.29783
G1 X137.188 Y187.629 E.02353
G1 X137.188 Y167.371 E1.84205
G1 X137.307 Y167.251 E.01537
G1 E-3.25 F10020
G1 X215.9 Y185.9 F7800
G1 E3.25 F2400
;TYPE:Perimeter
;WIDTH:0.7
G1 F1800
G1 X139.1 Y185.9 E6.98339
G1 X139.1 Y169.1 E1.52762
G1 X215.9 Y169.1 E6.98339
G1 X215.9 Y185.81 E1.51943
G1 E-3.25 F10020
G1 X216.525 Y186.525 F7800
G1 E3.25 F2400
G1 F1800
G1 X138.475 Y186.525 E7.09705
G1 X138.475 Y168.475 E1.64128
G1 X216.525 Y168.475 E7.09705
G1 X216.525 Y186.435 E1.63309
G1 E-3.25 F10020
G1 X217.15 Y187.15 F7800
G1 E3.25 F2400
;TYPE:External perimeter
G1 F1800
G1 X137.85 Y187.15 E7.21071
G1 X137.85 Y167.85 E1.75494
G1 X217.15 Y167.85 E7.21071
G1 X217.15 Y187.06 E1.74676
G1 X216.552 Y187.102 F7800
G1 E-3.25 F10020
G1 X200.605 Y177.475 F7800
G1 E3.25 F2400
;TYPE:Perimeter
G1 F1800
G1 X200.62 Y177.033 E.04021
G1 X200.746 Y176.103 E.08534
G1 X200.917 Y175.438 E.06244
G1 X201.14 Y174.828 E.05906
G1 X201.42 Y174.241 E.05914
G1 X201.753 Y173.684 E.05901
G1 X202.048 Y173.279 E.04556
G1 X202.57 Y172.674 E.07266
G1 X203.046 Y172.232 E.05907
G1 X203.562 Y171.836 E.05914
G1 X204.112 Y171.491 E.05904
G1 X204.693 Y171.198 E.05917
G1 X205.298 Y170.962 E.05905
G1 X205.923 Y170.784 E.05909
G1 X206.563 Y170.665 E.05919
G1 X207.398 Y170.603 E.07614
G1 X208.075 Y170.626 E.06159
G1 X208.72 Y170.71 E.05914
G1 X209.354 Y170.855 E.05914
G1 X209.971 Y171.059 E.05909
G1 X210.566 Y171.32 E.05908
G1 X211.134 Y171.636 E.0591
G1 X211.67 Y172.005 E.05917
G1 X212.307 Y172.554 E.07647
G1 X212.768 Y173.046 E.06131
G1 X213.164 Y173.562 E.05914
G1 X213.509 Y174.112 E.05904
G1 X213.801 Y174.693 E.05913
G1 X214.038 Y175.298 E.05908
G1 X214.216 Y175.924 E.05918
G1 X214.357 Y176.753 E.07646
G1 X214.4 Y177.5 E.06804
G1 X214.374 Y178.076 E.05243
G1 X214.252 Y178.908 E.07646
G1 X214.083 Y179.562 E.06142
G1 X213.86 Y180.172 E.05906
G1 X213.58 Y180.759 E.05914
G1 X213.247 Y181.316 E.05901
G1 X212.862 Y181.84 E.05913
G1 X212.43 Y182.326 E.05913
G1 X211.805 Y182.889 E.07649
G1 X211.258 Y183.285 E.0614
G1 X210.697 Y183.613 E.05909
G1 X210.108 Y183.887 E.05907
G1 X209.495 Y184.104 E.05913
G1 X208.865 Y184.262 E.05906
G1 X208.222 Y184.361 E.05916
G1 X207.574 Y184.398 E.05902
G1 X206.924 Y184.374 E.05914
G1 X206.28 Y184.29 E.05905
G1 X205.646 Y184.145 E.05914
G1 X205.029 Y183.941 E.05909
G1 X204.434 Y183.68 E.05908
G1 X203.866 Y183.364 E.0591
G1 X203.33 Y182.995 E.05917
G1 X202.693 Y182.446 E.07647
G1 X202.232 Y181.954 E.06131
G1 X201.836 Y181.438 E.05914
G1 X201.491 Y180.888 E.05904
G1 X201.25 Y180.412 E.04851
G1 X200.962 Y179.702 E.06967
G1 X200.811 Y179.175 E.04985
G1 X200.643 Y178.247 E.08575
G1 X200.602 Y177.565 E.06213
G1 X201.228 Y177.492 F7800
G1 F1800
G1 X201.25 Y176.953 E.04905
G1 X201.363 Y176.2 E.06924
G1 X201.52 Y175.603 E.05613
G1 X201.725 Y175.049 E.05371
G1 X201.981 Y174.516 E.05377
G1 X202.286 Y174.01 E.05372
G1 X202.638 Y173.535 E.05376
G1 X203.032 Y173.095 E.05371
G1 X203.467 Y172.694 E.0538
G1 X203.937 Y172.336 E.05372
G1 X204.439 Y172.023 E.05379
G1 X204.968 Y171.76 E.05372
G1 X205.519 Y171.547 E.05372
G1 X206.088 Y171.387 E.05375
G1 X206.67 Y171.281 E.05379
G1 X207.438 Y171.227 E.07001
G1 X208.046 Y171.25 E.05532
G1 X208.632 Y171.329 E.05377
G1 X209.208 Y171.463 E.05377
G1 X209.769 Y171.65 E.05377
G1 X210.309 Y171.89 E.05373
G1 X210.824 Y172.179 E.0537
G1 X211.311 Y172.516 E.05385
G1 X211.894 Y173.022 E.07019
G1 X212.306 Y173.467 E.05514
G1 X212.664 Y173.937 E.05372
G1 X212.977 Y174.439 E.05379
G1 X213.24 Y174.968 E.05372
G1 X213.453 Y175.519 E.05372
G1 X213.613 Y176.089 E.05383
G1 X213.74 Y176.851 E.07024
G1 X213.775 Y177.5 E.0591
G1 X213.75 Y178.047 E.04979
G1 X213.635 Y178.811 E.07025
G1 X213.48 Y179.397 E.05512
G1 X213.275 Y179.951 E.05371
G1 X213.019 Y180.484 E.05377
G1 X212.714 Y180.99 E.05372
G1 X212.362 Y181.465 E.05376
G1 X211.967 Y181.905 E.05377
G1 X211.392 Y182.42 E.07019
G1 X210.899 Y182.774 E.05519
G1 X210.388 Y183.07 E.0537
G1 X209.851 Y183.317 E.05375
G1 X209.293 Y183.512 E.05375
G1 X208.719 Y183.654 E.05377
G1 X208.134 Y183.742 E.05379
G1 X207.544 Y183.774 E.05373
G1 X206.954 Y183.75 E.05369
G1 X206.368 Y183.671 E.05377
G1 X205.792 Y183.537 E.05377
G1 X205.231 Y183.35 E.05377
G1 X204.691 Y183.11 E.05373
G1 X204.176 Y182.821 E.0537
G1 X203.689 Y182.484 E.05385
G1 X203.106 Y181.978 E.07019
G1 X202.694 Y181.533 E.05514
G1 X202.336 Y181.063 E.05372
G1 X202.023 Y180.561 E.05379
G1 X201.76 Y180.032 E.05372
G1 X201.547 Y179.481 E.05372
G1 X201.387 Y178.911 E.05383
G1 X201.26 Y178.149 E.07024
G1 X201.228 Y177.582 E.05164
G1 X201.851 Y177.528 F7800
;TYPE:External perimeter
G1 F1800
G1 X201.874 Y176.983 E.0496
G1 X201.98 Y176.298 E.06303
G1 X202.122 Y175.768 E.04989
G1 X202.309 Y175.27 E.04837
G1 X202.542 Y174.791 E.04843
G1 X202.819 Y174.337 E.04836
G1 X203.137 Y173.91 E.04841
G1 X203.495 Y173.515 E.04847
G1 X203.887 Y173.156 E.04833
G1 X204.312 Y172.836 E.04837
G1 X204.765 Y172.556 E.04842
G1 X205.243 Y172.321 E.04843
G1 X205.74 Y172.131 E.04838
G1 X206.253 Y171.99 E.04838
G1 X206.778 Y171.897 E.04848
G1 X207.477 Y171.851 E.0637
G1 X208.017 Y171.874 E.04915
G1 X208.544 Y171.948 E.04839
G1 X209.062 Y172.071 E.04841
G1 X209.566 Y172.242 E.04839
G1 X210.052 Y172.459 E.0484
G1 X210.515 Y172.722 E.04842
G1 X210.951 Y173.027 E.04838
G1 X211.481 Y173.491 E.06405
G1 X211.844 Y173.887 E.04885
G1 X212.164 Y174.312 E.04837
G1 X212.444 Y174.765 E.04842
G1 X212.679 Y175.243 E.04843
G1 X212.869 Y175.74 E.04838
G1 X213.011 Y176.253 E.0484
G1 X213.123 Y176.949 E.0641
G1 X213.15 Y177.5 E.05016
G1 X213.126 Y178.017 E.04706
G1 X213.018 Y178.713 E.06404
G1 X212.878 Y179.232 E.04888
G1 X212.691 Y179.73 E.04837
G1 X212.458 Y180.209 E.04843
G1 X212.181 Y180.663 E.04836
G1 X211.863 Y181.09 E.04841
G1 X211.505 Y181.485 E.04847
G1 X210.978 Y181.952 E.06403
G1 X210.54 Y182.262 E.04879
G1 X210.078 Y182.527 E.04843
G1 X209.594 Y182.748 E.04838
G1 X209.09 Y182.921 E.04845
G1 X208.573 Y183.047 E.04839
G1 X208.046 Y183.123 E.04842
G1 X207.515 Y183.15 E.04835
G1 X206.983 Y183.126 E.04842
G1 X206.456 Y183.052 E.04839
G1 X205.938 Y182.929 E.04841
G1 X205.434 Y182.758 E.04839
G1 X204.948 Y182.541 E.0484
G1 X204.485 Y182.278 E.04842
G1 X204.049 Y181.973 E.04838
G1 X203.519 Y181.509 E.06405
G1 X203.156 Y181.113 E.04885
G1 X202.836 Y180.688 E.04837
G1 X202.556 Y180.235 E.04842
G1 X202.321 Y179.757 E.04843
G1 X202.131 Y179.26 E.04838
G1 X201.989 Y178.747 E.0484
G1 X201.877 Y178.051 E.0641
G1 X201.856 Y177.617 E.03951
G1 X201.376 Y177.259 F7800
G1 E-3.25 F10020
G1 X190.435 Y170.991 F7800
G1 E3.25 F2400
;TYPE:Perimeter
G1 F1800
G1 X191.497 Y170.729 E.09946
G1 X192.398 Y170.653 E.08222
G1 X193.071 Y170.675 E.06123
G1 X193.29 Y170.701 E.02005
G1 X194.268 Y170.888 E.09054
G1 X195.476 Y171.336 E.11715
G1 X196.578 Y172.003 E.11713
G1 X197.272 Y172.589 E.08259
G1 X197.948 Y173.376 E.09434
G1 X198.242 Y173.775 E.04507
G1 X198.722 Y174.647 E.09051
G1 X198.947 Y175.251 E.05861
G1 X199.146 Y175.864 E.0586
G1 X199.306 Y176.753 E.08214
G1 X199.326 Y177.396 E.0585
G1 X199.326 Y177.998 E.05474
G1 X199.203 Y178.897 E.08251
G1 X198.838 Y180.083 E.11283
G1 X198.536 Y180.691 E.06173
G1 X198.242 Y181.225 E.05543
G1 X197.442 Y182.235 E.11716
G1 X196.774 Y182.85 E.08256
G1 X195.738 Y183.53 E.11268
G1 X194.55 Y184.03 E.1172
G1 X193.29 Y184.299 E.11715
G1 X192.002 Y184.326 E.11714
G1 X190.732 Y184.112 E.11711
G1 X189.524 Y183.664 E.11715
G1 X188.422 Y182.997 E.11713
G1 X187.728 Y182.411 E.08259
G1 X187.006 Y181.568 E.10092
G1 X186.758 Y181.225 E.03849
G1 X186.278 Y180.352 E.09059
G1 X185.976 Y179.569 E.07631
G1 X185.787 Y178.856 E.06707
G1 X185.724 Y178.355 E.04591
G1 X185.657 Y177.647 E.06467
G1 X185.684 Y177.073 E.05225
G1 X185.751 Y176.362 E.06494
G1 X185.872 Y175.789 E.05325
G1 X186.177 Y174.871 E.08796
G1 X186.464 Y174.265 E.06097
G1 X187.052 Y173.371 E.0973
G1 X187.321 Y173.025 E.03985
G1 X188.025 Y172.321 E.09053
G1 X189.075 Y171.574 E.11717
G1 X190.246 Y171.037 E.11714
G1 X190.347 Y171.012 E.00946
G1 X190.592 Y171.587 F7800
G1 F1800
G1 X191.633 Y171.339 E.09731
G1 X192.438 Y171.277 E.07342
G1 X193.041 Y171.3 E.05487
G1 X194.151 Y171.502 E.10259
G1 X195.246 Y171.917 E.10648
G1 X196.243 Y172.531 E.10647
G1 X196.859 Y173.058 E.07371
G1 X197.466 Y173.774 E.08535
G1 X197.695 Y174.076 E.03446
G1 X198.174 Y174.949 E.09055
G1 X198.552 Y176.057 E.10645
G1 X198.689 Y176.851 E.07326
G1 X198.701 Y177.396 E.04957
G1 X198.701 Y177.998 E.05474
G1 X198.586 Y178.8 E.07367
G1 X198.244 Y179.89 E.10388
G1 X197.695 Y180.924 E.10645
G1 X196.961 Y181.837 E.10652
G1 X196.361 Y182.381 E.07364
G1 X195.403 Y183.003 E.10386
G1 X194.32 Y183.449 E.1065
G1 X193.173 Y183.685 E.10648
G1 X192.002 Y183.701 E.10649
G1 X190.849 Y183.498 E.10645
G1 X189.754 Y183.083 E.10648
G1 X188.757 Y182.469 E.10647
G1 X188.141 Y181.942 E.07371
G1 X187.488 Y181.17 E.09194
G1 X187.305 Y180.924 E.02788
G1 X186.826 Y180.051 E.09055
G1 X186.563 Y179.357 E.06748
G1 X186.395 Y178.71 E.06078
G1 X186.275 Y177.5 E.11056
G1 X186.346 Y176.704 E.07267
G1 X186.395 Y176.29 E.03791
G1 X186.512 Y175.803 E.04554
G1 X186.765 Y175.083 E.06939
G1 X187.025 Y174.54 E.05474
G1 X187.569 Y173.722 E.08933
G1 X187.763 Y173.467 E.02913
G1 X188.467 Y172.763 E.09053
G1 X189.426 Y172.091 E.10648
G1 X190.505 Y171.608 E.10749
G1 X190.729 Y172.19 F7800
;TYPE:External perimeter
G1 F1800
G1 X191.769 Y171.949 E.09707
G1 X192.477 Y171.901 E.06453
G1 X193.012 Y171.924 E.04869
G1 X194.034 Y172.115 E.09454
G1 X195.015 Y172.498 E.09576
G1 X195.909 Y173.058 E.09592
G1 X196.445 Y173.527 E.06476
G1 X197.147 Y174.377 E.10024
G1 X197.627 Y175.25 E.09059
G1 X197.969 Y176.298 E.10024
G1 X198.073 Y176.953 E.0603
G1 X198.077 Y177.5 E.04974
G1 X198.076 Y178.013 E.04665
G1 X197.969 Y178.702 E.0634
G1 X197.627 Y179.75 E.10024
G1 X197.147 Y180.623 E.09059
G1 X196.479 Y181.438 E.09582
G1 X195.948 Y181.912 E.06472
G1 X195.068 Y182.475 E.09499
G1 X194.09 Y182.868 E.09584
G1 X193.056 Y183.071 E.09582
G1 X192.002 Y183.077 E.09584
G1 X190.966 Y182.885 E.09581
G1 X189.984 Y182.502 E.09584
G1 X189.091 Y181.942 E.09585
G1 X188.555 Y181.473 E.06476
G1 X187.969 Y180.772 E.08308
G1 X187.577 Y180.121 E.0691
G1 X187.353 Y179.706 E.04288
G1 X187.128 Y179.081 E.0604
G1 X187.002 Y178.564 E.04839
G1 X186.901 Y177.471 E.09981
G1 X186.995 Y176.48 E.09052
G1 X187.119 Y175.949 E.04958
G1 X187.353 Y175.294 E.06325
G1 X187.586 Y174.815 E.04843
G1 X188.205 Y173.909 E.09977
G1 X188.909 Y173.205 E.09053
G1 X189.777 Y172.608 E.09579
G1 X190.646 Y172.226 E.08632
G1 X190.849 Y171.603 F7800
G1 E-3.25 F10020
G1 X174.278 Y171.536 F7800
G1 E3.25 F2400
;TYPE:Perimeter
G1 F1800
G1 X175.261 Y171.085 E.09834
G1 X176.503 Y170.779 E.11631
G1 X177.398 Y170.703 E.08167
G1 X178.066 Y170.725 E.06077
G1 X179.254 Y170.936 E.10971
G1 X180.453 Y171.381 E.11629
G1 X181.236 Y171.821 E.08167
G1 X182.199 Y172.592 E.11217
G1 X182.926 Y173.428 E.10074
G1 X183.301 Y173.972 E.06008
G1 X183.619 Y174.547 E.05975
G1 X183.982 Y175.464 E.08968
G1 X184.133 Y176.105 E.05988
G1 X184.249 Y176.714 E.05637
G1 X184.277 Y177.712 E.09078
G1 X184.249 Y178.286 E.05226
G1 X184.064 Y179.254 E.08961
G1 X183.763 Y180.091 E.08088
G1 X183.51 Y180.676 E.05796
G1 X183.177 Y181.239 E.05948
G1 X182.407 Y182.199 E.1119
G1 X181.439 Y183.036 E.11636
G1 X180.676 Y183.51 E.08168
G1 X179.537 Y183.982 E.11211
G1 X178.286 Y184.249 E.11631
G1 X177.007 Y184.277 E.11633
G1 X175.746 Y184.064 E.11629
G1 X174.547 Y183.619 E.11629
G1 X173.764 Y183.179 E.08167
G1 X173.224 Y182.785 E.06078
G1 X172.36 Y181.943 E.1097
G1 X171.687 Y181.002 E.1052
G1 X171.36 Y180.398 E.06245
G1 X171.13 Y179.864 E.05287
G1 X170.855 Y178.917 E.08967
G1 X170.765 Y178.262 E.06012
G1 X170.707 Y177.647 E.05617
G1 X170.799 Y176.381 E.11542
G1 X170.956 Y175.734 E.06054
G1 X171.131 Y175.133 E.05692
G1 X171.358 Y174.606 E.05218
G1 X171.618 Y174.099 E.05181
G1 X172.174 Y173.281 E.08994
G1 X173.057 Y172.36 E.11602
G1 X174.099 Y171.618 E.11632
G1 X174.196 Y171.573 E.00972
G1 X174.545 Y172.092 F7800
G1 F1800
G1 X175.509 Y171.659 E.09609
G1 X176.639 Y171.389 E.10564
G1 X177.438 Y171.327 E.07287
G1 X178.037 Y171.349 E.0545
G1 X179.137 Y171.55 E.10168
G1 X180.223 Y171.962 E.10562
G1 X180.918 Y172.359 E.07278
G1 X181.801 Y173.074 E.10331
G1 X182.445 Y173.826 E.09003
G1 X182.764 Y174.29 E.0512
G1 X183.038 Y174.777 E.05081
G1 X183.401 Y175.694 E.08968
G1 X183.635 Y176.831 E.10555
G1 X183.652 Y177.712 E.08012
G1 X183.635 Y178.169 E.04158
G1 X183.45 Y179.137 E.08961
G1 X183.182 Y179.86 E.07011
G1 X182.972 Y180.358 E.04914
G1 X182.639 Y180.921 E.05948
G1 X181.926 Y181.801 E.10299
G1 X181.041 Y182.554 E.10566
G1 X180.358 Y182.972 E.07281
G1 X179.307 Y183.401 E.10322
G1 X178.169 Y183.635 E.10564
G1 X177.007 Y183.652 E.10567
G1 X175.863 Y183.45 E.10563
G1 X174.777 Y183.038 E.10562
G1 X174.082 Y182.641 E.07278
G1 X173.599 Y182.285 E.05456
G1 X172.802 Y181.501 E.10166
G1 X172.203 Y180.651 E.09455
G1 X171.926 Y180.132 E.05349
G1 X171.73 Y179.69 E.04397
G1 X171.455 Y178.743 E.08967
G1 X171.329 Y177.588 E.10565
G1 X171.421 Y176.44 E.10472
G1 X171.556 Y175.909 E.04982
G1 X171.731 Y175.307 E.05701
G1 X172.062 Y174.578 E.0728
G1 X172.613 Y173.746 E.09074
G1 X172.802 Y173.499 E.02828
G1 X173.499 Y172.802 E.08963
